/* XPM */
static char *out[] = {
/* columns rows colors chars-per-pixel */
"90 90 12 1 ",
"  c None",
". c black",
"X c #010000",
"o c #000100",
"O c #000001",
"+ c #222034",
"@ c #232034",
"# c #222035",
"$ c #8F964A",
"% c #8E974A",
"& c #8F974A",
"* c #8F974B",
/* pixels */
"                                                                                          ",
"                                                                                          ",
"                                                                                          ",
"                                                                                          ",
"                                                                                          ",
"                                                                                          ",
"                                                                                          ",
"                                                                                          ",
"                                                                                          ",
"                                                                                          ",
"                                                                                          ",
"                                                                                          ",
"                                                                                          ",
"                                                                                          ",
"                                                                                          ",
"                                                                                          ",
"                                                                                          ",
"                                                                                          ",
"                                                                                          ",
"                                                                                          ",
"                                                                                          ",
"                                                                                          ",
"                             ..o............X  ................                           ",
"                            .&&&&&&&&&&&&&&&&..&&&&&&&&&&&&&&&&.                          ",
"                           O&&&&&&&&&&&&&&&&&&&&&&&&&&&&&&&&&&&*.                         ",
"                           .&&&&&&&&&&&*&&&&&&&&&&&&&&&&&&&&&$&&.                         ",
"                           .&&&&&&&&&&&&&&&&&&&&&&&&&&&&&&&&&&&&.                         ",
"                          .*&&&&&&&&&&&&&&&&&&&&&&&&&&&&&&&&&&&&&.                        ",
"                          .&&&&&&&&&&&&&&&&&&&&&&&&&&&&&&&&&&&&&&.                        ",
"                          .&&&&$&&&&&&&&&&&&&&&&&&&&&&&&&&&&&&&*&.                        ",
"                         .&*$&&&&&&&&&&&&&&&&&&&&&&&&&&&&&&&&&&&&&.                       ",
"                         .&&&&&&&&&&&&&&&&&&&&&&&$&&&&&&&&&&&&&&&&.                       ",
"                         .&&&&&&&&&&&&&&&&&&&&&&&&&&&&&&&&&&&&&&&&.                       ",
"                         .&&&&&&&&&&&&&&&&&&&&&&&&&&$&&&&&&&&&&&&&.                       ",
"                         .&&&&&&&&&&&&&&&&*&&&&&&&&&&&*$&&&&&&&&&&.                       ",
"                         .&&&&&&&.......&&&&&&&&&&&&...o...&&&&&&&.                       ",
"                         .&&&&&..+++#+++..&&&&&&&&..+++++#+..&&&&&.                       ",
"                        .&&&&&.+++++++++++.&&&&&&.+++++++++++.&&&&&.                      ",
"                        .&&&&&&..+++++@+..&$&&&&&&..+++++++..&&&&&&.                      ",
"                        .&&&&&&&&O......&&&&&&&&&$&&..O....&*&&&&&&.                      ",
"                        .&&&&&&&&&&&&&&&&&&&&&&&&&&&&&&&&&&&&&&&&&&.                      ",
"                        .&&&&&&&&&&&&&&&&&&&&&&&&&&&&&&&&&&&&&&&&&&.                      ",
"                        .&&&&&&&&&&&&&&&&&&&&&&&&&&&&&&&&&&&&&&&&&&.                      ",
"                        .&&&&&&&&&&&&&&&&&&&&&&&*&&&&&&&&&&&&&&&&&&.                      ",
"                        .&&&&&&&&&&&&&&&&&&&&&&&&&&&&&&&&&&&&&&*&&&.                      ",
"                        .&&&&&&&&&&&&&&&&&&$&&&&&&&&&&&&&&&&&&&&$&&.                      ",
"                        .&&&&&&&&&&&&&&&&&&&&&&&&&&&&%&&&&&&&&&&&&&.                      ",
"                        .&&&&&&&&&&&&&&&&&&&&&&&&&&&&&&&&&&&&&&&&&&.                      ",
"                        .&&&&&&&&&&&&&&&&&&&&&&&&&&&&&&$&&&&&&&&&&&.                      ",
"                        .&&&&&&&%&&&*&&*&&&&&&&&&&&&&&&&&&&&&&&&&&&.                      ",
"                        .&&&&&&&&&&&&&&&&&&&&&&&&&&&&&&&&&&&&&&&&&&.                      ",
"                        .&&&&&&&&&&&&&&&&&&&&&&&&&&&&&&$&&&&&&&&&&&.                      ",
"                        .&&&&&&&&&&&&&&&&&&&&&&&&&&&$&&$&&&&&&&&&&&.                      ",
"                        .&&&&&&&&&&&&&&&&&&&&&&&&&%&&&&&&&&&&&&&&&&.                      ",
"                        .&&&&&&&&&&&&&&*&&&&%&&&&&&&&&&&&&&&&&&&&&&.                      ",
"                        .&&&&&&&&&&&&&&&&&&&&&&&&&&&&&&$&&&&&&&&&&&.                      ",
"                        .&&&&&&&&&&&&&&&&&&&&&&&&&&&&&&&&&&&&&&&&&&.                      ",
"                        .&&&&&&&&&&&&&&&&&&&&&&&&&&&&&&&&&&&&&&&&&&.                      ",
"                        .&&&&&&&&&&&&&&&&&&&&&&&&&&&&&&&&&&&&&&&&&&.                      ",
"                        .$&&&&&&&&&&&&&&&&&&&&&&&&&&&&&&&&&&&&&&&&&.                      ",
"                        .&&&&&&&&&&&&&&&&&&$&&&&&&&&&&&&&*&&&&&&&&&.                      ",
"                        .&&*&&&&&..%&&&&&&&......&&&&&&&&..&&&&&&&&.                      ",
"                        .&&&&&&&.  .&&&&&&O      .&&&&&&.  .&&&&&&&.                      ",
"                        .&&&&&&.    .&&&&&.      .&&&&&.    .&&&&&&.                      ",
"                        .&&&&&.     .&&&&.        .&&&&.     .&&&&&.                      ",
"                        .&&&&.      .&&&&.        .&&&&.      .&&&&.                      ",
"                        .&&&&.      .&&&&.        .&&&&.      .&&&&.                      ",
"                        .&&&&.      .&&&&.        .&&&&.      .&&&&.                      ",
"                        .&&&&.       .&&&.        .&&&.       .&&&&.                      ",
"                         .&&&.       .&&&.        .&&&.       .&&&.                       ",
"                         .&&&.        .&.          .&.        .&&&.                       ",
"                         .&&.          .            .          .&&.                       ",
"                          ..                                    ..                        ",
"                                                                                          ",
"                                                                                          ",
"                                                                                          ",
"                                                                                          ",
"                                                                                          ",
"                                                                                          ",
"                                                                                          ",
"                                                                                          ",
"                                                                                          ",
"                                                                                          ",
"                                                                                          ",
"                                                                                          ",
"                                                                                          ",
"                                                                                          ",
"                                                                                          ",
"                                                                                          ",
"                                                                                          "
};
