/* XPM */
static char *out[] = {
/* columns rows colors chars-per-pixel */
"686 386 256 2 ",
"   c #030201",
".  c #0B0201",
"X  c #0A0908",
"o  c #180504",
"O  c #130D0F",
"+  c #181616",
"@  c #260302",
"#  c #370303",
"$  c #271607",
"%  c #380816",
"&  c #271717",
"*  c #321311",
"=  c #182A0C",
"-  c #302D0D",
";  c #100631",
":  c #2A1927",
">  c #371A28",
",  c #300C33",
"<  c #271736",
"1  c #33292C",
"2  c #3A2737",
"3  c #470403",
"4  c #4E0E12",
"5  c #5A1718",
"6  c #6A1214",
"7  c #4F2E0B",
"8  c #71290D",
"9  c #4F0F2E",
"0  c #4B1423",
"q  c #581426",
"w  c #6F0C2E",
"e  c #67162B",
"r  c #75172C",
"t  c #771933",
"y  c #452939",
"u  c #502D32",
"i  c #702C30",
"p  c #2C4803",
"a  c #344B05",
"s  c #365405",
"d  c #364B11",
"f  c #304B27",
"g  c #4E4C0B",
"h  c #735009",
"j  c #5E5927",
"k  c #04024B",
"l  c #15074C",
"z  c #020154",
"x  c #090657",
"c  c #02015A",
"v  c #2F1348",
"b  c #3B1648",
"n  c #37284A",
"m  c #030268",
"M  c #332D66",
"N  c #43184C",
"B  c #55194B",
"V  c #461A55",
"C  c #5F1B52",
"Z  c #452946",
"A  c #4A3544",
"S  c #553848",
"D  c #4A2556",
"F  c #563155",
"G  c #6F324C",
"H  c #572E68",
"J  c #693768",
"K  c #71386C",
"L  c #274E4E",
"P  c #57494F",
"I  c #6E4E55",
"U  c #756857",
"Y  c #54516E",
"T  c #6F506B",
"R  c #775968",
"E  c #77646A",
"W  c #776C71",
"Q  c #891417",
"!  c #B31016",
"~  c #992E11",
"^  c #8A1830",
"/  c #B31428",
"(  c #8D2E31",
")  c #9A3836",
"_  c #AE2E2E",
"`  c #A63937",
"'  c #B6373A",
"]  c #D30A09",
"[  c #E21D1C",
"{  c #CF182D",
"}  c #CD2F31",
"|  c #98631B",
" . c #934836",
".. c #AE4837",
"X. c #D86D0D",
"o. c #E7720B",
"O. c #CB4D38",
"+. c #E06034",
"@. c #8E314C",
"#. c #A5254F",
"$. c #B3304C",
"%. c #CB364F",
"&. c #C82855",
"*. c #D42A56",
"=. c #D52D5B",
"-. c #D92F5E",
";. c #D8335C",
":. c #E8394E",
">. c #D13362",
",. c #D93662",
"<. c #E13761",
"1. c #914D4F",
"2. c #AF4C4D",
"3. c #8C6C56",
"4. c #B46D55",
"5. c #8C556E",
"6. c #AE526C",
"7. c #856A76",
"8. c #916F72",
"9. c #89757A",
"0. c #AF716F",
"q. c #D24D4D",
"w. c #E34B45",
"e. c #E65646",
"r. c #EE5154",
"t. c #CF7053",
"y. c #F16F4D",
"u. c #D14E68",
"i. c #EE5265",
"p. c #CE726D",
"a. c #EE6D6C",
"s. c #749818",
"d. c #7FC332",
"f. c #7A8A71",
"g. c #86A907",
"h. c #8FB40D",
"j. c #9B9C2A",
"k. c #DFA620",
"l. c #D7B42D",
"z. c #E7B92B",
"x. c #99D625",
"c. c #F0CD18",
"v. c #EAC725",
"b. c #E4DB24",
"n. c #F7D726",
"m. c #F2D22E",
"M. c #FBDD2B",
"N. c #F8E228",
"B. c #FAE12C",
"V. c #FAEA35",
"C. c #A5A058",
"Z. c #8D8F76",
"A. c #AC8F78",
"S. c #D18D51",
"D. c #F39053",
"F. c #D1AF51",
"G. c #F7A94C",
"H. c #F1B34E",
"J. c #F7A853",
"K. c #F8B655",
"L. c #D08B72",
"P. c #F0916F",
"I. c #D3AF70",
"U. c #F2B16E",
"Y. c #A3D850",
"T. c #EFCD4C",
"R. c #F9C955",
"E. c #F9D357",
"W. c #FAF04E",
"Q. c #D7CA65",
"!. c #F4D16E",
"~. c #FBEF71",
"^. c #2925A4",
"/. c #58369F",
"(. c #3F41B3",
"). c #6B5C96",
"_. c #3B37C7",
"`. c #453BCA",
"'. c #514CCD",
"]. c #8C5987",
"[. c #8E7287",
"{. c #957A85",
"}. c #AD7288",
"|. c #9658A7",
" X c #DA7298",
".X c #E670BD",
"XX c #965AD2",
"oX c #7E8E8F",
"OX c #9A8588",
"+X c #919090",
"@X c #A48A8A",
"#X c #AE928F",
"$X c #A99597",
"%X c #94AE91",
"&X c #B2AA90",
"*X c #9497A8",
"=X c #B299A5",
"-X c #B9A7A6",
";X c #B1B0AE",
":X c #CF9090",
">X c #F09095",
",X c #D0AE92",
"<X c #C8B797",
"1X c #EEB091",
"2X c #D695AA",
"3X c #E898AB",
"4X c #F194AE",
"5X c #F699A8",
"6X c #E99BB3",
"7X c #CCB1AD",
"8X c #D6BAB6",
"9X c #EEAFB2",
"0X c #A4CC9D",
"qX c #B2CBAA",
"wX c #B6EDB0",
"eX c #D2C798",
"rX c #F4D290",
"tX c #D5E794",
"yX c #FBFC8A",
"uX c #F9E990",
"iX c #FCFB96",
"pX c #D3CBAB",
"aX c #DAC5B9",
"sX c #E6CAB9",
"dX c #EFD1B0",
"fX c #F9D9BA",
"gX c #C9EBB3",
"hX c #F3E6AE",
"jX c #FDFAA9",
"kX c #F9E7B8",
"lX c #FDFAB7",
"zX c #B5B4C5",
"xX c #FA80C8",
"cX c #D3B9C7",
"vX c #E8B9CC",
"bX c #B9F2CB",
"nX c #D1CDCF",
"mX c #E7C7C8",
"MX c #EAD6C6",
"NX c #F7DAC7",
"BX c #F0D2D4",
"VX c #D5ECD2",
"CX c #FBE8C8",
"ZX c #FDFAC8",
"AX c #E9EAD2",
"SX c #FAE8D7",
"DX c #FCF9D6",
"FX c #FDFDDC",
"GX c #DEE0E7",
"HX c #EFEDEB",
"JX c #F9F5E7",
"KX c #FEFEE4",
"LX c #FEFEEA",
"PX c #F7F7F7",
"IX c #FDFDF3",
"UX c #FEFDFD",
/* pixels */
"Z.Z.Z.f.Z.f.%Xf.f.Z.f.f.%Xf.%XZ.Z.%Xd.%XZ.%Xf.%Xf.%XZ.%XZ.Z.%XZ.Y.oXZ.%XZ.Z.%X%X%X&XY.%X%X%X%X%X%X%XZ.0XZ.%X%X%X%XZ.%X%X%X%X%XZ.%X0XZ.Z.%XZ.%XY.%X%X%Xf.Y.f.f.Z.%Xf.%XY.%Xf.%Xf.f.Z.%XZ.f.%Xf.Z.%X%XZ.Z.%Xf.f.f.Z.Z.Z.Y.%Xf.C.Z.f.Z.Y.oXZ.Z.Z.C.f.Z.f.Z.Z.Z.Z.Z.Z.Z.Z.Z.C.f.Z.Z.Z.C.Z.Z.Z.Z.Z.%X&XZ.A.%XA.%XA.&X%X&X&X<X&XY.I.0X&X0X<X0XeXeX<XeXeXpXpXpXtXtXpXpXtXdXpXgXdXhXhXsXgXgXfXhXhXVXhXVXhXgXhXgXCXgXkXkXkXhXVXkXhXVXhXhXkXAXhXhXhXhXMXdXpXdXdXeXpXpX<XeX<XeX<X<X<X-X<X&X<X&X&X,X&X&X&X&X,X#X&XA.,X#XI.#X&XA.,XA.A.&XA.&XA.&XA.#XA.@XA.A.#XA.&XA.Z.Z.A.A.#XA.+X&XA.@XA.Z.&X@XA.Z.A.Z.A.Z.A.+X@XZ.#X@XZ.@Xj @XOXA.OXOXZ.OX@XOXOXZ.OXA.OXA.OXZ.Z.$XI : 2 1 u P S P I G I 1.}.6.B 5.=XA.9.Z.OXZ.OXZ.8.5 ( ( ( ( 6 1.I I I 1.G 1.}.u.3 ( ( ( ^ ( ( 8 1.:Xp.1.( 6 6 i ( ) ( (  .(  .( ( ( ) ( i  .(  .~  .(  .5 3.A.f.W f.f.oXf.f.f.f.f.Z.U #X,X:X4.t.t.t.4.U.K.K.K.U.!.D.| S.D.U.U.L.S.t.t.t.t.S.t.t.t.t.a.t.t.p.t.t.t.t.t.t.t.L.t.p.p.p.t.t.S.0.4.0.A.L.,X8XaXMX#X,XMXmXsXMXsXMXmXaXaXMXsXhXaXnXsXMXmXpXMXmXmX8XMXmXBXSXMXmX8X8X8.7XHX2XP 7XBX8.8.3.I R 8.9.E MXmXaX8XmXBX8.9.8.U 8XmXmX3.8.8.3.mXpX8X8XaX<X,XpX<X<X<X9XL.L.S.L.&X8.I i - * $ o @ $ $ & - > * - 0 u 7 u 7 u 7 0 7 0 u u 5 u 7 u u 7 5 0 5 q 5 5 7 4 3 5 # 3 7 8 i  . . .4.4.L.L.L.L.A.L.S.A.A.S.A.A.S.L.L.A.L.L.:XL.,XI.:XL.L.A.0.1. .i  .i ( ) 1.1.1.4.3.4.2.4.1.2.1.2.4.1.1.2.1.2.2.1.2.6.2.4.4.2.8.4.4.0.0.0.3.6.0.0.0.6.0.4.0.3.0.5.6.8.8.6.3.4.8.8.",
"Z.f.f.Z.%Xf.f.%X%Xf.Z.%Xf.%Xf.f.%Xf.oXf.Z.f.Z.%Xf.%X%Xf.f.%XZ.Z.f.%X%Xf.f.0X%X%X%X%X%X%XZ.%XY.%X%XZ.0XZ.Y.%XZ.f.Z.%XZ.Y.Z.oX%XZ.Z.f.%XY.f.oXZ.Z.%Xf.Z.oXoX%X%XY.f.Y.f.f.Z.Z.Y.f.Z.Z.f.%XoXd.%Xf.d.f.Z.Z.f.Y.Z.%Xf.f.Z.f.Z.f.f.Z.Z.Z.Z.f.Z.Z.Z.f.Z.f.C.f.Z.f.Z.Z.Z.Z.Z.Z.Z.Z.Z.Z.Z.Z.Z.Z.Z.Z.Z.C.A.%X+XZ.%XA.%XC.C.0XA.%X&X&X0X&X&X<X&XeX0X<XqXeXeXeXpXpXeXpXpXgXpXdXhXdXhXsXdXgXkXhXkXgXfXgXhXhXhXkXhXVXkXlXkXkXkXkXlXhXhXhXVXhXkXhXhXhXAXhXgXsXpXpXeXdXpXeX<XpX<XpX<X<X<X<X<X&X&X,X<X&X&XI.&XL.&X&X&XA.&X&X&X&X&X&XA.&X&XA.A.A.&XA.&XA.&XA.%XA.&XZ.Z.A.A.#XA.%XZ.@XA.Z.@XZ.+XA.A.Z.A.@X&XZ.OXA.Z.A.Z.A.A.Z.Z.A.P @XZ.@XOXZ.OX@XOXA.@XOX@XZ.Z.@XA.OXOX#XA - 1 1 S S P i I I I 1.}.u.1.I #X8.OXZ.@X9.Z.Z.0.7 ) ) ) ( i 5 1.I 1.5.6.:X0.i 6 ) ( ) ` ( ( ( i i 5 i ( )  .) ) ) ) ~ ( ( ( ( ( ( ( ( i  .( ) ( i ~ (  .7 OXU f.f.f.oXf.f.Y oXf.+XP %X<X:X4.t.t.t.t.U.U.K.!.U.U.P.S.t.t.+.t.t.t.a.t.t.t.t.t.t.t.S.p.t.t.L.y.S.S.t.S.p.L.4.4.t.4.p.L.:X,X1XdXfXCXfXdXsXsXMX&X<XMXaXMXMXMXaXMXMXMXaXsXMXsXsXMXsXMXBXBXMX8XMX8X7XOX8.I BXBX$X5.I SX-XR 7XmXI R 8XSXmX7.8.U aXnXMXMXaXNXZ.8.9.3.7XmXaX3.E 7.R 8XaXaXpX8XpX8XeX8X8X7XeXL.p.4.L.<X8XMX#X8.&XZ.A.Z.8.3.U I I P j * 7 * # * 7 4 4 7 5 @ 4 5 4 4 5 5 5 u 8 i i r i )  . .5 0.A.L.A.p.A.L.A.A.S.0.L.S.0.L.4.L.L.L.L.L.L.,XL.L.,XL.L.S.3. . .8 i i ( (  .1.4.4.4.4.3.4.2.6.4.2.2.2.1.4.1.4.2.1.4.4.6.6.4.0.0.p.A.0.0.0.0.0.0.0.0.0.4.4.0.0.0.0.3.0.0.0.0.0.0.0.0.0.0.0.8.0.0.",
"f.Z.f.Z.%Xf.%Xf.f.Z.%XZ.f.Y.oX%XZ.%XZ.%Xf.%Xf.Z.f.oXf.%Xf.%X%Xd.f.C.Z.Z.0X%XZ.%XZ.0XZ.C.%X%Xf.%XZ.Y.%XZ.f.%XZ.%X%Xf.Z.f.Z.Z.Y.%Xf.Y.oXf.f.Y.C.f.f.Z.Z.Y.f.Z.oXf.%Xf.f.%Xf.f.Z.%XZ.f.d.f.f.f.f.f.f.Z.f.f.f.Z.f.f.f.f.f.f.f.f.Z.f.Z.Z.Z.f.f.f.f.f.f.f.Z.Z.W j.f.f.f.f.f.f.f.Z.f.Z.Z.Z.Z.f.Z.Z.f.+XZ.Z.Z.+XZ.%XZ.%XA.A.A.%X%X&X&X&X0XI.&X<X0X<X0X<XqXeXeXeXpXtXpXtXhXpXdXtXgXdXgXhXgXhXdXhXhXkXMXhXkXCXhXhXAXhXhXAXkXkXkXkXkXVXhXkXVXhXAXhXkXkXhXdXdXdXpXpXpX<XpX1X<X<XeX<X<X<X<X,X<X,X&X<X<X&X&X&XA.#X&X,XA.#X#X&X#XA.A.&XA.&XA.%XA.A.Z.&X&XA.#XA.A.A.@XA.Z.A.A.Z.A.A.Z.A.A.A.Z.@XZ.#XA.Z.Z.A.A.Z.A.A.Z.@X@XZ.@XA.j @XZ.OXZ.OXZ.Z.OXA.A.OX@XA.Z.A.@XZ.@X#X- > 1 u S j S G G I I 1.0.p.R u &XZ.%XZ.@XZ.OXA.A.5 ) ( ( )  .5 i 6.1.5.0.0.i 3 1.( ( ~ ( ( ) )  .( )  . . . .( ( ( ) ` ) ~ (  .)  . .( (  .( ) (  .(  . .5 Z.Z.f.f.f.f.f.f.oXf.f.Z.U #X7X:X4.t.t.t.t.D.F.S.+.t.t.t.S.t.t.y.t.t.t.t.t.t.t.t.p.a.L.t.p.t.p.t.t.t.t.4.t.4.L.:X,X9XfXdXfXMXNXdX9XsXsXsXmXmXsXBX#X<XAXsXMXsXMXsXMXaXMXMXsXaXMXBXSX8X7X#X@X8.BX8XP U U 9.U MXBX8XI 8.0.=XI &XmX5.I mXBXBXU 3.3.mXnXaXaXmXBX@XE 3.R -XMXmX<X-X7X$XaXaXsX8XpX8XpX7XpX8X1X9XS.4.p.I.1X<X8XA.U A.#XOXZ.A.A.Z.A.A.A.#Xi ( 1. .I i 1.( @.1.6 ( ( ( ( ( ) @.) )  .) ) ) ) ) $.6 p.4.L.A.A.L.4.0.0.L.L.L.L.L.L.I.L.L.I.L.L.4.1. . .8 ( ( i  . .2.4.4.4.4.4.4.4.4.2.4.2.2.4.2.2.2.4.4.4.4.4.4.4.0.0.0.0.p.0.L.0.4.0.4.0.4.0.0.0.0.4.0.0.0.0.0.0.0.0.0.8.0.0.0.0.3.0.0.4.3.8.A.3.8.",
"%XZ.%XZ.Z.Z.f.C.Z.Z.Z.Z.Z.Z.f.f.Z.f.Z.f.+Xf.%XZ.Y.f.f.Z.f.f.f.f.Z.Z.Z.%XZ.%X%XY.Y.Z.Z.%XY.%XZ.C.Z.Z.oXZ.Z.Y.f.Z.f.Y.Z.C.Z.f.f.f.f.f.f.f.f.f.f.f.f.f.f.f.Z.Z.f.f.f.f.f.f.f.f.f.f.f.f.f.f.f.f.f.f.oXf.Z.f.f.f.f.f.f.f.f.f.f.f.f.f.f.f.f.f.f.f.f.oXZ.f.f.f.f.f.f.f.f.oXf.f.f.W f.W ).f.oXoX+X).oXoXoXoXoX+X+X+X+X+X%XZ.Z.C.&XZ.A.&XA.A.0X&X<X&X<X<XeX<X0XeXeXpXpXpXpXgXpXpXpXhXhXdXhXdXfXgXkXgXhXkXhXgXhXkXhXkXhXhXkXkXgXhXkXhXhXkXhXhXsXhXkXkXpXpXpXpXpXpXpXpXeXpXpX<X<X<X<X<X,X&X,X&X,X&X&XA.,X<X,X&XA.&X&X&XA.&X&XA.&XA.&XA.&XA.&X%XA.#XZ.#XA.%XZ.&XZ.&X&X#XA.%X%XA.#X#X%XA.@XA.A.Z.A.#X#XZ.A.A.Z.#XA.Z.A.A.@XZ.P @X0.Z.@XA.OXOXOX@X@XZ.Z.@XA.+XZ.@XZ.#X& 1 1 u S S P I I 1.1.1.5.0.U u &XZ.@XZ.Z.A.Z.A.A.7 ) ) ` _ ( @.6 5 i 1.( e 3 2.) ) ) ( ~ ) ~  .~ ( ) ) ) ) ~ ( ) ..` ) ` ..) ) (  .~ ) ( ( )  . .) (  .) i j Z.f.f.oXf.f.oXf.f.f.Z.P #X7XL.t.t.t.t.t.t.t.t.t.t.t.t.+.t.t.t.t.t.t.t.a.p.t.t.t.t.t.t.t.p.4.0.L.:X1X9XdXfXdXdXdXdX9XsXsXdXmXMXmXmXNXmXmXMXsXBX&X-XNXMXMXmXmXnXMXMXMXsXMXMXMXOX7.U I E 3.9.8XmXI 9.8.5.5.aXBXmXU 3.7.3.7.OX8XP U sXmXMX7XmXAXMX8XMXMXaXMX7X-X-X#X7XMXaXMXMXsXaXaXaXpXaXaXpX8XeX8XeXpXdXL.L.t.L.7X,X<XA.U A.A.A.8.Z.Z.A.0.Z.A.A.i i ( ) ( ) ( ) )  .4 ( ( ( ) ( ( ) ( ) ( ) _ ( ) ( ` 6 p.p.4.4.p.4.L.L.L.P.L.U.0.L.0.4. .i i  .i )  ...4.4.4.4.4.4.4.p.2.4.4.4.1.4.2.4.1.4.4.4.4.4.4.0.p.0.0.0.p.0.p.A.p.0.A.0.4.0.L.0.0.0.A.0.p.0.0.0.0.0.0.0.0.0.0.0.0.3.0.0.3.0.0.A.0.3.A.A.A.A.A.A.",
"U 3.E 3.Z.Z.8.Z.Z.Z.A.Z.A.#X#XA.Z.Y.Z.A.%XZ.+XZ.Z.Z.Z.Z.Z.Z.f.Z.Z.Z.Z.Z.Z.Z.Z.Z.oXZ.Z.Z.Z.f.Z.Z.Z.f.Z.f.f.f.f.Y.Z.f.f.f.C.f.f.Z.f.f.f.f.f.C.f.f.f.f.f.f.f.f.f.f.f.f.f.f.f.f.f.f.f.f.f.f.f.f.f.f.f.f.f.f.f.f.f.f.f.W f.f.f.f.W f.W W oX).f.f.oXoX).oXoX).).oX).oXoX).oXoX).oXoX).oX).).'.*X'.'.*X'.).'.).).*X*X).*X+X+XA.%XI.A.A.%XI.&X&X&X<X0X0X<XeXeX0XeXeXpXpXtXdXpXhXpXhXgXhXsXhXhXhXgXdXgXfXhXAXhXkXhXkXkXVXVXhXkXkXhXAXVXhXhXhXhXhXAXdXdXpXdXpXdXpXeXpX<XpX<X<X<X<X<X<X,X&XA.&X&X,XA.&XA.&X&X#X&X#X&XA.&XA.,X#XA.&X&XA.&X&XA.&XA.&XA.%XA.A.A.%XA.%XA.+XA.A.A.@XZ.Z.&XZ.A.Z.#XA.A.Z.A.@XZ.#X#XZ.@XZ.Z.A.Z.A.j @XA.@XA.@XZ.A.A.OX@XA.Z.#XA.A.OXA.Z.&Xy - : S S I I I I I I 3.5.5.I j #XA.+XA.Z.A.A.A.L.8 ( ) _ ( ` ) @. .Q 6 5 i ) ) ) ( ` ` ` ) _ .. .~  ...~ ..~ ....) ..~ ) )  ._  .~ ~  .) ) ~ _ ~ )  .) ..i u Z.f.f.f.f.oXf.f.oXf.oXj +X7XL.t.t.t.t.t.t.t.t.t.p.t.t.t.t.t.p.p.t.p.t.t.4.p.4.0.p.L.:X1X,X9XdX9XsXdXsX9X9X9XdXsXsXsXaXaXaXsXsXsXnXmXNXmXmXMXBX&X,XAXmXMXMXMXMXMXAXMXBXaXMXSX9.R 7X-XI 8.7.7XvXI 8.8.8.I mXmXMXI U U 3.8.#X7X8XMXMXaXmXsXMXaXMXMXsXsXsXmXMXMXmXMXnXsXpXaXsXaXsXpXaX8XsXaXpX8XeX8X8XeX9XP.L.S.:XaX<X8XA.U A.A.Z.A.A.A.Z.A.3.A.L.i  .( (  .( ( ) ~ ) 6 ( ( ) ~ ( ) ( ) ( _ _ _ ` _ _ O.6 a.L.L.L.L.L.p.p.4. . .(  .8  . .1.2.4.4.p.4.4.p.t.4.4.4.4.6.t.2.4.2.2.4.4.t.0.p.L.p.p.p.p.p.p.0.p.p.p.A.p.4.p.A.p.p.0.0.0.p.0.L.4.0.0.0.0.A.0.p.0.0.0.A.p.0.0.0.0.A.8.A.A.A.A.I.A.#XI.&XA.A.A.A.",
"5 u 7 7 7 7 7 4 7 4 4 5 7 7 u j j P I j U 3.3.3.C.3.3.Z.Z.C.Z.Z.Z.&X&X&X&X%XI.&XA.Z.A.C.Z.C.Z.Z.C.Z.Z.Z.Z.Z.f.f.U Z.f.f.f.f.f.U f.f.f.f.f.f.f.f.f.f.f.f.f.f.f.f.f.f.L f.f.W f.f.f.f.f.f.f.Y oXY f.Y f.oXf.f.f.).oXoX).f.).oX).oXoX).oX).).).).).oX).).).).).(.).Y (.(.(.(.(.(.(.(.(.(.^.(.(.^.(.(.(.(.(.(.(.'.'.).*X*X+XZ.%XZ.%X%X%X&X0XI.&XI.<X&X0XI.eXeXpXeXpXpXpXpXpXpXpXsXhXdXgXdXgXgXhXhXfXgXhXdXCXgXkXhXhXhXhXgXCXhXhXhXhXhXkXsXkXfXgXdXpXpXsX<XeXpX1XeX<XpX<X1X<X<X,X&X,X&X,X,X,X,X,X:X&X,X&XI.&XI.#XA.#XA.,X,XA.A.#XA.&XA.A.A.%XA.A.&XA.A.A.@XA.@XA.A.%XA.%X&XA.Z.A.#X#X&XZ.@XA.A.A.A.A.A.A.A.A.A.@XA.@XI @XA.Z.A.A.@X@XOXA.A.#X@XA.#XZ.A.@X@X$Xu > 1 u P G P I 1.R 1.5.5.6.I I #XA.A.A.A.:XL.0.2.( ` ) _ .._ ) ) $. .@.2.)  .) ` ` _ ) _ ..) ` ..` ..` ........_ ..................` ` _ ` ....) )  .) 1.i 7 #Xf.f.oXf.oXf.f.oXf.f.U +X7X:Xp.t.t.t.t.t.S.p.t.t.L.p.p.t.p.t.4.p.t.p.p.L.:X1X1X1X9XsX9X9X9XsXsXsX8XsXsXsXsX9XsXfXdXdXdXdXpXsXfXMXMXMXMXsXmXNX&X7XNXMXMXmXSX9.E 3.mXSXBXmXSX0.R 8XJX3.8.8.@XsXI 8.7.7.I 7XMXMX@X-X8XBXBXAXMXAXMXaXMXaXMXaXMXMXnXsXMXMXaXaXsXaXsXnXsXaXaXaXMXaXaXaXaXsXaXpXpXpX<XaX8XpXL.L.t.I.1X<XaXA.3.&X&XA.Z.A.A.A.,XA.A.p.8 i  . .( ~  .( ) ) 6 ( ( _ _ ( _ ( ) _ _ ( _ _ _ _ ' Q ..2.@.2. .( (  .1.2.2.2.4.p.t.4.t.t.t.2.2.p.u.4.2.p.2.4.p.4.4.p.p.p.L.L.L.p.L.p.p.L.L.:XL.0.4.0.S.0.p.p.A.p.p.p.A.p.L.L.L.0.L.0.t.A.L.t.L.4.0.A.4.A.0.A.A.A.A.:X:XL.A.I.A.A.A.A.I.A.A.A.A.A.I.A.",
"( ( G  . .i (  .I  .i  .1.i  .i i i i i 8 8 7 7 4 7 7 4 4 5 7 7 5 i 8 u j  .G  .3.3.3.3.Z.3.3.4.3.Z.0.C.3.Z.Z.Z.A.Z.Z.Z.f.Z.Z.Z.Z.Z.f.f.U f.f.f.f.f.f.Y Y f.f.f.f.oXoXoXY oX).f.oXoXoX).).oX).oX(.oX).).).'.(.).).(.'.(.(.).(.(.(.(.(.(.(._.(.(._.^._.(.(._.(._._._._._.`.'.`.`.'._._._.'.(._._.'.'._.`.'.'.(.(._.`.'.*X*X+X%X+XA.A.C.C.%X0XA.%X<X0X<X<X<XpXpXeXpXpXtXpXpXtXtXpXgXpXhXhXkXgXfXgXkXkXkXgXVXhXkXhXhXkXhXVXhXAXkXkXhXhXhXkXhXpXdXpXdXpXeXsXeX8X8XeXeX,X,X<X<X<X<X<X,X&X,XeX,X,X,XL.A.:XL.,X,X,X1XL.,XA.L.#X,XA.A.A.&XA.&XI.A.A.A.A.#XA.A.#XA.%X@XA.A.A.A.A.A.&XA.A.A.#XA.A.%XZ.@X@XA.Z.Z.A.A.Z.Z.%Xj #XA.Z.{.@X@XA.@XA.@XZ.A.@XA.@X#X+X@X#X& u > P I P I I R I I 3.4.0.1.G :X:X:X:X0.( 6 8 ( ` ` _ ' ^ ` ` ` ` ) ` ( ` ` ..` ` _ ....` ' ..2.....` ......| ........_ .........._ ~ ~ ~ Q ....) ~ ..)  .4 A.W f.+Xf.f.f.f.f.f.f.Y %X7XL.4.p.t.p.a.t.t.t.t.t.t.4.0.p.L.L.L.1XsX9X9XdXdX7X7X8X8X8XaXsXsX8XaXaX8XsXsXsXdXdXrXrXrXrXrXeXhXfXMXdXsXMXMXMXMXSX$X<XSXmXMXMX7.9.3.8.U NXMXMXBX@XI SXBXSXI U 8.$XG 7.8.#X7XmXmXMXBXSXMXmXMXpXMXMXsXMXsXaXMXMXmXsXsXsXsXaXsXMXMXMXsXMXaXsXpXsXpXaXsXgXaXaXpXaX8XsX8XpXeX9XI.S.S.1X1X,X8XA.3.A.A.A.A.A.A.A.A.A.A.A.8  . .( ) ) ~ ( ) ) 6 ~ _ ( ) _ _ _ .._ _ _ ' _ _ ..' ~ _ ....2.2.u.4.t.u.2.t.4.u.4.4.t.4.6.4.p.u.4.4.p.p.p.>XL.p.L.>XL.L.p.p.L.p.:XL.L.L.0.L.p.L.0.L.L.p.L.L.L.p.p.L.L.0.p.p.:XA.L.0.L.L.0.0.A.L.A.L.I.:XL.L.I.:XI.L.I.&X#XI.A.A.I.I.A.A.A.&XA.&XA.&XA.",
"( ( ( ( ( ( ( i ( (  .i  .( i ( @.(  .i ( i  .(  .( (  . .) 1.1.1. .)  .) ) ) (  .i i i j i i u u 5 u u i q u u u S u A A P F G P Y U Y Y W Y ).oXY oX(.oX).).).(.Y (.).Y (.(.).(.(.(.(.(.(.(.(.(.(.(.(.(.(.(.(.(.(.(.(._.(._._.`._.'._._.'._._.`._._._._._._._._._._.^._.^.^.^.^.^.^.^.^.^.^.m m ^.m ^.^.^.^._.'.`.(.^.).*X*X*X%XZ.%XA.%XI.0XI.<X&XeX&XeXeX1XpXeXpXpXpXdXgXpXhXdXhXgXdXdXhXhXhXhXdXhXhXhXhXhXVXVXkXhXhXkXhXhXVXhXMXgXfXdXpXpXhXdXpXpXdXeXpXeX<X,X7X<X,X<X&X&X,X,X,XA.i 3 4 7 6 5 8 7 6 5 i  .4.4.0.A.A.I.:X:XA.A.A.A.A.A.&XA.&XA.A.A.#XA.A.#XA.%XA.#X#XZ.A.A.%XA.Z.Z.&XA.A.A.A.A.#X%XA.@X@XA.A.I @XZ.OXA.A.Z.A.A.@XA.@X%XA.+XA.A.#X@X$X$ 1 0 P u I G I R 1.I 5.5.0.5.i 0.1.i 8 (  .1..._ 2.` ` ..` _ _ ` ..` ..` .._ ..................} ......O.......O............._ ~ _ ..O...t.......`  .) ) 1.7 Z.Z.+Xf.f.f.oXoXf.f.%XU Z.8X:Xt.t.p.4.p.4.4.A.L.:X:X1X1X,X9XpX8X<X<X,X<X<X9XpXaX8XpX8XpX7XpX8XaXsXmXsXsXrXI.U.I.I.I.I.,XrXeXdXsXdXMXMXMXMXMXCX=X<XSXMXMXmX3.7.9.9.I BXMXMXSX8.@XBXmXSX8XOX#XmXMXSXSXBXMXmXMXMXMXMXaXMXMXmXnXMXMXMXaXMXAXaXMXMXgXsXAXsXMXgXaXsXaXMXaXsXaXaXaXaXaXaXpXaXaXpXpXpXsXaXeXdXL.L.L.L.pXsX<XA.0.A.A.&XA.A.A.A.A.A.A.:Xh (  .(  .) ( .._ ` Q ~ ^ _ ~ _ _ ~ _ _ _ _ ~ O.} } } Q t.4.t.4.q.4.t.2.4.t.t.q.4.q.p.t.p.p.a.L.p.P.L.p.L.L.p.L.L.p.p.L.L.:Xp.:XL.L.p.p.L.L.L.p.L.:XL.L.A.L.L.0.L.A.A.p.L.A.0.A.L.L.L.L.:XI.,XI.L.:XI.,XI.#XI.#XA.&X&XA.&XI.A.,X,XA.&X&XI.&XA.&XI.A.&X&X",
"( ( ( ( ( ( i ( 8 i  .( ( i ( i ( ( @.i i  . .i i i i ( ( @.)  .` ) ) (  .) @.@.@.@.@.@.@.@.K @.K G J J H J H /.H /.H /./.M M ^.^./.^./.^./.^.(.^.(.(.(._._.(._._.(.(._.(.`._._._._.(._._._._.`._._._._.^._._._._.^._._._._.^._.(.^.^.^.^.^.^.^.^.^.^.m m m m m m m m m m m m m c m m c m c m c c c c m c m m m ^.^.`.'.(.(.).*X+X+XC.A.&X&XC.<XI.%X&XeX0XeXeXeXeXqXeXpXtXpXpXpXhXpXpXhXhXhXhXkXhXhXVXhXhXhXgXhXVXhXAXhXhXAXhXhXhXhXhXhXdXdXdXpXpXeXpXrX8XeX,XeX,X8X,X<X<X<X&X,XpX7 7 i  .1... . ...Q 4.t.2.2...'  .( 8 r (  .4.4.A.L.L.,XL.I.A.&XA.A.A.Z.A.A.#XA.%XA.A.Z.#XA.A.A.A.Z.A.A.%X#XA.%XA.@XA.Z.A.Z.@XP A.Z.Z.@XA.%X@XZ.@X%XA.A.%X@X&XZ.@X7X9.$ * > I I I I I I 1.1.1.6.0.0.6 i 1.........` ` ' ' ..' ..' .._ ......` ..2...............O.| ..q...4.....t.q.q...O...~ ..~ ..t.O.y.e.e.q.q........... .)  .7 A.Z.f.f.oXoXf.f.f.f.Z.U #X,X:Xp.t.L.L.,X,X,X1X9X1X7X1X,XsX7X7X7X8X<X7X8X8X7XsXpX7XaXaX7XaXpX8XaXpXsXpXdXeXrXI.U.U.U.I.1XI.dXdXfXsXdXsXAXCXMXSX#X<XBXMXNXMX#XU 8.U E SXBXMXSXA.=XSXAXMXmXBXMXNXMXMXMXMXmXMXMXMXnXMXMXMXMXMXsXMXsXMXMXMXMXMXMXsXsXsXaXsXdXaXaXMXMXMXaXaXsXaXsXaXpXaXaXaXpXaXaXsXpXpX8XdXL.S.L.U.dX,X9X&X3.,XA.A.A.A.A.A.A.A.A.A.(  .~ ..~ ` `  .` ` Q _ _ _ _ _ _ _ _ _ } } .._ } O.} Q O.q.2.4.2.t.u.t.t.p.p.L.p.p.>XL.a.:Xp.P.:XL.p.L.L.L.P.L.L.1XL.L.L.L.P.L.>XL.L.L.L.L.L.L.L.>X:XA.L.L.L.L.S.A.L.L.L.,XI.:X,XI.:XI.,XL.,XL.,XI.A.I.&XI.I.&X&XI.I.,XI.A.<X,XI.&X,X<X,X,X<X,XA.A.Z.3.",
"i ( ( i ( ( ( ( ( ( ( i ( i  .( i ( i ( ( i 8 ( i ( ( ( ( ( ( ( ( ) ) ( 1.i K @.K K K /./.K /./././././././././././././.(././.`./._./._.`.`.`.`._._.`.`._.`.'._.`._._._._._._._._._._._.^._.^.^.^.^.^.^.^.^.^.m m ^.m m m m m m m m m m z c z m m c m c c c m m c c c c z c z c c z z z z z z z z k k z z c c m c m ^.^._._.(.).*X+X%XZ.A.%X&XA.I.&X<X&XI.0X<XeXeXeXeXeXtXpXdXtXpXdXtXdXgXpXhXpXgXkXgXhXhXgXdXhXhXhXgXhXhXhXhXkXhXhXpXdXpXtXpXdXpXdXpXeXeX8XpX<X<XpX,X&X<X,X<X,X7  .4.2. . .) ) ) ..Q q.r.t.e.t.t.r.t.t.t.t..... .( ( ( ( 1.4.0.A.I.L.&X&XA.A.A.A.A.A.A.A.A.A.A.Z.&XA.#XA.A.A.#XA.A.A.@X#X&X#XA.U A.@X@X#X@XA.@X#X@XA.@X#XA.#XZ.@X-XZ.o y > u I I 1.1.I 1.1.5.6.1.0.6.4.3 2.) ` ` ` ..' ' ' ' ' ' ' ..........O.O...........t.....O.O.O.t.O.4.+.......| | O.t.t.y.y.+.+.t.+.t.y.t.+.....O..... ... .7 0.Z.Z.f.oXf.f.oXoXf.Z.P #XdX:X4.t.:X1X9X,X9X7X8X7X7X7X7XpX7XpXpX,X8XsX9X,XeX8XaX8X8XaXaXsXsXsXsXsXsXdXhX,XI.U.U.rX1XrXrXdXdXdXfXAXAXMXAXMXMXSX,X7XSXMXAXBXJX$XA.=XJXmXSXaXBXSXNXMXMXhXMXMXMXMXMXMXMXMXsXMXMXMXsXMXaXMXaXMXAXaXaXMXaXMXaXaXsXMXaXMXMXgXAXsXMXsXaXaXaXdXVXsXsXsXgXsXsXsXMXpXaXpXaXaXpX1XL.P.S.,X1X8XpXA.I &XA.&X&XA.A.A.&XA.@XI.i  .) ) ( ) ` ~ _ ~ 6 ~ _ _ _ _ _ _ _ _ _ } } _ } } } ! t.t.a.p.P.p.L.p.L.>Xa.L.P.L.L.P.L.P.L.L.L.P.L.P.P.:XL.L.L.L.L.L.L.L.L.L.L.L.L.L.L.L.L.p.L.L.L.L.L.1XI.I.1X1X1XI.,X1X,XI.,XI.I.,XI.I.,XI.I.&X,X,X,XI.#XI.,X,X&X<X<X,X<X,X&XA.Z.U j j I I 3.Z.&X&X",
"( ) ( ( ( ( ( ( ( ( ( (  .( ( ( ( ( i ( i ( ( 8 ( ( ( ( ( ( ) ~ @.( @.@.J K /./._././._._.`._.`.`._.`./._.`.`.`._.^._.`.^._._.(._._.^._.(._.(.^.^.(.^.^.^.^.^.^.^.m ^.m m m ^.m c m m m m m m c c c x m c c c m c c m c c c c z c c c c c c c c z c c c c c c m c z z z c z c z z c z z z z z z z k k z z c c c c m c m ^.(.`.^.(.*XOXOXZ.A.A.A.Z.%XA.&X&X&XI.0XeXeXeXeXpXpXdXpXpXtXtXdXdXhXhXdXhXgXhXdXhXhXkXhXgXhXkXhXhXhXdXhXkXsXpXhXhXpXdXpXdXeXdX8XsX<X1XeXeX<X<X<X<X&X1X .( 1. . ...)  .)  ...~ q.q.e.e.e.e.q.r.e.t.r.q.q.e.e.q.t.q.....) ) )  .2.4.A.L.:X:XL.A.A.A.A.A.Z.A.A.A.A.A.Z.A.Z.A.A.A.@XA.Z.Z.A.j +XA.A.@XA.A.@X#XA.A.@X#X@X#X#X&X9.o u u 0 u u u u u u S i S u i 1.1.0.2.6 2.2.` ' } ..2.' q...q...O.' O.O.O...O.O.O.O.+.q...+.+.t.+.4.+.| | O.O.O.t.y.D.y.D.y.S.D.D.t.D.t.t.| O.D.O.| O.| .. . . .q A.Z.f.oXf.f.oXf.f.f.+XP #X,XL.4.4.:X9X,X7X<X8X7X7X8X7XpX7X7XpX8X8X9X,X:XdX,X8X8X8XaX8XaXmXaXaXsXpXdXpXdX1XU.Q.1XrXfXfXNXNXdXfXsXsXdXMXMXfXmXSX&X7XSXMXMXMXmXSXBXSXNXMXMXMXsXAXMXMXsXsXAXsXMXMXMXMXMXMXMXMXMXMXMXMXMXMXMXMXsXMXaXMXMXmXsXAXmXMXaXsXdXaXsXsXaXaXaXMXMXpXpXsXpXsXMXsXpXpXaXsXsXpXpXaXdXdXL.L.p.1XdX,XdX,X3.&X#X&X,XA.I.&XL.A.A.L.8 ) ) ) ~ ) ` ~ ` ` Q _ _ _ ' _ _ _ } ....} O._ ..O.O.~ a.p.L.a.p.P.P.L.P.L.>XL.P.p.P.L.P.L.L.L.L.L.>XU.L.L.L.L.L.P.L.P.L.L.S.L.S.L.L.L.L.,X,XI.I.1X1XI.1XI.,X,XI.1X,X,X,XI.1XI.1XI.I.,X,X,X,X,X,X,X,X,X1XeX<X1X,XA.A.3.3.U j U 3.Z.A.<XsXAXAXDXFXKXLXLX",
"8 i 8 8 r 8 i ( i ( 8 ( i ( ( ) i  .( ( ( i i ( ( 8 i ( ) ) ) ) ^ @./.#./././.`._.`.`.`.`._._._._._._._._.^.^.^.^.^.^.^.^.^.m ^.^.m ^.m m m m m m m m c z c c z m c c m m m k z c c c c c m c x x x x z z z z z c z z c z k z x c c c z z z z z k z z z z z z z z z c z z z z z z z c z z z z z k k k z z z c c m m c c c ^.`.'.(.).=X@X&X&X&XI.eXI.eX<XeX,X<XeX1XeX1XeX1XeXeXrXeXdXeXdXtXpXtXdXdXhXpXhXhXdXhXhXfXhXdXhXpXhXhXhXhXhXdXdXtXdXpXdXpXpXeXpXeXpXpX<X<X7X<X,X<X,X8X7  ...2.2.` ) 2.) ) 2.~ 2.t.e.e.e.e.e.e.e.e.q.e.r.e.w.e.w.q.q.q.q.q.q.q...`  .~ (  .1.4.p.L.:XL.:XL.A.A.A.A.A.A.A.A.Z.A.A.A.A.#XA.U A.@X@X@XA.#X#X#X#X&X@XA.&X#X#X#Xo > * 0 u P I I 1.5.8.3.5.8.0.6.1.I G i 5 8 2.2.O...O.O.O.......O.O.O...O.O.t...q.4.+.+.t.t.+...O.| +.+.t.+.D.D.D.D.D.y.P.P.t.D.t.t.P.| t.D.1X1XrX+.O.O.O..._ ..1.5 A.Z.f.f.f.f.f.oXf.f.%XU A.9X:XA.t.I.,X<X8X8X8X8X7X8X8X7X7X1X8XsX1X0.4.4.0.9XpX1XsXaX8XaXaXaXsXsXdXpXdXdXrXI.U.rXdXdXsXsXNXNXMXAXfXMXMXMXMXNXSX&X,XCXNXBXNXMXMXBXSXMXBXMXMXsXfXAXsXMXMXsXMXsXMXMXMXsXsXMXMXMXnXMXsXnXMXMXsXmXsXMXMXMXAXMXBXJXMXAXaXsXMXsXsXMXsXMXaXMXaXaXMXMXMXsXMXsXaXaXaXpXsXpXaX8XdXI.L.L.L.dX7XsX@X3.#X&XA.A.A.A.A.A.&XA.,Xi  ...) ....) .._ _ Q _ ~ _ _ _ } _ _ ' } } } } } O.} Q P.a.p.P.p.P.p.P.L.L.L.L.L.P.L.L.P.>X1XP.P.S.L.L.L.P.L.P.L.L.L.I.P.I.,X,XU.1XrX1XU.rXU.1X1XI.I.1XI.eX,XI.,XeXI.I.I.I.I.,X,X,X1XeX,X9XeX<X,X,XA.8.3.3.U U 3.3.Z.,XpXMXSXDXFXFXKXKXKXLXKXKXDXDXAXFX",
"^ i i 8 r 6 8 5 8 6 6 6 6 8 8 6 8 8 r 8 r 8 ( r ( Q i ) ( ( ( @.K H /././._.`._.^.^.^.m m m m m m c c m c c c m c c m c c m m c z c c c c c c c c c z c z z c c c c c c c c c c c z z z c z z z x z z z z k z k z z k z z z c z c z z z z k z z k k k z z k k k z z z z z z z z z z z z z z z z z c z z z z c c z z z z c m m _.`././.K I  .1.1.4.4.t.A.L.L.I.:X1X1XrX1XdXrXdXhXfXrXfXhXfXhXdXfXhXdXhXhXfXhXhXhXkXhXhXfXhXdXdXhXhXhXpXpXdXdXpXpXdXeXeXsX8XpX1XeX<XeX<X<X&X,X,Xi 1.2. ...) ` ....) ..Q q.t.+.e.e.O.e.e.e.e.e.e.r.e.e.r.e.e.e.e.e.q.q.e.u.e.y.q.u.4.2.' _ ~ ) ..2.0.0.L.L.L.A.A.A.A.A.A.A.Z.A.A.A.j @XA.A.@XA.#XA.A.#X&XA.#X#X&X&XS 7 > 7 0 u u 0 0 0 0 % * 0 0 0 u G 1.1.1.1.1.( q...O...O.....+.e.O.O.| t.+.t.O.t.t.t.+.O.O.O.O.t.t.D.D.S.P.D.P.D.P.P.P.t.S.t.I.1XdXrXL.1XrXrXU.U.rX+.| q.......2.1.8 #XZ.f.f.oX%Xf.oXf.f.oXU %X8X,X4.p.:XeX8X8X8X7X8X8X7XpXpX7X<X9X1XL.L.4.L.4.:XeXdX9XaX8XaXmXaXsXsXdXrXdXhXrXU.I.U.rXfXfXfXdXMXNXNXNXAXNXBXMXMXSX-X7XSXCXAXBXBXMXBXSXMXMXSXMXMXAXNXMXfXMXMXmXsXAXmXMXNXMXmXmXMXMXMXMXNXMXBXaXNXSXaXmX8X7X#XA.Z.3.MXMXsXMXMXsXsXaXMXAXMXaXMXmXmX8X&X8XsXsXaXgXsXpXsXgXsXdXI.L.L.1XdX<XdX#X3.I.A.&XA.<X#X&XA.I.A.L. . .) ..~ _ _ ..` _ Q _ _ _ } _ _ _ } O.} } } } } w.} ~ y.P.P.L.P.p.L.P.P.P.>XP.L.L.P.P.I.P.P.L.P.L.I.P.L.I.I.1X1XU.1XrX1X1XQ.rX,XI.rXI.1XI.eX1XI.eXI.I.I.,XI.,X,X,X1X,XrXeXrXeX,XI.L.L.C.1.U U  .3.A.&XpXsXfXDXFXKXKXJXKXFXFXFXDXHXDXFXFXAXFXFXAXJXFXAX",
"5 5 5 7 5 i 5 i i i i i i i i i i i i i i 8 r 8 8 8 8 8 8 e e B /./.`.`.`._.^.m m m m m m c m c c c x z c c z z c c c c c c c c k z z z z z c c z z z z k z k z k z z z z z z z z z z z z z z c x z x z z z z z k z z z k z z z k k z k k z z k z z z z z z z z z z z z z z z z z z z z z z z z c z c z z z z z z z z z x c c m _.`././.K ( ) ~ ~ ( ( ~ ( ( ( ~ ~ ( (  .........4.4.t.t.L.I.P.U.1X1X1X1X9XrXdXdXfXfXkXfXfXhXhXdXgXdXeXdXtXdXdXeXpXdX8XeXeX<XeX<X<X<X<X<X,X,X,X8  . . .) ..) ( `  ...~ q.q.w.w.e.e.e.e.e.e.e.e.e.e.e.e.q.e.e.e.q.e.e.e.e.q.w.e.e.r.q.q.t.t.q.4..... . .(  . .4.4.L.A.L.:XL.A.A.A.I A.A.#XA.@X#XA.&XA.#X#XA.&XL.#X3.@ u 0 7 0 * 4 0 4 0 7 5 5 q u q q 0 4 7  .) ) q.O.O...t.O.O.O.O.t.+.t.t.t.+.O.+.O.| +.t.D.D.J.D.D.P.P.U.P.P.P.L.S.L.P.dXfXFXSXkXA.I.uXU.rX!.U.U.1XS...+......... .i A.Z.f.f.oXf.f.f.%Xf.%XU +X,X,X4.4.:X9X7X7X7XpX7XpXpX7X7X1X9X1X4.p.p.t.4.1XdX,X:XdX9X8XsXsXpXsX1XeXU.I.I.I.!.U.I.rXrXhXhXfXkXfXMXNXNXBXNXSXNXSX&X<XSXNXNXMXNXSXMXBXMXMXfXCXMXMXmXMXMXmXNXmXMXaXSXMXBXNXSXSXSXMXMXMX7X<XaXMX-XI JX#XR U U R R U SXBXdXsXsXMXaXMXmX<X7XNXMX0.7.3.3.&XMXMXsXaXfXpXpXsXsXdXL.L.L.U.dX7XaX,X8.<X&XA.,XA.A.A.I.#X,XL.i ...._ ...._ _ _ ..Q _ _ } _ } } _ _ } } } } O.w.O.O.! a.P.P.p.L.P.>XP.L.L.L.L.P.P.L.P.P.L.L.U.1XrX1X1XrX1X1XrXrX1XI.1X!.eXeX1XrXQ.rX1XQ.1X!.I.1XU.eXrX!.eXrXrXrXrXI.C.C. . .| j U Z.A.<XfXCXDXFXFXFXKXFXKXFXFXDXDXFXFXFXFXKXDXDXDXFXFXFXAXFXFXFXJXFXAX",
"i I S G i i u i 7 u i 7 5 0 4 4 7 4 4 7 7 5 q 5 5 8 i 7 i C K /./.`.'.^.^.z c m c c c z x c z c x c z c c z c c z z z z c z z c z z z z z z z z x c c c c z z z z z z z x z z z z z z z z z z z z z z z z z c c z c z z z z z z c z z z z z z z z z z z z c z c z z z z z z z z z z z z z c z z z z z z z z z z z k k c c c m m m _././.K 5.( 2.......2...q...t.q.t.2.t.q.q.t.O.q.t.q.O.O.O.O.....O._ O.O.} ..} _ O...2.t.1X1XCXdXpXdXtXpXpXsXeXpXeXpXeXeX8X<X<X8X,X<X,X&X,X,Xi 1. ...` ) ` ` ) ( ) Q O.e.w.w.w.e.+.w.O.e.e.q.e.w.q.e.e.e.e.e.e.e.e.q.e.e.e.e.e.e.e.q.e.q.q.q.t.q.t.t.q.t.q.q... .) ( ( 1.4.:X:X1.A.#XA.A.A.#X@X#X#XA.&X#X#XA.#X<X3.# # j i I  . .1.1. .( i i  .) ) 1.) i ( ( t.q.t.O.O.O.e.t.t.+.+.t.O.O.O.+.t.y.D.J.P.D.J.P.D.J.U.U.L.S.A.I.1XNXJXKXKXJXFXFX<XI.rXdXrXrXrXU.rX!.rXt...t.+.| .. . .j A.Z.f.oXf.f.%XoXf.oXZ.U #X8X,X4.4.,X9X8X8X8X7XpX7X<XpX8X9X9X0.p.0.p.p.1XdXp.4.0.,XdX9XpXpXpXeXI.I.U.U.H.K.!.R.U.K.H.I.rXrXfXfXfXNXMXNXNXBXNXSX<X<XSXMXNXNXMXMXSXsXCXNXfXNXNXMXNXSXMXNXJXSXMXBXmXBXaX7X#X8.3.=XBXSXU I 3.SX,XI SX#XU =X=X7X8X-XMXaXMXMXsXMX7XU U 3.8.NXBX$X8.8.8.#XNXaXsXkXfXsXsXsXaXdXL.P.L.I.rXsXsX&XU &XI.&X&XA.&XI.#XA.A.I.8 ) .._ _ .._ ...._ Q } ~ O.} ' } } } } O.} O.} O.[ w.! D.P.p.L.L.P.S.P.L.U.I.U.1XU.1X1XrX1X1XrX1XrX!.1XrXU.Q.1XI.1XrXI.1XU.U.I.1X1XI.1XrXrXrXrXeXrXU.A.4.4. .| h j | C.I.eXtXhXlXDXDXDXFXFXDXDXDXZXDXFXDXDXKXDXDXDXFXFXKXAXKXFXFXFXFXFXFXFXKXFXFXFXJXKX",
"j i j i j I j G I i j G I j j G S i j i i P i i I i i i F D /.`.`._.m c z k x z c z z z z z z z c z z z z z z z c z z z z z z k k z z z z z z c z z z z z z z z z z z z k z z z z z z z z z z c z c c z c c c z c c z c z c z z z z z c z z z z c c c z c z c c c c z c z z z z z z c z c z z z z z z z z z k k k k z z c c x x m ^.`.`./.K @.( ) ) ` ..' ........O.O.O.q.O.q.q.q.e.e.e.r.r.r.r.y.r.y.r.y.i.y.a.y.a.y.y.y.O...t.dXrXdXdXdXdXeXsXeXdXeX9XeXeXeX8X<X,X<X&X,X,X,X8  . .) ` ` ..) ....2.Q 2.t.w.e.e.e.e.w.+.w.+.e.r.e.+.e.e.O.w.e.e.w.q.w.w.e.w.q.w.q.e.e.q.e.w.w.w.q.e.q.e.q.q.e.q.e.t.e.t.t...( ( 8 4.4.0.0.:X,XL.A.L.&XL.&XL.:X:X#X,XdX .i i i i 8 ( ( i ( ( ( ( )  .( 2...t.q.O.O.O.e.t.t.+.+.+.O.t.+.S.D.D.U.D.P.D.P.U.P.U.U.I.L.1X1XfXCXFXKXLXIXIXIXJXFXCXI.hXdXhXrXrXrXrXrX!.rXrXt.X.+.....4...3.i &XZ.f.f.%XoXf.f.oXf.f.U @XdX:Xp.4.I.9X7X8X8X8X;X7XpX8XeX9X4.p.p.p.p.dX9X4.p.p.t.p.1XdX9XdXdXdX1XU.U.U.K.U.U.U.U.Q.I.H.U.I.I.rXdXkXNXNXCXCXNXSX-X<XSXNXAXNXSXNXNXAXMXAXMXMXMXAXMXaXaX-XA.-XBXSXI U I 7.3.8.5.{.SXSX#XU 5.7X&XI mX@X5.2XBXBXAXSXaXaXMXaXsXmXaX3.@X9.8.NXMX<X8.Z.8.A.SXsXsXsXsXpXpXpXpXfX,XP.S.1XdXpXsX<X3.I.:X&X&X&XA.,XA.,XA.,X( ....` O._ .._ _ ..~ _ } } } } O.} O.} } +.} w.} +.e.! a.P.P.P.1XU.1X1X1X1X1XrX1X!.rX1XrXU.!.1XrX1XQ.1X1XrX1XrXU.I.rXU.rXrXrXrXQ.1XI.F.C.4.4.| | 3.C.S.I.!.hXrXhXlXlXjXuXuXiXhXhXhXZXDXZXDXDXFXAXDXDXDXAXDXDXFXDXFXFXDXKXFXFXFXKXFXFXFXFXKXAXFXFXFXFXFX",
"U I I I I I I I I j I S P i j u P i j i j i S i I i I S /.(.(.`.(.^.z c c k k z z z z z z k k k z z z z k z c c m c z z z z c c z k z z z c c c c c z z z z z z z z k k z z z z z z z z z z z z z z z c c z z z c c z z c c z z z z z c c z z z z z z z z z z z z z z z z z z z z z z c c c z z z z k z z z z k z z c c z z z c m m ^.(./.K @.#.` ` _ ` ......q...O...q.O.q.q.q.q.w.w.q.w.w.w.r.r.r.r.r.r.r.r.r.r.r.y.r.y.r.r.e...9XdXrXdXeXeXdXeXeXpX1XpXeX<XeX<X<X,X,X<X,X,X8 1...` ` ` ` ~ ` ) ..~ O.+.w.w.e.e.w.e.e.e.w.e.e.w.e.w.e.w.e.w.e.e.w.q.w.w.w.w.e.O.w.w.w.e.q.+.w.w.w.w.w.w.q.q.e.+.q.w.q.e.q.q.q.t.q.2...`  .`  .2.4.L.L.L.1X,X1X:X1X4.~  ...............O.....q.2.2.O.q.q.O.O.+.+.+.+.+.O.+.t.y.D.D.P.U.P.D.J.P.U.I.I.S.I.1XdXfXSXJXFXLXLXPXUXPXIXIXLXKXdXeXrXuXrXrXuXrXrX!.rXrX!.rXS.X.t.O...O...1.i &Xf.f.oXf.f.f.oXoXoX%XU #XpX,X0.t.,X9X8X8X8X<X8X8X<XaX1X4.p.t.p.4.5X1XL.t.L.t.p.S.t.rXdX8XpXdX,X1XU.U.U.1XI.U.U.K.Q.I.U.!.U.rXI.rXNXNXNXMXCXSX&X7XCXNXCXNXMXCXMXNXMXNXNXSXMXBX8.8.7.7.5.#XBXSX7.8.8.8.R U 8.Z.NXBX=X3.7.@X,XI mX8.8.7.mXmX8X7XsXsXaXdXsXMXMXU 7.7.8.sXAXpX7X<X<X;XdXsXAXsXsXsXsXsXsXfX1XL.L.1XdXeXfX#X3.,X&XA.,XI.&X&X&X&XL.,X(  ...' .._ ~ ..} } Q } } _ } } O.} } w.w.[ [ w.w.w.e.~ P.1XU.1XU.U.1XU.U.rX1XU.U.rX1X1XU.rXrX1X!.rX1XrXrXrXrXrXrXrXI.I.S.C.j.4.j.| j.C.I.I.eX!.uXuXiXiXuXiXiXiXiXuXuXyXuXiXtXjXZXZXDXDXDXZXDXDXDXDXDXDXFXFXFXFXFXJXKXFXFXFXFXFXAXDXFXFXFXJXFXFXFXFXFXJX",
"U 1.3.R 3.1.3.3.3.1.3.3.3.U 1.3.I U U I I I U U I U Y Y /.(.`.^.m m z z c z k k k z z c z k k k z z k z z z c c c c z z z z z z z k z z z c c c c z z k z k z z z z z k k k z z z z z z z z z z z z z z z z z z z z z z z c c z z z z c z z z z z z z z z z z z z z z z z z z z z z z c c z z z z z z k k z k k z z c c c z z z m m ^.`.^./.K @.) ) ) ` ' ' ' ....%.q.O.%.O.w.O.w.w.w.r.w.r.w.e.e.e.e.e.r.r.r.e.r.w.r.r.r.r.y.r.y.~ NX1XeXpXdXpXpXpXeX8XeX7XeX7X7X<XeX,X&X,X,X5  .1.` ` ) ) .. .) ..8 q.w.w.+.e.e.+.e.w.e.+.w.q.+.e.w.+.e.w.e.w.w.w.+.w.e.w.w.w.e.w.w.w.w.w.w.w.w.w.w.w.w.w.w.w.w.q.w.e.q.q.w.w.q.e.e.e.e.e.q.q.q...) ~ ( )  .....p.8 q.....O.O.O.O.O.} O.} ..O.O.+.+.q.+.+.+.O.O.+.+.y.D.P.J.J.P.P.U.P.U.I.L.P.I.1XfXCXDXJXJXPXIXPXIXIXIXUXUXUXUXIXKXpXeXhXrXhXuXuXrXrXrXrXU.rX1X1XS.4.+.O.4.......j A.+X%Xf.f.f.%Xf.%Xf.f.P %XpX:X4.4.,X9X7X7X8X8X7XpXpX1XA.L.p.p.p.1X1XL.t.p.t.t.t.p.t.4.9XdXsXdXuXuXrXuXrXuXhXrXrXrX!.U.U.I.!.U.I.pXCXNXNXSXNXSX<X<XSXNXCXMXBXNXSXJXSXmXNXsXNXMX8.9.8.8.7.@XmXBX@X7.{.9.0.}.U 8.JXBX7X3.7.8.8.R =X7X3.7.8.I U I MXNXsXMXsXaXMX7X7X<X7XmXdXsXMXMXMXsXnXaXdXsXdXsXMXgXdXdXI.F.L.1XdXpXMX,XA.,XA.&X,X<X,XA.I.,XL.,X( ........O...} ..O.~ } } } O.w.[ } +.w.[ +.} e.[ +.e.! P.U.U.rXU.1X1X!.rXI.U.rXrX1X!.rXrXrX1XrXrX1X1XU.S.S.4.3.4.| 4.C.I.I.!.rXhXjXhXjXiXiXiXiXuXtXuXtXuXyXiXuXiXiXuXtXuXiXtXjXZXZXDXZXAXDXDXDXDXDXDXDXFXFXFXJXFXAXFXFXFXFXFXFXFXFXAXFXJXFXAXFXHXFXJXFX",
"1.U I 3.U I R U I R 1.U I I U I I U I I I I U 3.U R )./.`.`.^.m c z z z z z k k z z z c c z c c z z z z z z z z c c z z z z k z c z z z z z c c c z k k k z c c c c z z k z z z z z c k z z k k z z z z z k z z k z z c z c c z z z z z z c c z c c c c c z z z z z k z z z z z z z z z c c k k z z z z z z z z z z z z z z z z m m m ^.`./.K ) ) ) ) ` ` ' ' ' ' ' ' ' q.} q.} q.O.w.w.w.e.w.w.e.w.r.r.r.r.r.r.r.e.y.r.r.r.r.e.y.q.p.fX1XpXeXdXpXpXeXeXpXeX1XeX<XeX<X,X<X,X,X8 ..@.` ` ` ..) ..) ..Q ..q.e.w.e.e.q.w.e.e.q.e.e.w.e.w.e.e.w.q.+.w.e.w.w.w.q.+.w.w.w.q.w.w.w.w.w.w.w.w.w.w.w.w.w.q.w.w.q.w.w.O.w.q.O.q.O.q.e.q.e.q.e.e.t.t.q.e.O.O._ .._ ~ [ ! ' _ _ O.O.q.O.O.X.+.O.O.O.O.O.y.y.S.J.D.P.J.P.P.P.P.L.L.I.1XdXCXDXFXJXLXLXLXLXIXIXIXIXUXIXIXUXIXUXIXKXpX<XfXrXuXrXrXrXuXuXrXrXrXrX!.rXS.X.S...O.....4.i &Xf.f.Z.%XoXf.f.oXoX%XU A.8X:X4.0.1XeXpX7X9X8X7XpXsXL.4.t.t.p.:XfXL.4.p.t.t.a.t.t.p.L.4.fX1XdX1XI.!.U.U.rXU.!.rXrXrXuXdXrXrX1X,XdXSXNXNXMXMXSX<X7XSXCXCXMXNXSX=X&XBXSXNXAXMXBX8.8.7.8.7.{.BXBXOX8.7.U 7XJXmX3.NXmXaXR 8.7.7.3.@X8.3.E 8.A.@X@XMXsXsXsXfXMXaXNXAXBXMXaXsXMXsXMXfXAXsXsXsXdXAXMXsXaXsXdX,XL.L.1XdXdXfX,X3.,X&XI.A.,X,X,XI.A.A.,X~ ...._ ' ' ' ' ..} ! O.} } } } } } [ w.w.[ e.[ e.[ e.] P.1XU.1X1XrX1X1XrXrXrXrXrXrX!.U.S.I.S.C.3.| j.C.S.I.Q.rXuXyXjXiXjXjXuXjXuXuXuXuXyXiXiXyXyXiXiXyXyXtXyXyXiXtXiXiXyXtXhXlXZXDXDXAXDXZXDXDXDXDXFXFXFXFXFXFXFXJXFXFXFXFXFXFXFXFXFXFXFXAXJXFXFXJXFXHX",
"3.R R 3.I 3.U 1.3.I I U I 3.I U U j I I I U U U U T /./.(.`.m c x x x z k z c z z z z c c c c c x z c z c z z z c c k k z z z z c z z k k k z c c z k k k z c c c c c z z z z z z z z c z z k k z z z c k k z z z z z c z z z z z z z z z z c c z c c c c z k z k z z z c c z z z z z z c c k k z c c c z z z z z z k z z z z z z c m ^.`./.K G ) ` _ ` ' ' ' ..O.O.O.q.O.q.O.q.w.w.w.w.w.w.r.w.w.e.e.e.r.e.r.r.r.e.r.r.r.r.r.e.r.y._ dXrXdXeXeXeXpXdX1X<XeX7X<X<X<X,X<X,X&X,X5  . ...` ) ) ` ~ ) $.Q q.q.+.+.w.w.+.+.w.e.e.w.e.w.e.w.w.w.w.w.w.w.w.e.q.w.w.w.w.w.w.e.w.w.w.w.q.w.O.q.w.w.q.w.w.w.w.w.e.O.w.w.w.w.w.q.e.e.q.w.e.e.q.r.w.e.e.r.e.y.r.e.y.y.r.e.O.+.} _ [ } } O.} O.O.+.y.P.y.D.P.P.P.I.P.P.L.L.1XrXfXNXDXJXKXLXLXIXUXUXIXUXUXUXUXUXUXUXPXUXIXIXLXKXsXhXdXhXjXkXuXuXrXrXrXuXrXrX!.!.1XS.O.t.X...O... .j &Xf.%Xf.oX%XoXf.%Xf.%XP &X9X,X4.S.:X9X8XpXpX8X8XsX:X0.L.p.p.p.rX>X4.p.4.p.t.4.t.p.p.t.p.L.fXrXI.I.U.U.F.U.U.U.U.F.U.U.rXrXuXhXrXdXNXNXSXSXAXSX<X7XSXMXNXSXSXE 3.3.I NXSXBXNXSX7.8.8.9.8.8.mXSX:XR 8.R mXNXNXsXmXmXBXU 8.A.@X#X7X7XmXBXBXmXSXSXsXaXfXaXMXMXaXmXMXMXMXMXsXsXdXMXaXAXpXCXpXAXMXsXMXsXhXfX1XL.S.1XdXhXfX<X3.,XI.<X,X&XA.,X&X,X,X1X .....O...O.' ' O.O.! } } } [ O.w.[ w.} w.[ r.+.e.e.+.~ U.U.rXrXrXrXrXU.U.L.S.C.4.| | 3.S.I.F.!.uXuXuXjXjXiXuXiXiXiXuXyXyXyXuXuXyXuXuXiXtXiXiXiXyXyXtXyXyXyXyXtXiXiXtXiXjXjXjXlXZXZXDXDXDXDXDXDXDXDXFXFXFXFXFXFXKXAXFXFXFXAXFXAXFXHXFXFXFXJXJXFXKXJXAXFX",
"I R R U U 1.U I U R I 3.I I I  .I I I U U U 1.I R Y /._.'.^.z z c c z z z x z z c c c c c z z z z z z z m c z k k k k k k c c c z z z k z z z k k z z z z z z x c c z z z z z c c c z c c c c z z z z z z z k z z z z z z z z z k z z k z z z z c c c z c c z z k k z z c c c z k k k z z z x l z c c c c c c z z z k k z z c x z z m m '.`./.^ ^ Q ~ ^ ^ ~ _ _ _ } _ ' } } O.:.O.w.w.O.r.e.r.w.r.e.y.r.w.e.r.e.w.w.w.w.e.w.r.r.r.e.O.L.dXrXdX9XeXeXpX<X1XpX<X<X,X<X<X,X&X<X<X8 1... .` ` ` ) ..) ..Q ..e.q.w.e.+.e.w.e.w.e.w.w.w.w.w.w.w.w.e.O.e.w.w.+.w.e.q.w.w.w.w.w.w.w.q.O.w.w.w.w.w.O.w.w.w.w.w.w.w.w.w.w.w.w.w.q.e.e.w.e.r.t.e.e.e.r.r.e.e.e.r.e.e.w.e.e.y.y.e.y.y.e.O.O.} X.e.y.y.P.P.t.S.L.L.,XdXNXSXFXIXLXIXIXLXIXUXUXUXUXUXUXUXUXUXUXUXUXPXUXIXIXIXLXhXeXkXtXrXuXrXuXrXuXrXuXrXrXrXrXrXrXD.O.t.O.O.| ..| i &X%Xf.oXf.f.f.oXoXf.%XU +X9X,X4.L.1X9X7XpX8XsX,X9X4.p.p.p.4.9X1Xt.4.t.t.1X9X9XL.t.p.t.L.t.>XfXI.U.K.K.U.I.U.H.U.Q.U.U.K.Q.I.U.rXkXCXNXNXCXNXSX-X7XSXSXBXCX,XR 8.8.8.8.JXMXMXJX8.8.8.7.7.3.mXSX7XS 7.U NXmXMXMXMXaXNXBXSXBXMXSXMXAXMXMXmXMXAXMXsXsXsXAXsXMXMXsXsXsXMXMXsXgXMXMXsXgXsXCXsXsXdXdXMXaXsXfX,XL.I.1XdXhXfX,X8.eXI.&X,X<X&XI.<XI.I.1X .O.O.O...} } O.} O.! w.+.[ w.} w.[ w.+.[ w.w.e.e.e.+.! J.S.S.t.| | 4.j.j.I.I.rXuXiXlXlXjXjXiXyXyXyXyXyXtXyXiXyXtXyXyXuXyXuXiXiXyXuXyXyXtXyXyXyXyXyXtXyXyXtXyXiXiXyXyXiXiXhXlXZXZXZXZXDXDXDXFXFXDXFXFXFXFXFXFXFXFXFXFXFXFXAXFXJXFXFXFXFXAXFXFXJXKXFXFXJX",
"8.3.5.3.U U R U I 3.U I U U U I U 1.U E U I I R )./._.'.^.m c z c z z z x x z z c c c z z z z z z z k z c c z k k k k k k z k c z k z z z k z z z z z z z z z z c z z z z z z z z z c z c c c c z z z z c z z z z z z k k z z z c z z z k k x z z c z z z z z z z k z z c c z z k z z z z z k k k c c c c z c c z z k k z z k x c z c m _.`./.C t ( ( ( _ _ _ ` _ _ ' ' _ ' } _ _ } [ } } } [ } [ } } [ w.:.[ r.w.w.w.w.e.e.w.r.w.a.O.p.fX1XeXdXsX8XrXeXpX<XeX<X<X<X<X,X,X,X,X5  . .` ` ) ` ) ) ` ..Q q.e.q.e.e.w.e.e.O.w.+.e.e.e.w.+.e.e.w.w.w.w.w.w.w.w.w.O.w.w.w.w.w.w.w.w.w.w.w.w.w.w.q.w.w.w.O.w.w.w.w.w.w.w.w.w.w.w.r.e.w.e.e.e.e.r.e.e.w.e.e.e.e.e.y.w.y.y.+.e.y.y.y.y.D.D.y.y.D.+.t.L.1XdXCXDXFXKXJXKXIXPXIXIXIXUXUXUXUXUXUXPXUXUXUXPXPXUXUXUXUXPXUXIXAXpXhXjXrXuXuXiXrXuXuXrXrXrX!.rXuXrX1XS.X.y.| O.4...4.j &Xf.f.f.%X%XoXf.%Xf.%XU %XsX,X0.4.:XsX7X8X7XpXsX:X0.L.t.t.p.fXp.4.L.4.L.dX9XrXdXp.t.t.t.t.4.rXU.U.U.J.H.H.H.U.K.U.R.U.K.U.!.U.rXkXNXSXSXNXBXJX<X7XSXNXBXSX7XU Z.8.3.@XJXSXSXBX3.U E 5.Z.#XmXMXmXBXBXSXBXsXMXMXMXMXsXMXMXMXMXsXmXMXMXMXsXaXMXaXMXMXsXsXMXMXsXAXMXNXdXsXMXMXsXsXMXsXMXsXhXsXhXnXdXsXfXdXI.P.P.1XdXpXMX<X0.<X,X<XI.&X,X,X<X,X,X1X ...O.' O...O.} O.} ! [ } w.} w.:.+.[ w.r.w.w.[ e.+.+.[ X.S.F.!.!.uXjXjXjXjXiXiXiXtXuXuXiXyXtXyXyXyXyXyXyXyXiXiXyXiXyXyXtXyXyXyXyXiXiXyXyXyXyXtXyXyXyXyXyXyXyXiXyXyXyXtXjXlXZXZXZXDXDXDXDXDXFXDXFXDXFXFXFXFXFXFXFXFXFXFXFXFXJXFXFXJXJXFXFXJXJXAXJXHXLXLX",
"u u u S P I I I P I I I U I I U U I U U 3.U R R )./._._.m c m m m c z x z z z z z z z k k z z z z z k k c c z z k z k z z z z z z z z z z z z z z z z z z z x z z z z z z k z z z z z z c z z z z z z c c c z z z z k k z z z z z c z z k k k x z z z k z z z z z z c c c c z k z k z z z c c c z z c c z c c c c c z z c z z z z x z c ^.`.`./.C i ( 8 r ~ ~ 8 ~ Q ~ ~ ~ _ _ _ _ } ' } } O.O.w.w.+.e.w.+.} [ w.[ [ ] [ [ e.w.:.r.:.O.p.dXeXdXeXeX<XpX8XpX1X<X<X<X<X<X,X,X&X,X5 .. .' ` ` ..) ..` ..~ ..e.w.w.e.w.w.e.w.w.w.e.e.w.w.w.e.O.e.w.e.e.O.w.w.w.w.w.w.O.w.w.w.w.w.w.w.O.w.O.w.w.w.w.w.w.w.w.:.w.w.:.w.w.w.w.w.w.w.w.w.r.e.e.e.e.e.e.e.y.r.e.+.e.e.e.y.e.y.r.y.y.r.y.a.y.D.D.y.t.fXDXJXIXIXIXJXPXIXPXPXUXIXUXPXUXUXUXUXUXUXIXUXUXIXUXPXUXUXUXUXPXIXIXkXjXjXhXrXhXiXrXuXuXrXuXuXrXrXrXrXrX!.S.t.+.+.O.O.....i &Xf.%X%Xf.f.f.oXf.f.%XL %X8X,X0.4.:XdX8X8X8X9X1XA.S.p.t.p.1X9X4.S.t.t.L.9X9XeX9XP.4.t.y.t.t.t.1XU.F.J.K.K.H.H.F.R.U.R.Q.K.Q.U.rXCXNXNXNXSXSXSX,X7XJXNXSXBXJXA.I 3.8.LXMXNXMXAXmXBXJXSXSXSXMXMXNXNXMXCXMXMXmXsXNXsXMXMXsXMXMXMXsXsXaXMXsXsXMXMXMXMXAXpXsXsXsXAXdXgXMXsXsXhXsXCXCXdXMXdXsXMXkXsXMXgXMXfXU.I.L.1XdXdXfX<XA.eXI.<X<X&X,X<XeXI.,X1X .....q.O.} O.O.+.} ! } :.[ w.[ w.[ +.:.[ w.:.y.w.+.y.! U.jXiXiXyXuXuXuX~.yXuXyXyXyXiXyXyXyXyXyXyXyX~.tXyXiXuX~.yXyXyXyXyXyXiXyXyXtXtXyXiXyXyXyXyXtXyXyXiXyXiXyXyXtXjXjXlXlXZXDXDXZXDXDXDXFXFXFXFXFXFXFXFXFXFXFXDXFXDXFXDXFXJXFXFXAXAXFXFXFXFXJXJXLXIXIX",
"j S j u u u 7 u 7 u u 7 0 y 7 > 7 7 u 0 0 y u n ^./.`.^.c k m z z z z z k z k k k k k k k k k z z z k k z c c z z k k z z z z c z c z z c z z z z z k k k z k k k z z z z z k z z z z z k z z z c z c c c z c k k z z z z z z z z z k k k k k x z z k k z k k k k z c c c z z k k z z z z z c c z z z k k z c c c c c c c z k z z c z c c _././.T K 1.1.1.1. .4.2.2.2.4.q.2.2.t.2.t.q.q...q.$.O.} } O.} } O.} [ w.w.:.e.[ :.w.r.r.w.w.t.dX1X,XdXpXpX<XpXeX<X<XpX<X<X<X,X&X,X,X8 1.` ` ` ) ) ` ~ ) ` ~ 2.e.O.e.w.+.+.w.e.e.e.w.O.w.e.w.w.e.w.w.w.w.w.w.w.w.w.w.w.w.w.O.w.w.w.O.w.:.w.w.w.O.:.O.:.w.w.w.O.w.w.O.w.w.w.w.w.w.w.w.e.w.e.e.w.e.e.r.y.e.e.e.y.e.+.y.y.r.y.y.y.y.y.y.y.y.y.D.D.C.fXFXLXUXUXUXUXPXPXPXUXUXUXPXUXUXUXUXUXUXUXUXUXUXUXUXPXUXUXPXIXIXJXgXhXjXuXuXuXuXrXuXuXuXrXrXuXrXuXrXrXrXrXS.+.S.4.O.4...4.i A.f.%Xf.oXf.%XoX%XoX%Xf.Z.1X,Xt.4.1X9X8XeX8X8X<X4.p.t.t.>X9Xt.t.a.t.t.t.dXdX9XdXL.L.t.t.t.S.t.t.U.J.H.H.K.K.K.U.K.H.U.K.K.U.U.hXkXNXSXNXCXNXDX<X8XSXNXAXCXBXJXBXSXJXMXMXMXCXsXMXSXMXBXMXmXNXMXMXMXNXMXMXMXNXMXMXMXMXMXMXsXMXMXMXsXMXkXMXsXdXsXsXMXsXMXMXfXfXsXdXMXgXMXsXMXdXsXsXVXgXMXhXkXMXMXMXfXfXdX1XL.L.I.kXdXCX,XA.1XeX,X,XI.,X<X,X,X,X1X....q.} O.O.} O.} O.] +.+.[ [ w.w.w.w.e.e.w.w.[ w.+.+.~ rXyXuXyX~.yXyX~.yXyX~.yXyXyXyX~.tXyXyXyXtXiXyXiXyXyXyXyXyXyXyXyXyXyXyXyXyXyXyXyXyXiXyXyXyXyXyXtXyXyXtXiXyXtXiXtXlXZXZXDXDXDXZXDXFXFXFXFXFXFXFXFXFXFXFXFXFXAXFXDXDXFXFXFXFXJXFXFXJXJXAXFXKXPXIXPX",
"P i P S G j u I j P S i P S i j S j j P S P F Y /._.(.m c z z c x c x x k ; ; k ; k ; k k k k x k c z x z c z z k ; k c x z c k c z k x z z z z x z k ; k k k x k x c m c z k k z z z z z z z z x x x c x k k l k k z z z z c c c x k k k z x x k z z x c x x ; x k x z z k x k x ; k k x k c z x ; ; ; ; ; k ; k z z c z z z c z z k c m ^.`.(./.T 1.1.1.1.2. .4.4.3.2.4.4.4.4.4.4.u.p.t.p.p.t.t.t.a.t.a.t.a.O.w.w.w.w.[ e.w.w.w.w.q.4.dXpX8XrXeX1XpX<X8X<XeX<X,XeX<X&X<X,X,X5  ...) ` ~ ` `  .` ` Q ..e.e.w.e.w.e.+.w.w.e.e.w.w.w.e.w.w.w.e.w.O.w.w.w.w.w.} w.w.w.} w.w.w.w.w.O.:.w.w.w.w.w.w.w.} w.%.w.w.w.w.w.w.w.w.w.w.w.w.e.w.r.e.e.e.e.e.e.e.e.e.y.e.y.e.y.y.y.y.y.y.y.y.D.D.P.P.L.CXLXIXUXUXUXUXUXUXUXUXUXUXUXUXUXUXUXUXIXUXUXUXUXUXUXIXUXUXIXIXLXAXhXjXhXjXjXrXrXhXuXrXuXuXrXrXrXrX!.!.!.rXS.+.t.+.4.....4.j &XZ.Z.%Xf.f.oX%Xf.f.%XU #X8X,X4.p.,XsX8X7X,XmXL.S.4.p.t.1X9X4.t.t.t.t.4.>X9XdX1Xt.t.t.t.p.a.+.t.J.U.H.F.K.H.H.U.K.K.U.R.Q.U.I.CXCXSXNXCXSXSXJX,X7XSXSXCXCXSXSXBXSXBXAXNXMXCXNXCXsXAXNXMXMXfXMXfXAXfXsXMXsXNXsXMXMXsXMXMXNXMXMXsXMXsXaXfXsXsXMXsXsXMXAXMXsXsXCXpXAXsXsXAXsXAXsXsXsXkXkXsXkXAXkXsXMXsXkX,XP.I.1XkXdXkX,XA.eX,X,XeX,X,XeX,X1XeX1X..O.q.O.O.O.O.w.O.w.! +.w.w.e.w.w.w.[ w.w.w.w.w.+.+.D.~ !.uXyX~.~.tXyXyXyXyXyXyXyXyXyXyXyXyXyXtXiXiXyXyXyXyXyXiXtXyXyXyXyXyXyXyXyXyXiXiXyXyXiXyXiXtXyXyXiXiXiXyXiXjXiXjXZXZXDXFXDXDXDXDXFXFXFXFXFXFXFXFXDXFXDXDXFXFXDXDXFXDXFXDXFXFXAXFXFXJXJXJXJXLXIXPX",
"R U I I U I I I I i I j I j P I j i I I S P H M _.`.^.c c z z c z x z k x M M M M Y M D M M n ; ; k x c z x k k k x Y ; k x k x z z x z k x z k ; ; l Y Y M < ; ; ; z x c c x k k z z z k z z z x k z c x M ; l l l k c c z x z m k z k v zX; l k x x x x l ; ).; k ; z k k k k k /.l ; l x z ; x ).).).).oX).).M ; x k z k c c z z z c m m '._./.5.R 5.3.3.3.4.4.3.4.0.0.0.p.p.p.p.L.p.p.p.p.L.L.a.p.p.p.a.a.O.w.e.e.r.[ r.e.:.r.w.q.t.dX1XeXpXpXpX<XpX1XeXeX<X<X<X,X,X&X,X,X5  . .` ` ..) ` ` ` ` ~ ..q.e.+.e.w.+.w.w.e.w.w.e.e.w.+.q.e.w.w.w.w.w.w.w.w.w.w.w.w.w.w.w.} w.w.w.w.w.} w.w.} w.w.w.w.w.w.O.w.w.w.w.w.w.w.w.w.r.w.w.e.e.e.e.e.e.e.e.y.e.y.+.y.e.y.y.y.y.y.y.y.D.a.y.D.D.U.S.CXIXIXUXUXUXUXUXUXUXUXUXUXUXUXUXUXUXUXUXIXIXUXUXUXUXUXUXPXIXJXJXhXhXiXjXuXiXrXuXhXrXuXrXuXuXuXuX!.rXrXU.rXS.4.+.t.+.......i A.f.%Xf.%X%X%Xf.oXf.oXU $X9X,X4.4.1X9X9XpX8XdXt.p.t.p.p.dXL.t.p.t.t.p.t.t.p.t.4.t.t.t.y.t.t.t.S.t.J.U.H.H.H.H.U.K.U.K.U.U.!.1XCXCXSXNXSXCXNXJX&X7XSXCXCXBXAXNXSXNXSXNXCXNXAXNXMXMXSXNXMXMXMXNXMXsXsXCXfXMXAXMXdXMXMXMXsXsXsXMXMXsXMXCXaXMXNXsXMXMXsXMXMXsXsXsXdXfXpXCXsXCXMXhXAXfXAXsXAXpXsXkXAXhXfXkX1XP.P.rXkXfXCX<XA.,X,XeXrXeX,XeXeXI.I.rX .q.O.w.O.} w.} [ w.] [ [ w.[ w.e.[ +.e.w.+.w.+.+.y.J.~ !.yXtXyXyX~.yXyXyXyXyXyXtXyXyXyX~.tXyXyXyXyXyXiXtXyXyXyXyXyXyXyXtXyXyXyXyXyXyXyXiXiXyXyXyXiXiXiXtXyXyXiXiXiXjXlXZXZXDXFXDXDXDXDXFXFXFXFXFXFXFXFXFXDXFXFXFXDXDXDXFXFXFXAXFXJXFXFXJXJXJXJXPXPXIXUX",
"U R U 3.3.I U 3.3.U U I I U U 3.1.U U R U R ).(._._.c c x x k z x z k k l PXPXPXHXPXLXHXPXUXHXnX*X< ; z x z k ; ; *XHXX : , v k k x z x x k k ; Y HXJXZ.g d - $     ; x x x x k x x z z k z z x z k k ; M GXn O Z , l l z m x z x x k ; PXcXO ; l l z x c ; M PX1 X < l l x k z ; GXoX; , v ; k L UXUXIXIXLXIXPXW ; ; l k z x x z k c c x m (.`._.).5.1.3.5.5.4.4.0.0.0.0.:XL.}.L.:XL.:X>X>X:XP.>X>X:XP.P.>X>Xe.w.r.r.w.w.r.w.r.w.w.q.t.dX1X<XpXeXpX8XeX1XpX7XeX<X<X<X&X,XI.,X7  .2.` ` ) ) ~ ` ` ` Q q.+.w.w.w.w.w.w.e.w.e.w.w.w.w.w.w.w.w.w.w.w.w.w.O.w.w.w.w.:.w.w.w.w.w.} w.} w.w.w.w.q.:.w.w.q.:.w.w.w.w.O.w.w.w.w.w.w.w.e.e.w.e.e.e.y.e.y.e.e.y.e.e.y.y.y.y.y.y.y.y.D.y.D.D.D.D.U.A.CXLXUXUXUXIXUXUXUXUXUXUXUXUXUXUXUXUXUXPXUXUXUXUXUXUXUXUXIXIXKXkXhXjXiXjXhXjXrXuXuXrXuXuXuXuXrXrXrXrXrXrXrXD.X.t.t.O.O.O.4. .A.Z.oXf.f.f.oXoXf.oX%XU %XaX,Xt.0.,XdX8X8X8X,X4.t.t.4.L.9X4.t.t.t.e.t.p.t.t.t.t.p.p.t.L.t.t.P.t.t.t.U.H.H.H.H.T.H.K.U.K.U.U.rXCXCXCXSXSXNXSXSX<XpXSXCXCXBXAXNXNXSXSXNXAXMXMXCXCXSXMXMXSXsXMXMXCXfXMXMXsXsXNXsXNXMXNXMXmXMXMXmXCXsXMXsXCXSXMXAXsXaXAXsXMXMXsXAXsXMXfXsXNXsXMXMXMXMXMXdXkXsXMXMXdXAXsXkX1XI.L.rXkXfXCX,XA.<XeX<X,X,XeX,XeX1X,X1X..O.O.O.O.O.} w.+.w.] w.+.[ +.w.[ w.w.w.w.+.w.+.D.P.J.~ ~.yX~.yXyXyXyXyXyXyXyXyXyXyXyXyXyXyXyXyXyXyXyXyXyXyXyXyXiXyXyXiXyXyXiXyXiXiXiXyXyXiXiXyXiXiXiXiXiXiXyXiXtXjXlXZXZXDXDXFXDXDXDXDXDXFXFXFXFXFXFXFXDXFXDXFXDXFXFXFXFXFXFXFXAXFXAXFXFXJXJXJXJXPXIXIX",
"3.R 3.I I 3.I U I U I I U 1.I 3.U I I I I T /.(.`.^.c z c z z z z z k k < PX= = - - - - 7 - - a U P X k x x z k < UXA #Xo T v v k k x z k ; ; HXPXj $ j.Q.Q.!.Q.I.j   O l k z k z z k k k k z z k k x k ; UXP 1 q G , l k x z x k ; ; PXUXO 7 u b l x c z ; GX+X8.3 I G ; l k k k zX=X$ @ T , , Y PXo $ o - $ - - + ; l l z z z k z x m z c ^.'._.).T 1.5.1.0.0.0.3.0.0.0.0.p.0.p.}.p.p.p.L.:X:X:XP.L.>X>XP.>Xq.w.w.w.r.[ r.w.w.r.w.q.q.dXeXdXeXpX<XeX1X7X<X<X<X<X<X,X,X&X,X,X5  .` ..` ` )  ...` ..Q ..w.w.e.w.w.+.e.w.w.w.w.e.+.w.w.w.O.w.w.w.w.w.w.w.w.O.w.w.w.O.w.w.w.w.w.w.w.w.w.w.w.w.w.w.w.w.O.w.w.w.w.w.w.w.w.w.w.e.e.w.r.e.r.e.e.e.e.e.y.+.e.y.y.e.y.e.y.y.y.y.y.y.D.y.D.P.D.U.S.CXIXIXIXUXUXUXUXUXUXUXUXUXUXUXUXUXUXUXUXPXUXUXUXUXUXUXUXUXKXFXhXkXjXjXiXuXiXrXhXuXhXuXuXuXrX!.uX!.rX!.rXrXt.+.+.+.O.4...2.j &XZ.%Xf.%Xf.%X%Xf.%Xf.U $XsX,X4.t.>X9X8XpXaX:Xp.S.L.t.9X1X4.L.t.t.p.t.t.t.t.p.t.t.L.t.4.t.t.t.y.t.4.J.U.U.U.H.H.U.U.K.R.Q.I.fXkXCXCXSXNXNXNXDX<X7XSXCXAXCXNXCXSXNXNXCXNXCXCXsXNXCXMXNXMXNXNXMXsXaXCXNXAXMXMXsXMXBXSXMXMXSXNXBXBXMXmXNXZ.U 3.E DXMXsXMXsXCXsXNXMXCXAXsXMXCXMXaX<XaXdXMXAXhXkXAXMXdXCXCX1XL.L.1XkXdXCX1XA.,X,XeXrXeXeX1XeX,XrXrX..+.+.w.w.[ +.+.[ w.] w.:.w.e.w.e.e.[ [ +.+.+.y.U.U.J.~ E.~.yXyXyXtX~.yXyXyXyXyXyXyXyXyXyXyXyX~.yXtXyXyXyXyXtXyXyXyXyXtXyXtXyXyXtXyXyXtXiXyXtXiXyXiXiXyXiXiXtXjXiXjXlXZXZXFXDXDXDXDXDXDXFXFXFXFXFXDXDXFXFXFXFXFXDXFXFXFXFXFXFXFXJXFXJXJXJXJXLXLXLXPXIXIX",
"R 3.U 1.U U I 1.U U I U 3.U 3.U U U 1.I R ).^._._.m m c z k c k k x k k ; UX= jX~.W.W.W.V.V.W.W.~.C.=   ; x k ; *XAX- lX#  .t , ; x x z ; n UX;Xo Q.W.V.b.N.b.b.T.~.Q.    ; k k k z x k z z z c k x k ; ; GXu dX4 8 i 9 l k k ; ; ; HXPX. hX7 I 9 l k x ; n PXX jX| 6 @., ; l k ; zXE <Xi 8 I 0 F SX- jX~.W.W.~.iXj # , ; k x z c z c c c m m `.`./.T I 5.1.3.1.3.0.0.0.0.L.L.L.:X:X>X:X>X:X:X>X>X>X2X1X>X>X>XO.w.r.w.w.[ w.w.w.w.q.q.t.dX1XeXpXeXeX8XeXeX7XeX<X<X<X,X<X&X<X,X7  ...` ` ) ) ) _ ` ` Q ..q.w.e.w.e.O.w.e.e.w.w.O.w.w.w.w.w.w.w.w.w.w.w.w.w.w.O.w.w.w.w.w.O.w.w.w.w.w.O.w.w.w.O.w.w.w.:.w.w.w.w.w.w.w.w.e.w.w.w.e.e.w.e.e.e.e.e.y.e.y.e.y.y.y.y.e.y.y.y.y.y.y.D.a.D.D.P.U.S.CXIXPXUXUXUXUXUXUXUXUXUXUXUXUXUXUXUXUXUXUXUXUXUXUXUXUXUXIXLXAXhXjXjXtXjXuXjXrXrXuXhXrXuXuXuXuX!.rXrXuXrXrXS.+.S.O.O.O.4...j &Xf.%X%Xf.%XoXf.%XoX%XU &XaX1X4.p.,XdX7X8X9XL.4.t.p.t.dXL.4.t.t.t.t.p.t.t.a.t.t.t.t.L.9XP.t.t.p.y.t.t.U.J.H.H.Q.K.K.U.H.U.!.kXCXCXCXCXSXSXSXDX<X8XZXCXNXCXSXNXNXSXNXCXCXNXMXNXNXMXCXSXMXSXSXMXmXMXSXJXSXSXMXmXsX8X<XmXNX8.8.3.I 3.LXSX}.8.3.8.SXMXCXsXCXNXMXNXaXaX8XfXNX0.3.8.3.<XAXCXMXkXsXAXCXMXfXkX1XU.I.1XCXkXCX<XA.rXeXeX1XeXeXrXrXdX,XrX..O.+.+.w.+.w.+.e.w.] e.[ +.e.[ +.:.+.+.+.+.y.J.J.J.G.| !.yX~.yX~.tXyX~.yXyXyXyXyXyXyXyXyXyXyXyXyXyXyXyXyXyXyXyXyXyXyXyXyXyXyXyXtXyXiXyXyXiXyXiXtXyXiXyXiXiXiXjXjXlXZXZXZXDXDXFXDXDXFXDXDXFXDXFXFXFXDXDXDXDXDXFXFXFXFXFXFXKXJXFXKXJXJXJXJXJXLXPXJXJXKXJX",
"3.U R U 3.I U U 1.U U 1.U 1.U I U I R P Y /.(.`.^.m c x c k z z x z z ; < LX$ E.m.c.c.c.c.N.N.b.b.E.yXg X k ; Y UX- T.T.K.# $.9 ; x z k ; PXpX- ~.m.c.N.c.c.c.N.b.b.~.hX& X ; x x z k z k k k x k x x k ; VXa !.jX# 8 1.% ; ; ; ; PXIXX !.uX3  .9 ; l k ; PX3.C.E.E.4 ) w , k k ; zXE C.iX3 8 i u SX- W.b.c.c.c.T.h i B ; k k k z z c c m c m ^._.(.H B u u i u u i u i i i i e i ( i (  .1.2.1.1.6.4.p.t.p.a.q.w.w.w.w.:.:.w.:.w.w.q.q.fX,XpXeXeX9XeX<X<XeXeX<X<X<X<X,X,X:X,X8 1.` ` ` ..~ ` ) ` ..Q q.e.w.e.e.w.e.e.w.w.e.w.e.w.w.w.w.w.+.w.w.O.w.w.O.O.w.w.w.O.w.w.w.w.w.w.w.w.w.:.w.:.w.:.w.:.O.q.w.} w.w.w.w.w.e.w.e.r.e.r.e.e.e.e.e.y.y.e.e.e.y.e.e.y.y.y.y.D.y.y.D.D.y.D.D.D.P.U.I.CXLXUXUXUXUXUXUXUXUXUXUXUXIXUXUXUXUXUXUXUXUXUXUXUXUXUXPXLXJXkXlXjXjXuXhXiXiXrXrXjXuXuXuXrXuXrXrXrXrXrXrX!.S.t.S.+.O.4.O...i &Xf.%Xf.f.f.%Xf.oXf.%XU %XsX<X4.4.1X9XeX9XfX0.L.t.t.t.dXp.p.t.t.p.t.p.t.L.t.t.p.t.4.dXfXNX1Xt.t.t.S.t.D.U.K.U.H.H.H.K.U.!.rXkXkXCXCXDXSXSXSXJX&X8XSXSXAXCXSXSXSXSXSXMXCXNXSXNXKXCXMXNXBXBXNXsXSXCXA.8.7.A.MXSXpXS I 8XSX7XE 8.8.U 7XSX8XZ.#X@XMXfXsXNXmXmX8XI 3.8.8.SXNX&XA.A.8.-XDXNXkXMXkXCXAXhXsXCX1XL.P.rXCXkXCXpXA.rXeXrX<XrX<XeX<X,X1XrX..+.e.q.w.+.w.[ [ +.] +.w.w.e.w.w.+.y.+.+.y.U.P.U.J.K.~ !.~.yXyXyXyXyXyXyXyXyXyXtXyXyXyXyXyXyXiXiXyXyXiXyXyXyXyXyXyXyXtXyXyXiXyXiXiXyXiXiXyXiXyXiXiXiXtXiXiXiXiXjXlXZXAXDXDXDXDXDXDXFXDXFXDXDXDXDXFXDXFXFXDXDXDXFXFXFXFXFXKXJXLXLXLXPXJXPXLXLXJXJXKXKXDX",
"I U I 3.I 3.U 1.3.I U R 3.I 1.U U I U I /.(._.^.m m c c c z z z z x z k < PX- ~.N.N.c.c.N.c.c.c.c.c.m.yX  ; ; zXaXg W.v.~.8 6 ( b ; l ; zXUX$ ~.m.c.c.c.c.c.c.c.T.~.h Q.DX: ; k ; ; ; ; ; ; ; ; k x x k ; AXg !.T.uX3 8 @., ; ; nXLX  !.T.~.4  ., v l ; ).IXX ~.v.W.| 3 @.4 l k ; zXU C.!.~.# 8 4.fX7 ~.N.N.c.N.E.8 ^ C l k c c z x c c x c c m _.`./.T T 1.1.1.1.3.3.0.3.0.0.0.0.0.0.0.0.4.0.4.4.4.0.2.2.2.t._ w.w.e.e.[ e.w.w.w.w.q.2.dX1XeXeXsX,X8XeX8X<X7XeX<X<X,X&X&X,X,X5 1...` ` ` ) ` ) ` ..~ ..e.w.w.e.w.e.e.w.w.e.w.e.w.w.e.e.w.w.w.w.w.w.w.q.w.w.w.w.:.w.w.w.:.w.w.w.w.w.:.w.q.w.:.w.w.w.w.w.w.w.q.w.w.w.w.w.w.e.w.e.e.r.e.y.e.e.y.e.y.+.e.y.e.y.y.y.y.y.y.y.y.D.D.D.D.J.J.1XL.CXLXUXUXUXUXUXUXUXUXUXUXUXUXUXUXUXUXUXUXUXUXUXUXUXUXUXUXKXCXlXjXjXuXjXuXuXjXtXuXuXuXhXjXuXuXuXuXuXrXrX!.rXS.X.S.O.O.4...4.j %X%Xf.oX%Xf.oX%XoXf.%XU $XsX,X4.p.1X9XsX8XmXp.t.L.t.L.9Xp.p.t.p.t.4.t.4.4.t.t.t.t.p.NX9XfXNX4.t.t.t.S.+.U.I.U.T.U.U.K.U.U.rXkXCXSXCXCXAXSXBXSX<XeXSXSXCXSXSXSXNXNXSXCXNXAXBXSX,XsXPXBXJX8.I I sXIX8.5.8.OXBXBXSX8.3.7XBXBX8.8.8.E U BXBXIXLXJXMXMXMXfXsXMXMX7.Z.@X8.CXBX<X7.3.3.@XSXAXAXkXAXCXMXCXAXlX1XI.L.rXkXkXCX1XA.dXrXeXrXeXrXdXeXrX1X9X..q.e.e.w.w.+.+.[ e.] +.w.+.w.w.+.w.+.+.+.J.U.J.K.K.J.~ !.yX~.yXyXyXyXyXyXyXyXyXyXiXyXyXiXyXyXyXyXyXiXyXyXyXyXtXiXyXyXyXyXyXyXiXiXyXyXiXyXiXiXiXyXiXiXiXiXiXjXjXlXlXZXZXDXDXDXDXDXFXFXDXDXDXFXFXDXDXDXDXDXDXFXFXFXFXFXFXKXKXPXLXIXIXIXIXLXIXPXJXJXKXFXFX",
"3.3.R 3.U U I U I I 3.3.3.U U U I R I T /.(._.^.m c c c z z z z k z z k < IX- W.N.c.c.c.c.c.N.c.c.c.c.W.3.  P AXj Q.b.c.M.R.6 ) e , ; v UX- Q.b.b.c.N.N.N.c.N.N.j.- F.Q.7 & ; k /.).).Y ).).Y /.M k x x ; AXg Q.v.m.~.6 Q G % GXPX= Q.T.c.W.6 @.9 ; ; l IXj Q.b.c.c.~.8 ~ @.; ; ; zX3.S.T.m.~.7 8 4.g W.c.c.N.c.T.h Q t ; k x c x k c x k x c m ^.`././.G I I 1.1.1.1.1.1.6.3.4.4.0.4.0.4.0.0.p.0.p.p.p.p.p.p.O.w.w.r.r.[ w.w.w.w.q.q.t.fX1XeX9XeXpXeXeX1XeX<X<X<X<X,X,X&X,X,X5  .`  .` ) ..) ` ) ` Q ..q.e.w.w.O.+.w.w.w.w.w.w.q.w.O.w.w.w.q.O.w.w.w.w.w.w.O.:.w.w.} w.w.O.w.} w.w.O.w.O.w.O.w.w.w.w.w.w.w.w.w.r.w.e.e.w.r.e.r.y.e.e.e.y.e.+.y.e.y.y.y.y.y.y.y.y.y.y.y.D.y.y.D.P.P.U.U.I.CXLXUXUXUXUXUXUXUXUXUXUXUXUXUXUXUXUXUXUXUXUXUXUXUXUXUXIXFXhXlXhXjXjXuXuXuXuXrXuXhXuXuXrXuXuXrXuXrXrXrXrXrXS.+.S.t.+.O...4.j 0Xf.%X%Xf.%X%Xf.%XoX%XU -X8X1X4.t.,XdXpX9XdX4.p.t.p.P.1Xp.t.t.t.t.P.1XfXP.t.t.t.L.4.1XfXfX1X4.S.a.t.t.t.S.U.K.U.H.Q.U.!.I.fXCXCXSXSXZXSXSXSXJX7X8XDXCXSXNXAXNXSXSXAXNXSXNXNXJX#XI #XSXJX@X8.R sXSX-XU [.8.mXBXSX,XR #XSXBX7X3.E mX1.#XmXI 8.E 7XMXsXfXdXNXMX3.8.8.8.NXMXNXaXMXaXaXCXdXNXMXkXkXAXMXkXCX1X1XU.1XCXkXCXpXA.hXeXdXdXeXdXeXrXrXrXrXO.+.t.e.+.w.w.w.e.e.] e.w.[ w.+.w.e.+.y.P.J.J.K.K.K.E.~ ~.~.yXyXyXyXyXyXyXyXyXyXyXyXiXyXyXiXyXiXyXyXyXiXiXyXiXiXyXiXiXiXiXiXyXiXyXiXyXyXiXyXyXyXiXiXiXyXiXiXiXjXZXAXZXDXDXDXDXDXDXFXDXDXDXDXDXDXDXFXDXFXFXDXDXDXDXFXKXFXFXKXIXIXIXIXUXIXIXIXLXJXKXFXFXFX",
"I I U U U I U U U 1.U U 3.U U U I U Y Y _._.(.m m c z z z z z z z z k ; ; UX- ~.c.c.N.c.N.k.h V.n.c.b.~.C.o 7X<Xh W.N.c.c.W.| Q @.4 ; [.LXg W.N.N.c.N.N.c.W.F.g | rX4.5 i S ; l *XPXPXPXPXPXPXHXY ; ; l ; VXg !.N.N.N.m.6 6 3.JXg F.m.b.c.M.6  .9 , ; T LXX ~.b.c.c.V.S.3 ` % , ; cXU C.N.c.V.l.7 8 h ~.N.c.c.N.E.h Q C ; k x c z z z x c m c m ^.`.`./.T I 1.5.1.3.3.3.4.3.0.0.0.0.0.0.p.0.0.p.p.0.p.p.p.4.a._ w.w.w.w.[ w.w.w.w.w.q.2.rXeXeXeXeXeX8X,X7XeX<XeX<X<X<X<X&XI.,X7 1.` ` ` ) ) ` ) ` ..8 q.q.e.w.w.+.w.w.w.w.w.w.w.w.O.w.w.w.w.O.q.w.w.q.O.w.w.w.w.w.O.} q.w.w.w.q.:.w.w.w.w.q.q.w.w.w.w.w.r.r.w.w.w.w.w.r.e.r.r.y.r.e.y.e.e.y.e.e.y.y.e.y.y.y.y.y.y.y.y.y.D.D.D.P.D.P.J.U.L.CXLXUXUXUXUXUXUXUXUXUXUXUXUXUXUXUXUXUXUXUXUXUXUXUXUXUXKXAXhXjXiXjXlXiXuXhXhXuXjXuXuXuXuXuXuXrX!.uXuXrXrXrXD.+.y.+.4.4...4.h &X+X%XoXZ.%Xf.%Xf.%X%XU %XsX1X4.0.,XsX9XsXsXt.p.t.p.L.1X4.t.t.t.t.1X9XrX1X4.p.t.t.t.p.U.:XL.t.y.p.p.S.t.S.U.U.U.H.K.!.!.1XCXCXZXCXZXSXCXSXSXSX<XpXSXCXSXSXMXSXSXDXSXNXNXMXNXSX#XR 7.{.JX@X8.3.7XSX7XR 9.Z.mX8X7X@X3.A.BXBXNXI #XBX8.8.-X8.8.8.7XSXMXsXMXMXCX<X7X<X<XNXNXCXMXCXMXCXCXCXMXNXkXVXhXCXdXCX1XI.I.9XkXkXhXdXA.dXrXdXdXeXdXeXrXrXrXrXO.e.+.w.w.+.w.w.[ w.[ [ w.+.w.w.+.+.+.U.J.J.J.K.K.K.K.| E.yXyXyXyXyXyXyXyXyXyXyXyXyXyXiXyXyXyXyXyXyXyXyXiXiXyXyXiXyXiXiXyXyXiXyXyXyXiXyXyXiXyXtXiXiXiXiXiXiXlXlXZXZXZXDXZXDXDXDXFXDXDXDXDXDXDXDXDXDXDXDXDXDXFXDXFXFXFXFXFXFXLXPXUXIXIXIXIXLXJXFXFXAXFXFX",
"3.3.5.3.U R 3.U W 3.3.E R U 3.I R I )./._.`.m m m z c z k z z c z z z ; < IX$ W.N.c.c.c.N.h.h W.m.m.T.g I.$ FX7 T.b.c.c.c.V.R.6 ) t o nX&X| V.c.N.N.c.c.V.h h uXC.3 4 @.C , ; l nX;Xf g g g j j -   ; l ; HXg T.c.N.N.N.!.3 8 3 F.W.c.c.c.W.3 ) 9 ; ; UXj F.N.c.c.c.c.W.8 ( G % ; ;X0.j.N.N.c.V.E.o h W.N.c.N.c.m.h ~ t l k x c z k z c x c c m c `.(./.).I 3.3.3.3.6.4.0.4.0.0.}.p.L. XL.p.:XL.:X>X>XP.P.L.>Xq.w.r.w.r.[ r.w.w.O.q.q.2.9XrX1XdXpX<XeXpXeX<X<X<X<X,X<X,X<X&X,X5  ...` ` ..) ` ` ) ` Q ..e.w.w.e.w.w.w.+.w.w.w.e.w.w.w.w.q.w.w.w.w.O.q.e.O.w.w.w.w.w.w.w.w.w.q.:.q.q.w.q.O.w.w.w.w.} w.w.w.w.r.w.r.r.e.e.e.e.e.r.y.r.e.y.y.e.y.y.e.y.y.y.y.y.y.y.y.D.D.y.y.y.D.D.D.P.U.U.I.CXLXUXUXUXUXUXUXUXUXUXUXUXUXUXUXUXUXUXIXUXUXUXUXUXUXIXKXCXhXjXjXhXuXhXjXuXuXuXuXhXuXhXhXuXuXuXuXrXrXuXrXrXS.t.D.t.O.O.4.O.i ,XZ.Z.%X%XoXf.oX%Xf.%XU %XsX,X0.t.1XsXaXsX9XA.L.p.p.P.dXt.t.p.t.t.9XfX1XdXt.p.L.t.S.t.t.t.t.t.S.t.t.a.t.t.S.U.K.U.U.U.,XrXCXCXCXCXCXCXSXSXSXJX<XeXDXSXCXNXSXSXmX&X-XJXNXBXNXSX,X8.8.8.5.8.8.U -XNXNXI 8.8.5.E 5.3.8.8.SXmXSX8.BXJXI 8.U 7.R 3.<XMXMXMXfXsXNXMXCXNXNXCXMXMXCXMXfXCXMXCXCXAXCXCXCXhXkXCX1XP.1XrXZXkXZXdXI.hXdXpXrXrXrXrXdXrXrXuXO.+.e.+.w.w.+.+.+.+.] w.w.w.+.+.[ +.U.D.U.J.K.K.K.K.!.~ !.~.yXyX~.yXyXyXyXyXyXyXyXyXyXiXyXiXyXyXyXyXyXyXyXyXyXiXyXyXyXyXyXiXiXyXyXyXyXyXiXyXyXiXiXiXiXiXtXiXlXlXZXZXZXZXDXDXDXDXDXDXDXDXDXDXDXDXDXDXDXDXFXFXDXDXDXDXFXFXFXKXLXUXUXIXIXIXLXKXAXFXFXFXFXFX",
"3.3.3.E 3.U U 8.3.U 3.U U U I j U Y /./.'._.c m c c c k k k z z c c z k l LX$ W.N.c.N.c.c.W.~.T.- ~.j.j.C.j A.| V.c.N.N.c.c.E.| 6 ) @ SXU Q.N.c.c.c.c.N.V.~.I.4 3 @.G , ; , l l nX).C.!.Q.T.T.Q.jX7 o O ; HXg !.N.c.c.N.V.T.# T.V.N.c.N.c.m.7  .9 ; {.IX$ ~.n.c.N.b.c.W.l.# 2.9 O 7X3.C.V.c.c.c.W.l.7 V.c.c.N.N.m.8 ( t , k x z z z z x c m c c c ^.`./.).T 3.1.8.6.0.6.0.0.0.0.0.L.L.A.p.L.L.:Xp.>X:XP.L.>XP.q.w.r.:.w.[ w.w.w.w.q.O.4.fX<XeXeX1XpXeX<X<XeXeX8X<X<X<X&X&X,X,X7 1.` `  .) ) ) ~ ) ..Q ..q.q.O.e.+.w.w.e.w.O.e.w.O.e.w.w.w.w.w.w.w.w.q.q.w.w.O.e.w.w.w.w.q.:.q.w.w.w.w.:.w.w.w.w.w.w.e.q.w.w.e.r.r.e.e.e.e.e.e.e.r.y.r.y.y.y.r.y.y.y.y.y.y.y.y.y.y.y.y.y.D.D.D.D.D.P.U.U.L.ZXIXUXUXUXUXUXUXUXUXUXUXUXUXUXUXUXUXUXUXUXUXUXUXUXUXIXFXhXlXiXjXjXiXuXuXjXjXrXuXhXuXuXuXuXhXuXuXhXuXrXrXrXS.X.+.+.O.4...4.h &X%Xf.f.%X%X%X%XoXoX%XL 0XsX9X4.4.1X9X8XsXfXA.p.t.p.P.9Xt.t.t.L.p.p.dXNXL.t.t.t.t.t.t.t.t.p.t.p.y.t.S.t.S.+.F.H.K.H.Q.U.kXkXCXCXSXCXSXSXSXSXJX7X7XJXNXSXSXJX7XI 8.3.OXPXSXSXSX7X8.8.9.8.7.8.8.=XSXJX8.8.7.3.5.3.E 8.I NXSXNXsXNXNX#X#X,X8XsXsXNXNXsXMXfXNXsXCXMXsXMXMXNXCXfXMXsXMXCXNXCXkXCXCXCXDXkXrXP.I.I.fXkXZXZXeX,XdXpXrXtXdXtXrXtXdXeXrXO.+.e.+.+.w.[ e.+.w.[ o.e.e.+.+.o.P.U.K.H.K.K.H.K.K.K.| !.yX~.yXyXyXyXyXyXyXyXyXyXyXyXyXiXyXyXyXiXyXyXyXiXyXyXyXiXiXiXyXyXyXyXiXyXiXiXyXiXiXyXyXiXiXiXiXiXjXlXZXZXZXDXZXDXDXDXDXDXDXDXDXDXDXDXZXDXDXDXDXDXDXDXFXFXFXDXFXFXFXIXUXUXIXIXIXLXLXHXFXJXFXAXFX",
"I I U U U U U 7.9.3.9.3.3.3.E 3.E )./.`.`.m c c c c c x z z z c c c z k < LX- !.c.c.c.N.W.g.h g Q.iX@ lX3  .# ~.B.N.V.h.V.c.m.T.8 ( # JX- !.n.c.c.N.c.c.c.* @  .0.i o ; ; k k l zXZ.Y.Q.T.T.m.E.uX# I > O GXg Q.c.N.N.c.N.B.V.V.c.c.c.c.c.V.6  .9 O UXj F.W.c.V.k.m.n.c.~.8 Q i % 2XZ.C.N.c.N.N.c.V.k.c.c.c.c.N.W.8 ~ e ; k x k z z c c z c c c m m '.`./.T R 1.1.3.3.3.0.3.0.0.0.0.0.L.0.:X XL.:XL.:X:X>XL.>Xq.w.w.r.r.} w.w.:.w.q.2...dX1XeXeXpX<XpXeXeX<X<X<X<X,X<X<X&X:X,X8  .` ` ` ) ..` ` ) ..Q ..e.e.w.e.w.w.w.w.w.+.w.w.w.w.w.w.w.w.w.w.r.w.e.u.q.r.q.q.q.w.q.w.O.q.w.w.w.q.w.w.w.w.w.q.w.q.w.w.e.r.q.e.e.r.y.e.r.y.r.y.y.r.e.y.r.y.y.y.y.y.e.y.y.r.y.y.y.y.D.D.y.D.a.D.D.D.U.U.I.CXIXUXUXUXUXUXUXUXUXUXUXUXUXUXUXUXUXUXUXUXUXUXUXUXUXLXDXZXlXjXjXjXhXiXhXuXjXrXuXuXuXhXhXhXhXuXhXuXrXrX,XrXS.S.S.t.+.+.O.4.i &XZ.f.%X%Xf.%Xf.%X%X%Xf.%XdX,X4.L.1XsXsXsXdX:XS.p.p.L.rX4.L.t.t.p.t.4.p.t.S.t.t.p.p.t.L.t.L.t.p.S.S.S.+.t.S.K.U.H.!.U.I.CXCXCXZXCXSXZXDXSXSXSX<X8XJXSXSXSXSXU @X8.Z.I SXSXBXJX7XU 7.8.R 7.U I 0.JXJX8.R 0.OX#X&X7X8X8XNXsXsXNXmXsXSXSXBXNXNXNXBXMXNXNXMXNXMXMXfXNXCXMXfXMXMXkXCXkXNXCXCXCXCXkXfXrXI.1XL.1X1XCXkXCXDXI.eXdXeXdXdXpXrXdXrXrXrXfX+.e.+.e.e.e.+.e.+.y.] e.e.e.+.+.U.J.U.H.U.K.U.K.H.K.K.~ !.yXyXyXyXyXyXyXyXyXyXyXiXyXiXyXyXyXyXyXyXyXyXyXyXyXiXyXyXyXyXyXyXiXiXyXiXyXyXiXiXyXyXiXiXiXjXiXiXjXlXZXZXZXZXDXDXZXDXDXFXZXDXDXDXDXDXDXDXDXDXDXDXDXDXDXDXFXDXFXFXKXLXPXUXIXIXIXPXJXJXJXFXFXJXJX",
"u u y u - u 7 7 1 7 u - 1 7 1 1 n M (.`.^.c c z c z c x c k z c z c k ; < PX$ W.M.c.c.m.F.C.C.F.j $ lX4.6 3 k.W.N.W.7 o | W.b.W.S.3 8 SXh I.M.c.c.N.c.N.b.W.h 7 7XIXBXn ; ; x ; ;   hXiXuXrX!.!.jX4 G , , HXg !.c.N.c.N.N.c.N.N.c.N.c.N.c.V.6 ( % #XFX- ~.b.W.h o 7 W.B.T.T.3 $.% 2X3.j.B.c.c.N.c.N.N.c.c.c.N.N.W.8 8 e ; k c z z z c c z z c c x m _.`././.R 5.3.5.3.0.4.8.0.0.A.0.A.p.L.L.:X:XL.L.L.>XL.L.P...w.w.:.w.[ w.w.} w.%.q.2.dXeXeXeXeX<X<XeX7XeX<X<X,X<X<X&X&X,X,X5  .` ..) ` ) ) ` ) ..Q ..e.w.w.w.w.w.w.w.+.w.+.w.w.w.w.w.w.w.w.w.w.w._ _ ` ..q.q.q.t.i.t.r.q.q.q.q.q.q.q.q.r.q.e.r.t.q.q.q.r.t.w.r.e.y.r.y.r.r.y.y.r.r.y.y.y.y.y.+.y.y.y.y.y.y.y.y.y.D.y.D.y.y.D.P.J.U.U.P.CXLXUXUXUXUXUXUXUXUXUXUXUXUXUXUXUXUXUXUXUXUXUXUXIXIXKXAXlXjXhXiXjXhXjXuXuXjXhXhXjXjXjXjXhXrXhXrXeX<XeXeXhXP.t.S.+...4.t...j &XZ.%X%Xf.f.%X%X%X%X%XW &XsX1X0.L.1XdX8XsXsX9X4.L.A.L.9Xp.t.p.L.t.p.L.p.t.y.t.L.t.t.P.p.t.4.4.p.S.S.P.U.U.U.U.K.K.!.I.rXkXZXZXCXSXCXSXSXSXSXJX<X8XDXSXSXSXJX8.8.Z.9.I JXSXSXDX8.3.8.@X#X,X7XsXsXMXMXSXJXSXSXJXSXSXBXBXNXsXNXMXCXsXfXsXMXNXNXdXdXdXdXsXfXdXkXfXfXfXCXCXNXCXhXfXfXfXrXrX1X1XI.1XL.P.U.U.U.U.dXCXkXZXZXC.fXrXhXhXpXhXhXdXuXdXrXdX+.+.+.e.e.e.e.w.+.w.] y.+.+.+.D.U.J.K.K.K.K.K.K.K.K.K.~ E.yXyXyX~.yXyXyXyXyXyXiXyXyXyXyXyXiXyXiXiXyXyXyXiXyXiXyXyXyXyXyXiXyXiXyXiXiXiXyXiXyXyXiXiXiXiXjXjXlXZXZXZXZXZXDXDXDXDXDXDXZXDXZXDXDXDXDXDXDXDXDXDXDXDXDXFXDXDXFXFXFXLXIXUXIXIXIXIXLXJXJXJXJXJXKX",
"I P j I I U I U I I I I I P I P Y /._.`.m c z x c z c k z z z c z z k k ; PX= ~.c.c.V.g.$ j.3.C.I.ZX..# | 4 W.c.c.W.j.@ Q.b.b.m.~.6 8 >X,Xj.T.c.N.c.N.c.V.h Q.kX3.  &XUXPX; ; k x ; o o @ # 3 3 # 3 1.9 ; BXg Q.N.c.N.c.c.c.N.c.N.c.N.N.N.W.4  .@ JX- T.N.b.V.h.O | W.h.b.~.8 ( e :XC.j.N.c.N.c.c.N.c.c.N.c.N.c.W.8 Q e ; z z c z c c c k z z c c m ^.'././.T 1.5.3.3.5.8.0.0.4.0.S.A.L.0.:Xp.:X:X>X:X>XL.>X>X} w.e.:.w.} w.w.w.O.q.O...dX1XeX9XpXeXeX8X<X<XeX<X<X<X<X,X,X&X,X5  . .` ` ~ ..) ` ` ) Q ` r.+.w.w.w.+.w.w.w.w.w.w.e.w.w.w.w.w.w.q.w.} ' 2.2.$.) ( Q Q Q ^ ( ' 2.q.q.q.u.r.q.i.q.e.q.e.q.q.t.r.q.e.t.r.r.y.r.y.y.y.y.y.a.y.r.y.y.y.y.y.y.y.y.y.y.y.y.y.y.D.a.D.D.P.P.J.J.1XL.ZXIXUXUXUXUXUXUXUXUXUXUXUXUXUXUXUXUXUXUXUXUXUXUXIXLXKXZXZXjXjXjXjXiXhXlXlXlXhXtXhXhXeXeXdXpXhXkXZXZXDXZXZXI.t.D.t.+.t...4.i I.%XZ.%X%X%X%XoXf.oX%XU &XdX7X4.4.1XdXsXsXdXfXL.0.0.L.fXp.A.t.4.t.t.p.a.P.p.t.t.L.L.p.L.p.fXkXNXrX1XU.U.U.!.K.U.!.!.I.rXkXSXSXSXDXDXSXDXSXSXDX<XpXFXSXSXCXJXBXU 3.U MXSXSXCXsXSXIXKXJXSXHXSXNXCXCXNXNXmXmXBXBXNXNXSXNXNXNXsXNXfXfXNXfXNXdXNXdXNXNXNXCXCXfXfXfXdXdX1X,X,XI.L.I.L.L.L.L.I.P.P.U.U.I.I.L.L.hXlXCXCXZX<XI.fXdXhXrXtXrXrXhXhXrXrXfX4.e.y.e.+.e.e.+.+.+.[ e.o.+.D.U.U.J.U.K.H.R.K.K.!.R.K.| !.yXyXyXyXyXyXyXyXyXyXyXyXiXyXiXyXiXyXyXyXyXyXyXyXyXyXyXiXiXiXyXiXyXyXiXiXyXiXiXyXiXyXiXiXiXjXjXjXlXZXZXZXDXDXZXZXDXDXDXDXDXDXDXZXDXZXDXDXDXDXDXDXDXFXDXDXDXFXFXDXFXLXIXIXUXPXUXLXPXJXJXLXJXJXPX",
"I j i I I j I I j I i j P S P F /.(._._.m z c x z z z z z z z z c z z ; < PX= ~.n.c.W.| C.I.| 4. .# 6 ( 3 G.N.c.c.c.T.~.~.o V.v.E.U.3 Q 1X| W.c.N.N.N.c.N.m.| - C.ZXC.X f X l x k l ; S @.G @.G ( 1.C 9 : GXg E.N.c.N.c.N.N.N.c.c.N.N.N.B.~.3 ( :XsXg W.c.c.c.V.~.iX7 j.W.m.rX3 i 1X4.C.B.c.c.N.N.N.N.c.c.c.c.N.R.~ ^ w , z k z c z z z z k x c c m m _._.`.).R U 5.5.4.3.0.0.0.A.4.0.L.L.0.L.L.p.L.:XL.:X:X>Xq.w.:.r.r.} w.w.:.w.q.O...9X1XeXeX<XeX<XeXeX<XeX<X<X<X,X&X&X,X,X7 1.` ` ) ) ) ` ` ` ..Q ) e.e.w.w.w.w.w.w.w.O.w.w.w.w.w.w.w.w.w.w.q.%.) 4.4.0.0.A.L.p.p.p.4.2.1.) ( ( ( ~ ^ ' 2.q.q.t.a.a.t.a.a.a.t.e.r.y.y.y.y.a.y.y.y.y.y.y.a.y.y.y.y.y.y.y.y.y.y.D.y.D.D.D.D.D.D.J.U.U.I.CXIXUXUXUXUXUXUXUXUXUXUXUXUXUXUXUXUXUXUXUXUXUXUXIXLXFXAXZXlXlXlXhXhXhXhXtXhXeXhXkXZXDXDXDXDXDXSXFXFXDXCXDXP.t.S.t.+.O.t...i ,X%Xf.%Xf.f.%Xf.%X%X%XU %XdXpX0.L.,XdXmXmX8XfXdXL.L.:XfX,XL.1X>X1X1Xt.t.p.4.dXCXkX:X4.L.A.NXCXkXrXI.U.U.U.U.I.U.!.!.1XkXCXCXSXSXDXDXSXDXSXSXFX<XpXFXCXSXCXNXSXJXmXJXSXSXNXSXCXSXNXSXBXSXBXSXNXNXNXNXCXNXNXNXSXMXMXNXsXNXNXNXCXfXNXNXCXdXNXdXrXrX1X1XL.I.L.L.L.L.L.L.:XP.L.P.I.P.I.I.L.L.L.L.1X1XrXdXrXkXlXCXZXkXZXA.hXhXrXhXrXhXdXuXdXdXuXuXhX+.+.e.e.e.e.+.e.w.+.[ o.e.D.J.G.K.K.R.K.K.K.R.K.K.K.R.~ ~.~.yXyX~.yXyXyXyXyXyXyXyXyXyXyXiXyXyXyXiXyXiXyXiXiXiXyXiXyXyXyXyXyXiXyXiXyXiXiXyXyXyXyXiXiXtXjXlXZXZXZXZXDXDXZXZXDXDXDXDXZXZXDXDXZXZXDXZXDXDXDXDXDXDXDXFXDXDXDXFXKXLXIXIXIXIXUXIXPXJXJXLXLXLXPX",
"I I U I U I I j j I I I I P P Y (._.`.m c z z z z k k z z z c c z z k k l PX- W.n.c.W.j.F.h 8 8 ~ i  .U.4 ~.c.c.c.c.V.j.g T.b.v.h Q.| 6 L.8 E.N.c.N.N.c.c.n.W.Q.j.7 j.eXA.P ; l l k k , , , , 9 9 , , , ; AXg Q.N.c.c.c.c.c.c.c.N.c.c.N.h Q.6 ( SX- W.c.N.c.c.N.l.7 k.W.v.j.F.| 8 2.| l.n.c.c.c.N.N.N.c.N.N.V.| l.| ( w ; x k z c z z k z z z k c m m ^.`./.).R 1.3.1.8.0.8.0.0.4.0.0.A.0.:X:X:X:X:X>XL.p.P.P.q.w.w.w.r.[ w.} q.O.q.2.2.dXeX<XeXeX8XeX<X<X<X7X<X<X<X&X<X<X&X,X5  .....` ) ..~ ) )  .~ _ e.q.+.w.w.+.w.w.w.e.w.w.w.w.w.w.w.w.q.q.e.2.4.:XA.8.0.3.3.5.4.3.4.0.0.p.0.p.p.0.4.4.4.2.6.2.2.2.2.2.2.2.u.t.p.a.y.a.y.a.y.y.a.y.y.y.D.y.y.y.y.y.D.y.y.D.y.y.D.y.D.y.D.D.P.J.U.U.I.CXIXUXUXUXUXUXUXUXUXUXUXUXUXUXUXUXUXUXUXUXUXUXPXIXLXKXkXZXZXgXhXhXkXZXDXZXDXFXDXDXFXFXFXFXKXKXKXLXKXFXSXFXI.t.y.t.+.4.O.4.h 0XZ.oX%X%XoX%X%X%XoX%XU &XsX1Xp.4.1XmXsXsXsXsXsXSXNXsXsXfXfXdXdXfXdX4.L.t.4.9XfXCXkXA.0.dXfXkXCXkXhXrX1XI.I.rXU.I.I.rXDXCXDXDXSXDXSXDXSXSXSXDX<X8XFXCXSXSXCXSXSXSXSXCXNXSXAXNXSXSXSXSXBXNXNXNXNXNXSXNXNXfXNXNXNXfXNXfXfXdXdX1X,X1X:X:XL.L.A.L.L.A.L.L.L.L.L.L.L.L.P.L.:XP.L.1X1X1XdXfXkXCXNXkXSXCXZXCXkXCXZXZXDX<X,XkXhXeXhXdXhXuXhXrXhXhXrXhXO.y.+.e.+.+.w.+.w.+.] +.y.U.J.K.K.K.K.H.H.R.R.K.R.K.R.| !.yXyXyXyXyXyXyXyXyXyXyXyXyXyXyXyXyXyXyXyXyXyXyXyXyXyXiXyXyXiXiXyXiXyXyXiXiXiXiXiXiXiXyXiXiXjXlXZXZXZXDXZXZXZXZXDXDXZXZXDXDXDXDXZXDXDXDXDXDXDXDXDXDXFXDXFXDXFXDXDXFXLXIXIXIXIXIXLXPXPXLXPXLXPXIX",
"U 8.9.3.E 3.3.U 3.1.I I U I T /._._.^.c c k c c z k k z z z z c c c z ; v IX= E.n.m.~.j.C.j Q ( r % vXC.j.v.c.c.N.c.c.c.n.n.m.M.l.g rX@  .4.| W.N.c.c.N.c.c.N.V.T.uXh g lXU & ; k z k k ; l l l l ; l ; ; VXs T.b.c.c.N.c.c.c.N.c.c.c.W.h I.4  .I.h W.c.c.c.N.c.c.v.b.n.B.E.$ 1X6  .8 F.N.c.c.c.N.c.c.c.c.c.~.h T.| Q t ; l c z c c z k z z z z z m c ^.`._./.W E 3.3.0.3.0.0.0.0.L.A.p.#X:XL.:X:X:X:X>X:XL.>Xq.w.w.w.w.[ w.O.w.w.O.2...dXeXeXeX1XeX<X<X<XeXeX7X<X<X<X&X&X,X,X8 1.` ) ` ) ` ) ) ) ` ~ _ t.w.w.w.O.e.e.w.w.w.w.w.+.w.w.w.O.w.w.q.q.2.4.,X,X=X&X-X#X#XA.A.A.8.3.3.5.4.3.0.0.0.#X0.:XNXNX9X9X9X,X:Xp.p.0.4.2.4.t.4.t.a.a.D.P.a.P.y.D.y.y.y.D.y.D.y.y.D.y.y.D.D.D.P.J.P.U.U.I.CXLXUXUXUXUXUXUXUXUXUXUXUXUXUXUXUXUXUXUXUXUXUXUXIXIXDXSXDXZXZXDXDXFXFXFXFXFXKXFXFXKXKXFXLXKXLXJXKXJXKXJXDX,Xt.D.+.+.4.t.4.h <X+XZ.%X%X%X%XoX%X%X%Xf.&XdX9X4.0.1XdXsXsXMXMXsXfXmXdXmXMXsXfXfXsXdX4.p.L.p.dXfXCXfXfXdXCXCXCXSXCXCXkXkXdXhXrXrXdXhXkXCXDXJXFXJXSXDXDXDXSXSXKX<X8XSXNXAXSXSXSXSXSXNXCXCXCXCXCXNXSXNXSXSXCXNXCXNXNXNXfXfXdXdX1X1X,XI.L.L.L.L.L.L.L.L.L.L.p.P.L.L.L.L.A.L.L.I.:X,X1X1XdXdXfXfXfXkXCXCXCXCXCXCXCXSXCXDXSXZXDXDXDXkXC.fXdXhXhXhXrXhXhXhXhXrXfXrXkX+.y.y.e.y.e.+.e.+.+.[ y.U.J.K.K.H.K.H.R.K.R.R.K.K.R.U.| E.uXyXyXyXyXyX~.yXyXyXyXyXyXyXyXiXyXyXyXyXyXyXyXiXyXyXiXyXiXyXyXiXyXiXyXiXiXiXiXiXyXiXiXiXiXjXlXZXZXDXZXZXZXDXZXDXZXDXZXDXDXZXZXZXDXDXDXDXDXZXDXDXDXDXDXDXDXDXFXDXFXLXIXIXIXIXIXUXIXIXIXIXIXIXIX",
"8.9.3.3.8.3.R 3.3.I U U I I Y (._.`.^.c c z c c k z z z z z c c m c z k ; IX$ !.m.W.!.j.C.( Q r % 5.IXo ~.c.c.c.N.c.c.c.M.c.m.W.~.g rX~ 6 P.h S.W.b.c.c.N.N.W.W.~.| 7 jX .# K ; k z x k k k z x k x c k ; PXg Q.c.c.N.c.c.c.N.c.c.B.W.~.g I.7 i @ ~.B.c.c.N.c.N.M.c.N.b.T.yXj I.4.4 7 F.N.c.N.c.c.c.N.c.V.W.~.h F.h ^ 9 l x x x c k k z z z z c x c z m _._.(.D F u P i I 1.I 1.3.3.4.3.0.0.0.A.A.L.L.L.L.>XP.' w.w.:.r.[ w.w.} %.....2.rXeX7XeXpX<XpXpX7X<X<X<X<X,X<X<X&X&X,X5  . ...) ` ) ` ` ) ..( _ r.O.w.e.e.w.w.w.w.+.e.w.w.w.w.w.w.w.w.q.e.2.6.7X&X-X-X;X;X7X-X-X7X-X7X2X-X,X#X@XA.8.8.8.7XMXmX9XmXsXNXSXNXNXNXNXfXfX9X1XI.L.L.p.t.t.t.t.y.D.a.y.y.y.y.y.y.D.D.D.D.y.D.D.D.J.U.U.L.ZXIXUXUXUXUXUXUXUXUXUXUXUXUXUXUXUXUXUXUXUXUXUXUXUXLXHXKXFXFXFXFXKXKXLXKXKXKXKXKXKXKXKXKXLXKXKXLXKXJXJXSXSXU.S.S.S.4.+.t.| i <X%X%X+X%X%X%Xf.%X%X%XU ;XdXdX4.L.9XfXmXMXaXsXMXsXMXMXNXMXsXNXdXMXNXA.p.L.4.fXNXCXCXCXNXDXSXSXDXZXSXSXZXZXZXCXCXZXZXDXSXDXAXDXSXDXDXSXSXSXSXDX<XpXFXCXSXCXCXCXNXCXSXSXSXCXCXCXCXNXNXfXdX9X1X1X,X:XL.A.p.A.0.S.p.p.p.t.L.L.L.p.p.t.p.L.L.L.L.:X1X1XrXdXfXfXNXkXCXfXfXkXkXfXkXNXNXCXZXZXCXFXDXSXSXCXhXsXeX<X&XI.A.dXrXkXhXrXhXhXhXrXhXrXhXhXrXhXO.y.y.+.e.+.e.+.+.e.] D.J.K.K.H.R.G.K.K.R.K.K.R.R.R.R.| ~.~.yXyXyXyXyXyX~.yXyXyXiXyXyXyXyXyXyXiXyXyXyXyXyXyXyXyXyXiXiXyXyXiXyXyXiXyXiXiXiXiXyXiXiXjXlXZXZXDXDXZXDXZXZXDXZXDXZXDXZXDXZXDXDXZXDXZXDXDXDXDXDXDXDXDXDXDXDXDXDXFXJXLXIXUXUXPXIXUXUXIXIXIXIXUX",
"8.3.8.3.3.U I 3.U U 3.U I T ).`.`._.c m m c z z z z z z z z c c z z z k l PX- yX| 7 7 @ I. .~ t O PXj I.E.c.c.n.c.N.n.n.c.W.g $ - 7 h hX3 6 NX8 | ~.V.b.N.l.h g - j.lX3.# @., l z z k z k k z z x z z k ; nXg Q.m.n.c.N.n.n.n.n.W.* 7 # 7 uX3 h | ~.v.V.c.n.N.c.n.B.m.g.$ $ 7 | !.7 # F.V.c.b.n.M.B.N.N.$ 7 7 7 Q.~ ^ w l c k z x k z k k c c c c c x c ^.'._./.T G I  .i I I 1.1.I  .I 1.I  .1. .1. .1.) ( .._ w.w.w.r.} w.w.q.O.q...4.9XeXeXeXeX7XeX<XeX<X<X<X,X<X,X&X,X&X,X5 2.` ` ` ) ) ` ` ` ` ( _ e.w.w.w.w.w.w.e.w.w.w.w.w.w.w.+.w.q.w.w.q.2.0.2X-X-X&X&X-X;X-X;X-X;X&X7X-X&X;X7X7X8X-XMXSXGXBXnXVXnXnXnXaXmXMXMXNXSXNXNXCXNXNXNXNXfX9X1XP.t.D.D.y.y.D.y.y.y.a.D.D.D.D.D.P.J.J.1XI.CXIXUXUXUXUXUXUXUXUXUXUXUXUXUXUXUXUXUXUXUXUXUXUXUXLXAXKXLXLXLXLXLXIXLXLXKXLXKXLXKXKXKXKXKXKXKXFXKXFXJXFXDX1Xt.D.t.4.O.O...h ,XZ.%X%XZ.%Xf.%X%X%X%Xf.&XMXdX4.p.1XfXMXmXMXMXsXMXNXMXBXMXfXMXNXfXCX1XA.L.A.NXCXNXCXCXSXCXDXSXSXSXSXDXSXDXCXDXZXZXZXSXDXSXSXDXDXDXDXDXCXDXSXDX<XaXKXCXDXSXSXSXCXCXCXfXdX1X1X1XL.L.0.S.S.0.A.0.S.p.L.L.L.L.L.L.p.S.A.t.L.L.L.,X1XdXdXdXfXCXCXCXCXNXNXNXNXNXfXfXfXCXCXCXCXSXSXSXCXfXpXpX<X,X,XA.A.A.A.I.<XeXpXpXhXhXfXrXhXhXhXrXhXrXhXhXuXuXuXrXO.e.y.e.+.+.+.e.+.+.~ D.J.K.R.K.G.R.K.R.K.R.R.K.R.K.R.~ !.yXyX~.yXyXyXyXyXyXyXyXyXyXiXyXyXyXyXyXiXyXiXyXyXiXiXiXyXyXyXiXiXyXyXiXyXiXiXiXiXiXiXjXiXjXlXlXZXDXZXZXDXDXZXDXDXZXDXZXDXZXDXDXZXDXDXDXDXDXDXDXDXDXDXDXDXDXDXDXDXFXLXIXIXIXIXPXUXUXIXIXPXUXPXUX",
"8.8.3.E 8.3.3.U 3.I I I T )./._.`.m m c c c c k k z z z z z z c c x z k ; X - dXrXuXrXuXhX8 ^ w , X & ZXT.H.T.m.m.n.z.m.T.H.uXrXrXuX!.rX~ 6 ( SX4.- E.~.W.T.F.Q.lXeX# 3 @.9 , l k z z k k z c z z z x z k X o hXT.m.m.c.z.R.z.H.K.uXhXrXhXrX3 # 1XQ.H.l.H.z.m.M.R.z.H.!.uXuXuXrXrX| o F.R.T.z.H.R.z.m.T.rXrXrXhXrX8 r C ; z z z c z k z z c c c c x x c m `.`./.Y I I j 3.1.3.5.6.3.3.4.0.0.0.0.0.p.0.p.0.0.p...w.:.:.r.} } q.} q.O...2.dX,X1XeXeXeXeX7X<XeXeX7X&X,X<X&X&XI.,X7 )  .` ) ) ) ..~ ) ) ~ ` t.w.w.e.+.w.w.e.w.O.e.w.O.w.w.w.w.w.w.q.w.2.4.,X:X-X;X-X&X;X;X&X;X&X-X-X-X-X<X7X-X-XaXHXHXVXGXHXHXHXHXHXAXHXAXMXMXSXmXMXNXMXsXmXNXNXNXNXP.t.P.y.D.D.y.y.D.y.D.y.y.D.P.D.P.J.U.!.L.ZXLXIXUXUXUXUXUXUXUXUXUXUXUXUXUXUXUXUXUXUXUXUXUXUXLXJXKXLXLXLXLXLXIXLXLXLXKXLXKXLXKXKXKXKXKXKXKXFXFXFXJXSXI.S.D.t.+.t.t.4.i <X%X%X%X%X%XoX%X%XoX%XU %XMX1X4.0.1XfXsXMXMXMXMXMXMXMXMXMXMXNXdXMXMXCXA.4.2XSXNXNXCXCXCXSXSXCXDXCXSXSXZXCXDXCXCXSXSXDXSXDXCXSXCXSXSXDXDXSXFXJX,X,XCXfX<X1X,X,XL.L.0.S.A.t.t.L.L.L.L.L.L.S.t.S.L.4.4.4.S.L.L.P.1XdXfXfXNXCXCXCXNXNXNXfXfXNXCXNXNXCXNXSXDXSXFXSXCXfXpX&XC.A.A.3.C.A.A.I.<XeXeXrXhXhXhXkXkXdXlXhXdXhXrXfXrXhXuXhXhXhXuXhXhXhXhXhX+.y.y.y.+.e.y.+.e.e.X.J.J.K.R.K.R.H.K.R.R.K.R.K.R.R.R.| !.yXyXyXyXyXyXyXyXyXyXyXyXyXyXyXyXyXyXiXyXyXyXyXyXiXyXyXyXiXiXyXiXyXiXyXiXiXiXiXiXiXiXiXjXlXlXZXZXDXZXDXZXZXDXZXZXDXZXDXZXDXDXZXDXZXZXDXDXZXDXDXDXZXDXDXDXDXDXDXDXFXJXLXLXIXIXIXIXPXUXUXIXIXIXIX",
"Z.9.U 3.U 3.U 3.U U U P Y ).(.`.^.m m c c c k z z z c z z z z z k k x z l ; ; . @ 3 3 3 3 6 #.t , l O o 3 3 3 3 3 3 3 3 6 3 3 3 # 3 3 3 Q Q ^ 4 :X-Xo #  .C.4.( 3 3 @.@.N , k k k c c c x x z z k k x z k l ; . @ 3 3 3 3 3 3 3 3 # 3 # # # q e # 3 3 3 3 3 6 3 3 3 3 3 3 3 3 3 3 6 5 3 4 3 3 3 3 3 3 3 3 3 3 3 3 6 #.B ; x k k z z z z z z z c z z z m m ^.`.^./.J I I I  .I 1.3.1.3.3.3.6.3.4.4.0.4.4.0.2.t...O.:.:.r.} O.:.O.q.2.....dXeX,XpX<XpX<X<X7XeX<X<X<X,X&X<X&X&X,X8  ...` ` ` ) ` ` ` ..~ ~ e.w.w.w.w.+.w.w.w.O.w.w.w.w.w.q.q.q.e.w.q.2.4.7X<X&X&X;X;X;X-X-X-X-X-X;X;X-X;X;X;X%XHXGXGXGXHXGXGXHXHXHXGXJXJXLXIXLXBXAXSXSXSXSXNXNXNXNX1Xt.D.D.y.a.y.D.D.y.D.D.D.D.D.D.D.J.U.U.L.ZXLXUXUXUXUXUXUXUXUXUXUXUXUXUXUXUXUXUXUXUXUXUXUXUXJXJXKXJXLXPXKXPXIXLXLXKXKXLXLXKXKXKXKXKXKXKXFXKXKXFXFXDX1Xt.S.S.+.+.t.t.( <X%X%XZ.%X%X+X%Xf.%X%XU ;XdX1X0.4.9XfXsXsXMXMXMXMXMXNXMXNXfXMXCXsXSXNXSXNXSXSXSXNXSXCXCXDXZXCXCXSXCXZXDXDXZXCXDXDXFXKXDXSXSXSXSXCXfXdX1X1XL.L.L.L.0.t.L.S.L.L.L.L.L.L.L.L.A.p.p.4.A.t.L.:X,X1XdXdXNXNXCXCXCXCXNXfXNXNXfXCXNXNXNXCXSXKXSXSXSXNXsX,X&XA.3.3.3.3.Z.Z.A.<XeXsXeXfXdXdXpXkXhXdXdXeXeXhXhXrXrXtXhXhXrXhXlXhXhXrXhXuXhXuXuXjXhXhXuXhXO.y.y.y.+.+.+.y.+.y.! U.K.H.H.K.K.R.K.R.R.R.R.R.R.!.E.~ E.yXyXyXyXyXyXyXyXyXyXyXyXyXyXyXyXyXyXyXiXyXyXiXyXyXyXiXiXyXyXyXiXyXiXyXiXyXiXiXiXiXjXjXjXlXZXZXZXZXDXZXDXZXZXZXZXDXZXDXZXZXZXDXDXZXDXDXDXDXZXDXDXDXDXDXDXDXDXDXDXFXLXLXLXPXPXIXPXIXIXUXPXIXIXUX",
"8.A.9.Z.8.7.Z.U U U U W ).(._._.m m m x c z k z z z z z z z z z c z z k c k ; n F J G G G G @.9 ; ; ; N K G K G @.@.@.@.G t @.G @.@.G @.@.G @.C O ; b A 0 i 5 @.@.@.t 4 ; k x k x c x x c z z z z z z x x ; x , B G G G G @.G G G 1.i G @.G G G 9 G G C @.G G @.@.@.@.G G G @.@.G @.@.G G @.@.@.@.@.C @.@.@.G @.G @.@.B l k k x z z z z z z z z z z m x m ^.'._./.T 3.U 3.3.3.8.0.0.4.0.0.0.0.0.A.0.0.p.p.p.p.$.w.w.w.r.} } } q.} ....2.9X<XeX<XpX1X<XpX<X<X<X<X<X<X<X&X,X&X,X5  . .` ) ..~ ) ) ) ` ( _ e.+.w.w.w.w.e.w.e.w.e.w.O.w.w.w.e.w.w.w.r...0.,X-X-X;X-X&X&X;X-X&X;X&X-X-X;X7XqX;XVXHXGXGXVXHXVXHXHXVXHXGXPXHXJXJXJXAXBXBXSXSXBXBXBXNXNX>Xt.P.a.D.y.D.y.y.y.D.y.y.D.D.P.P.J.U.1XI.CXIXUXUXUXUXUXUXUXUXUXUXUXUXUXUXUXUXUXUXIXUXIXUXUXDXFXKXLXLXLXLXLXLXLXLXLXLXKXLXKXLXLXKXKXKXKXKXFXKXJXFXDX,XS.D.+.t.t.q.4.i ,X%X%X%X%X%X%X%X%X%X%Xf.&XMXdX0.p.1XfXNXmXMXNXMXfXMXMXCXMXNXNXNXCXNXNXCXSXSXNXNXSXCXSXCXCXCXDXDXDXDXDXDXDXFXZXCXfXdX1X,X:XS.A.S.0.t.0.0.0.L.L.L.L.L.L.p.A.4.p.0.0.p.L.L.:X,X9XdXNXCXSXSXSXSXCXNXNXNXNXCXCXCXSXSXDXKXFXCXNXNXsX<X&XA.3.3.U 3.3.Z.A.#X<XpXsXaXsXdXeXdXpXpXpXdXpXpXdXdXpXpXdXdXhXdXrXeXhXhXdXdXhXhXhXdXhXjXhXjXhXhXhXhXhXuXuXhXiXO.+.e.+.y.+.+.y.+.y.[ J.R.R.T.R.K.R.R.R.K.R.R.K.R.K.R.| ~.yXyXyXyX~.yXyXyXyXyXyXyXyXyXyXyXyXyXyXyXyXyXyXiXyXyXyXyXyXyXiXyXiXyXiXyXiXiXiXiXiXjXjXlXlXZXZXDXZXZXZXZXZXZXDXZXZXZXDXDXDXDXZXDXDXZXDXZXZXDXDXDXZXDXDXDXDXDXDXDXFXJXJXLXPXPXIXIXLXJXHXJXHXJXHX",
"P S &XZ.@XA.Z.Z.3.9.W ).).(.`.^.c x z z z z k z c c z z z z z z z k z x x x l k l , , , , , l v l l l ; v ; , , , , , , , v , , ; , , , , , , ; ; l x ; < , 9 v , , l l l l k k k c z c z c z z z z x z x x x x l l , , v , , , , , , ; ; , v , ; l v , l ; , ; , l , ; , , , ; , ; , v ; , v , ; , ; ; v ; v ; , v v l k k z k z z z z z z k z z c x c c m _.`./.T T 1.1.3.4.5.0.3.4.0.0.0.p.:XA.:X XL.:XL.>X' :.O.w.w.} } q.O...q.....rX,XeXeXeX8X7XeXeX<X<X<X<X&X,X&X&X,X,X8 1.` ) `  .~ ` _ ) ` ( ~ r.q.+.w.w.w.w.w.w.w.O.e.w.w.q.w.q.e.w.w.r.2.4.<X-X&X;X&X-X;X-X;X;X<XpX;XpX;X;X;X;XPXGXVXAXHXVXHXVXVXGXPXVXHXPXHXPXJXBXHXNXBXSXSXSXSXNXfXI.t.D.D.D.y.y.D.y.D.y.D.D.D.D.D.D.U.K.U.L.ZXLXUXUXUXUXUXUXUXUXUXUXUXUXUXUXUXUXUXIXIXUXUXUXIXHXKXKXKXLXLXLXLXJXJXLXKXLXKXLXLXLXKXLXLXLXKXLXKXKXLXSXDXU.t.D.t.t.t.t.4.j ,X%X%X%X%X%X%X%X%X%X%XW -XfXdXt.L.:XNXNXMXMXMXfXMXMXCXMXNXNXfXSXNXNXNXNXCXSXCXSXSXDXFXSXCXCXfXfXdX1X,XI.L.A.p.4.0.0.L.L.t.L.L.L.L.L.0.0.S.4.0.A.4.A.L.L.,X1XsXfXCXCXSXDXDXCXSXSXSXCXSXCXCXSXSXDXJXDXCXNXdXaXpX&XA.9.3.U 3.3.Z.A.#X&X<XeXaXsXpXpXpX8XeXaXpX7X,X<XpXdXeXeXsXeXdXpXeXeXeXdXeXeXdXdXhXhXdXtXhXuXhXhXhXhXjXtXlXhXhXhXhXhXjXhXjXuXhXX.e.y.y.+.+.+.e.+.y.~ K.K.R.K.R.R.R.R.K.R.K.R.!.R.R.K.| E.yXyX~.yXyX~.yX~.yXyXyXyXyXyXyXyXyXyXiXyXyXyXyXiXyXiXyXyXiXyXiXyXiXiXyXyXiXiXyXiXjXjXlXlXlXZXZXZXDXZXZXZXZXDXZXDXZXDXZXDXZXDXZXDXDXDXDXDXDXDXDXDXDXDXDXDXDXFXDXDXFXLXJXPXHXLXIXIXPXIXLXPXLXLXLX",
"aXZ.u P j j I P j P P /._._.`.c c k z z k c z z c z z z z z c x z k z m m c c x x l ; l k k l z k k x x k l l ; k l k k l x k k l k l k l k k z k k c c l ; ; k ; k l z k x x k z c z z c z z z k z z z z z m x k l l k k l z l k x l l l l l l l l l l l ; l l x k l l l k k k ; l k k ; l k l l l l l ; k l x x l l k k x c k z z z z z z k k z z m c x c ^.'././.T U 3.1.8.3.3.0.4.0.4.A.A.p.0.p.A.p.0.p.P...:.w.w.e.} } O.%.q.O.2.2.dX<X,XeX<XeX<X<X<X<X<X<X<X,X<X<X&X&X,X5  .) ..` ` ` `  .` ) _ _ t.e.w.w.e.+.w.w.e.w.w.w.w.e.w.w.+.w.q.e.q...0.7X&X-X-X-XqX&X;X<X;X;X<X;X;X;X;XqXGXVXVXGXHXGXHXHXPXPXPXHXGXJXLXPXIXJXAXSXSXSXSXBXSXNXNXfX1XP.P.y.D.y.D.y.D.y.D.y.D.P.D.D.P.J.K.1XI.ZXLXIXUXUXUXUXUXUXUXUXUXUXUXUXUXUXUXUXUXPXIXUXUXUXAXKXLXLXLXLXJXKXFXKXLXLXLXLXLXLXLXLXLXLXLXLXLXLXLXKXFXDX1XS.D.S.+.+.O.4.i <XZ.%X%X%X%X%X%X%X%X%XU <XNXpX4.L.L.fXNXNXkXMXMXkXMXkXNXNXNXCXCXNXNXNXNXfXdXsXrX,X1X:XL.A.L.A.0.p.p.A.L.L.L.L.L.L.L.t.A.L.A.S.A.L.L.,X1X1XdXfXfXNXCXCXDXFXSXDXSXSXSXSXCXSXDXSXCXCXNXfXaXpX7X,X#XZ.8.Z.8.8.Z.A.$X<X<X<XpX8XpX<XeX8XpXpX<X<X<X<X<X<X7XeX<XpXeXpXeXeXeXpXpXtXpXeXeXhXhXpXtXdXhXrXtXdXdXhXhXhXrXhXrXhXhXhXhXhXuXhXhXuXjXhXjXhXuXhXO.+.y.y.y.+.y.+.+.y.~ G.K.R.R.K.!.R.!.K.!.!.R.R.E.R.K.| !.uXyXyXyXyXyXyXyXyXyXyXyXyXyXyXyXyXyXyXyXyXyXiXyXyXiXyXyXiXyXyXiXyXiXyXiXyXiXiXiXiXjXlXlXZXZXZXZXZXZXDXDXZXZXZXZXDXZXZXDXDXZXDXZXDXDXZXZXDXDXZXDXDXDXDXDXDXDXDXDXFXJXLXJXJXPXIXPXPXIXPXLXPXPXPX",
"7XnX9.g I P j S j A M M _.`.^.k z k z z z z c z c z z k z z c c k x z z c c x x z x k k k k x x k k k z x x c k k ; z x c k k k c k x z z c k z k k k z x k k k k k k z z c c z z z z k z z z x k z k z k z c c k k k k k k x x c c k k k k k k z z z x k k k k z c k x k k x z k z k z k k k z z k k k z k x z z z z x z z k k l k k x z z z z z z z z z m ^._._./.).R 1.3.3.3.8.4.8.4.p.0.A.A.p.0.0.L.:XL.p.q.w.w.:.r.} } %.O.} 2...2.dX<X<XeXeX<XeXpX<X-XeX<X<X<X<X<X&X&X,X5  .2.` ` ) ~ ) ` ` ..~ _ r.w.w.e.+.w.w.e.w.+.w.w.w.w.e.w.w.w.+.w.q.2.4.7X&X&X;X;X;X&X;X;X-X;X;X;XpX;X;XpXHXGXGXPXHXHXHXHXVXHXHXHXVXPXJXPXPXJXBXSXSXBXSXSXSXSXBXCX1Xt.D.y.D.D.y.D.y.D.D.D.y.D.P.D.D.U.J.U.I.CXJXUXUXUXUXUXUXUXUXUXUXUXUXUXUXUXUXUXUXUXUXUXUXIXDXKXLXLXLXLXLXLXLXJXLXLXIXLXLXLXJXLXLXLXLXJXLXKXLXJXDXDXI.t.P.y.t.t.t.4.h ,X%X%X%X0X%X%X%X%X%X0Xf.%XNXsX4.L.0.1XNXNXNXfXkXNXNXNXfXfXfX9X1X1X:X:XL.t.L.L.L.L.t.L.L.L.L.L.L.L.L.0.A.t.A.A.p.A.L.L.<X,XeXdXdXCXCXSXSXSXSXSXDXSXSXDXFXDXFXFXKXDXFXSXMX7XpX&X%XA.Z.8.Z.Z.Z.#X&X$X&X7X<XqX;X<X<XpX7XqX<XeX&X<XeXqX<XqX<X<XpXpX7X7XeXeX<XpX<XpXdXeXeXhXpXeXhXpXdXdXrXpXtXdXtXrXrXhXtXdXhXhXfXhXhXhXhXhXjXhXjXhXhXhXjXhXkXhXkXfX+.+.y.y.+.y.+.+.y.+.[ K.R.K.F.~.uXj.| j.~.!.!.U.Q.!.!.| uXuXiXjXiXyXyXyX~.yXyXyXyXyXyXyXyXyXyXyXyXyXyXyXiXiXyXyXyXyXyXiXyXyXiXiXiXyXiXiXjXjXlXlXZXZXZXZXZXZXZXZXDXZXDXZXDXDXZXDXDXZXZXDXZXDXDXZXDXZXDXDXZXDXDXZXDXDXDXDXFXFXLXLXJXLXLXPXIXIXLXPXUXIXPXIX",
"nXnX;XA U I I j P Y ).(.`.`.c z k k k z z c c c z z z z k z x x z z k k z z k x x k k ; c k z x k x k x x x c z k k c c z k k k x c c z c z x z z k z z z x k x k k z z z c m c k ; k z z x x k z k z z x z c x k x k x z z z m c c z k x z z k x x m m x k k z c c c c z k c z z c z z z z z z z z z z z k k k c c c k k k l ; ; k l x x z k k c z c z z c m ^._./.K R I 7.5.3.3.0.0.0.A.0.0.p.L.0.p.#X0.p.P.2.w.w.} r.} O.O.2.O.2...1.rX<X<X8X<XeX<X<X<XeX;X<X&X,X&X<X&X,X,X7  .` ` ) ) ..` ` ) ` ~ _ t.w.w.w.w.w.w.w.w.w.w.e.w.w.w.w.q.e.w.q.e.2.0.7X-X-X;X&X-X<X<X;X;X-X7X;X;XqX;XHXVXPXGXVXVXVXHXVXHXHXHXJXAXPXLXJXIXJXAXHXSXSXSXBXSXBXBXNX1XD.P.D.a.D.D.y.D.y.a.D.D.P.D.D.P.K.U.1XI.CXLXIXUXUXUXUXUXUXUXUXUXUXUXUXUXUXUXUXUXUXUXUXUXIXHXKXLXKXLXLXLXLXLXLXJXLXLXLXLXLXFXJXLXLXKXKXKXJXKXKXSXDXI.D.D.D.t.+.+.4.i <X&X%X%X%X%X%X%X%X%X%Xf.oXNXCX0.L.L.4.S.1XdX1X,XL.L.A.p.0.0.4.p.S.L.S.L.L.L.S.L.t.L.4.t.4.4.p.A.S.L.L.1X9XdXdXCXkXDXFXDXFXDXSXDXDXFXKXKXKXFXDXFXDXDXsXpX&X&XZ.Z.U U U Z.Z.#XA.&X&XeXeXpXpXpX;XpXpXpXqX<XeX<X0XeX-X<XeXpX;XpXpXeX;XpXpXpXeXeX;XeXeX-XpXpXeXpXpX<XeXeXpXeXdXdXrXeXpXhXdXdXdXdXhXdXhXdXhXhXrXhXhXhXhXhXhXhXuXjXuXhXjXkXfXfXrX1X1XO.y.y.y.e.y.y.+.+.y.~ J.K.R.!.!.7 h l.| * uXU.!.uXuXuX7 7 - - j.jXjXiXiXyXyXyXiXyXyXyX~.yXyXiXyXyX~.yXiXiXyXyXyXyXyXyXyXyXiXiXiXyXiXiXiXiXjXlXZXZXZXZXZXDXZXDXZXZXDXZXDXZXZXZXZXZXDXDXZXDXZXZXDXDXDXDXDXDXDXDXDXDXDXFXDXFXFXJXPXHXPXJXIXIXIXPXUXIXIXIXIX",
"cXzX;XP 3.U U I U Y /.(.'.^.z z z z z z z z z z c x k x z x k k z k k k ; k k k k x x c z x m k k k k x l z c c z z x z z z k z k z c z x m x k x k k k k k x x x k x z c m c c k k x z c z x z x x z k k x k k k k x x z k c z z x x c k k z k k x x x k k k x k x c z z z c z z c c z z z z z z z z z k z k x c c z x k ; O S T ; k k z x z z x c c z k z m ^.`.(.).W 5.3.8.3.3.0.0.0.0.0.0.A.#Xp.L.p.A.L. X..O.:.:.w._ } 2.O.q.......dXeXeXeX-XeX<XeXeX<X&X<X<X<XI.&X&X,X,X6  ...`  .) ) ~ ` _ ` ~ _ e.q.+.w.+.w.w.e.q.w.w.w.w.w.w.w.w.w.e.q.e.2.0.<X<X&X-X-X;X;XeX;X&X;XpX;X;X;XGXGXGXVXPXVXPXGXHXHXJXHXHXVXGXIXPXJXJXJXAXSXSXSXSXSXSXSXNXNX1Xp.D.y.D.D.y.D.y.D.a.D.D.D.D.D.P.J.K.U.I.CXLXUXUXUXUXUXUXUXUXUXUXUXUXUXUXUXUXUXUXUXUXUXUXIXAXLXLXLXLXKXLXLXLXLXJXLXLXLXLXKXLXKXKXKXKXKXKXKXJXFXDXDXI.t.J.t.t.+.+.4.i <X%X%X%X%X%X%X%X%X%X%X%Xf.NXsXmX4.L.A.L.4.4.4.t.p.p.S.L.L.L.L.L.L.p.4.4.4.3.4.0.A.L.,X<XdXfXfXCXSXFXFXFXDXDXDXDXDXFXKXFXFXFXFXFXDXVXpX&X&X%XZ.U U U f.Z.A.&X&X&XqXpX;XpXpXqXpX<XqX&XqXeX;XqX&X&XpX;X&X<XqX<XqX;XeXpX;XeX;X;XqXeXpXqXeX;XeX<XeXqXpXeXpXeXeXeXpXpXdXhXeXpXeXeXpXdXtXpXdXdXrXdXdXdXdXdXhXhXfXhXhXjXhXhXjXhXjXkXlXlXhXI.P.:XL.L.P.} y.y.y.e.+.y.o.y.y.[ K.K.R.!.7 l.~.W.~.j.| jXC.7 - @ h ~.~.~.h a s.C.jXjXiXiXyXyXyXyXiXyXyXyXyXyXyXyXiXiXiXyXyXyXyXiXyXiXyXiXyXiXiXiXiXjXjXlXZXZXZXDXDXZXZXZXZXZXDXDXZXZXDXDXZXDXZXZXDXZXZXZXDXDXDXDXDXDXDXDXDXDXDXFXFXKXKXLXPXPXLXHXIXPXIXUXIXIXPXPXPX",
"zX7X-XU Z.8.8.U E )./.`.`.^.m z z z z z c z z z x z x x x k k k l l ; ; ; ; ; l k l x x c c x l l ; k ; l k x x x z x x k ; l l k k x k c z z k x l < ; ; ; ; l k l x x x z c c k k z x x x k z k l z ; ; ; ; l l k k x k k ; k ; k x z x k k k x l k ; ; k l x k k z z z c k x z z c z z z z z c z z z z k k k c c c k l O G 7XzXM ; k z z z z m c x c k k k m _._./.J R U 3.8.8.8.8.0.A.#XL.#X:X:X:X:XL.>X>X' O.w.:.w.} } O.$.' 2...2.9X<X<X<XpXeX<X<X&XeXeX<X<X<X&X&X&X&X,X5  . .` ` ` ` ` ` )  .( _ t.e.w.w.e.w.w.w.w.w.w.e.w.e.w.w.w.w.w.e.q.2.4.7X-X;X;X&X<X;X;X;XqX7X;XqX;XqXHXVXVXHXGXGXVXHXHXVXHXHXHXHXVXPXLXIXJXIXAXSXSXSXBXSXNXBXNXNXP.S.D.D.a.y.D.a.D.y.D.D.D.D.P.D.J.U.U.U.I.CXLXIXUXUXUXUXUXUXUXUXUXUXUXUXUXUXUXUXUXUXUXUXUXUXJXLXLXLXLXLXIXLXJXKXKXLXKXJXJXKXKXKXKXDXKXKXKXKXKXJXSXDXU.L.D.y.t.t.t.4. .<X&X%X%X%X%X%X%X%X%X%X%XU pXSXNXdX0.4.4.A.L.P.L.L.L.4.4.4.4.4.4.p.L.,XdXdXfXNXCXDXSXDXSXSXDXSXDXKXKXLXLXLXKXKXFXCXaX<X%X+XU f.U U f.f.A.%X&XqXpXpXpXqXeXqX0XqXqXqXqXqXqXqX;XqXqX<X;XeXqX&XqXpXqX;XeXqX&XqXqX<XqX<X<X<XqXeX<X<XqX<XeXeX;XeXqXeXeX<XpXeXpXpXpXpXpXpXpXeXhXdXhXpXeXhXdXdXdXdXfXkXfXCXNXNXdXdXkXkXlXjXlXlXlXlXlXlXZXkX:X>X>X>XP.P.+.y.y.y.y.y.y.y.+.y.~ J.!.U.I.7 ~.W.V.W.uX@ o 3.Q.lXh !.~.V.W.yXg C.j.o a hXjXjXiXyXyXyX~.yXyXyXyXyXyXyXiXyXyXyXyXiXiXiXiXyXiXiXiXiXiXjXjXlXlXZXDXZXZXZXZXZXZXZXZXZXZXZXDXZXDXDXDXZXZXZXZXDXDXZXDXDXDXDXDXDXDXDXDXDXFXFXKXJXLXLXLXLXPXPXIXIXIXPXIXPXPXJX",
"nX8X$X@ * u j R )./.^.`.^.m m z z z c z z z z z c z x x k k ; ; X ; L ).).oXY ; ; ; l k x x ; ; O M M ; ; ; c x x x l ; ; v X ; ; l c x x x k k x ; X Y oXoX).l ; ; x l x x c z x z x x x x k ; ; ; ; Y ).+XT ; O l k n ; ; v n ; ; l l k l k k k ; ; n n X ; l ; k z c c z z k z c z z z z z c z z z z z z k z c c x k ; 9 :XA.P ; k x k x c z c z z z z k z c ^._.^.M P 7 i u i j i i i I i i i  .i i ( i  ._ %.O.w.w._ O.%.O.$.O...1.rXeX<XeXeX<X<X<X<XeX<X<X<X&X&X&X&X&X,X6  ...) ` ..~ _ ` ` ` ( _ r.e.q.e.w.+.w.w.w.w.e.w.w.e.q.w.w.e.w.w.q.2.4.7X-X;X&X;X;X;X<X<X;X<X;X;X;XHXGXAXHXGXVXHXPXGXHXHXJXHXHXHXHXPXLXPXIXJXBXSXSXNXSXNXBXSXNXfXP.P.D.D.D.y.D.y.D.D.a.y.D.D.D.J.D.U.U.U.I.CXLXUXUXUXUXUXUXUXUXUXUXUXUXUXUXUXUXUXUXUXUXUXUXIXAXLXLXJXLXLXLXLXLXLXKXKXKXKXLXKXFXFXKXFXFXFXFXKXDXFXSXDX1XS.D.S.t.t.+.4.h <X%X0X0XZ.%X%X%XoX%X%X0XoXj IXNXCXCX9XA.0.4.4.A.L.L.,XdXfXfXCXSXJXDXSXSXDXSXDXDXKXKXFXKXKXLXDXVXpX7X%XZ.W U U U W f.%X%XqXqXqXqXpXeXpXqXqXqX;X0X0X<X0XqX0XqX&X0X;X0X<X0X;XqXqXqX<XqXeXqXqX;XqXeX;X&XqXpXpXqX&XeXpX;XeX7XqX;XeXpXpX;X;XpXpXeXeXeXeXeXeX<XpXdXeXdXdXeXdXpXeXgXdXeXdXdXfXmX9X1X>X1X:X:X:XL.,XlXlXlXZXlXlXlXlXlXZXZXkX1X5X>X>X>X>XO.e.y.+.y.y.y.e.y.y.~ K.R.R.Q.- ~.W.W.~.h C.lXjXjXlXh C.~.V.V.~.j.eXZXZXtX- - lXjXiXiXyXyXyXyX~.yXyXyXiXiXyXyXyXyXiXiXiXiXiXiXiXiXiXjXjXjXlXlXZXZXZXZXZXZXZXZXZXDXZXZXDXDXDXDXDXDXZXDXZXZXDXDXDXDXZXZXDXDXDXDXDXFXFXFXKXLXLXLXIXPXLXLXPXPXUXIXPXIXPXPXPX",
"7XnX9.1 7 * $ * ; /.'.`.m m z z c z c c c c c z k c x x l ; ; ).zXUXPXPXPXPXPXPX).v v l x ; Y PXUXUXPXPXnX; v l l l l v PXUXPXY v v ; k k x k ; ; *XPXPXPXPXUXUXPXY ; ; v l c z z x z x x l ; ; ).GXPXPXUXUXUXUX;X; < X < UXUXUXUXn v ; k l k ; ; ).PXUXPXUXn v ; ; k c c z k z z z c c z z z z c z z z z z z z x z l ; @ #X#X5 ; ; l k z k z c z z z k z z z m ^.'._./.Y I I 3.U 5.3.3.3.4.3.6.0.0.0.0.4.1.t.` q.w.:.w.} } ..' ..2.....9X,X<XeXeX;XeX<X<X<X<X&X<X,X<X,X&X,X,X7  .) ` ) ) ) ) ) ` ` ~ _ e.e.w.+.e.e.w.w.w.e.w.w.w.w.w.w.e.w.e.q.r...0.7X-X-X;X<X<X;X;X;X;XqX;X;XnXHXGXAXHXGXHXGXGXHXHXHXHXAXHXJXAXPXPXLXLXJXSXSXSXSXSXSXSXNXNXdXL.y.P.D.D.y.y.D.y.D.D.D.P.D.D.P.P.J.U.U.I.ZXLXUXUXUXUXUXUXUXUXUXUXUXUXUXUXUXUXUXUXUXUXUXUXUXJXLXLXLXKXLXIXLXLXJXKXJXKXKXKXDXDXDXVXMXAXVXFXFXKXKXFXFXP.S.D.y.t.e.t.t. .<X%X%X%X0X%X0X%X%X%X%X%X0XP 7XJXNXNXCXNXSXCXCXNXCXSXZXCXSXSXDXSXFXFXKXKXAXAXAXaX<X&XZ.f.U U U W Z.+X%X;XqXqXqXwXzXqXqXqX;XqXqXqXqX0X0XqX0X%XqXqX&X0X;X&X;XqX0X0X&XqXqX<XqXeX;X;XqX0X<X;X<XpXqXeXqXqXpXqX&XqXpX;XeX<XqXqXeXeX;XeX<XeXeX7XpX7XpX7XpX8X8XsXdXsXeXpXpXpXtXdXhXfXfXhXZX,Xp.:X>X:X:X:X>X>X>X>X1XkXlXlXlXlXlXlXlXlXlXZXkXL.>X>X>X>XP.w.y.y.y.y.+.y.+.y.+.~ G.K.Q.!.h g !.~.h | lXjXiXiXjXjX= W.W.~.~.$ j ZXZXZXDXdX@ Q.lXiXiXiXyXyXyXyXyXyXyXyXyXyXyXyXiXjXjXiXiXiXiXiXiXjXjXlXlXZXZXZXDXDXZXZXZXZXZXZXZXZXDXDXFXDXDXFXDXDXZXDXZXZXDXDXDXDXDXDXDXDXDXFXFXKXLXJXJXPXLXPXLXJXPXIXIXUXIXUXIXIXPX",
";XnXj A.A.3.3.P H `._.^.m z x x c z z c c c c z x k x ; ; < GXUXPXUXPXHXPXPXPXUXPX, F , ; Y UXPXPXHXPXPXUXnX: n ; ; ; GXUXPXUXnXy D ; k l l ; < GXPXPXGXPXPXUXPXUXUXY < ; l x z x k z k ; X ).PXUXUXPXHXPXPXPXUXUX& F O UXUXPXPXUXIX: F ; l ; ; L PXPXPXHXIXUX, B , k c z z k z z z z c z z z z c z z k c c z z z k ; O 8.:X9 O ; ; c c c x z c c z k z z z m m m _._.(.Y I I I I 1.1.1.1.1.3.3.3.3.4.1.3.4.2.) O.:.:.w._ } %...O.2...1.dX<X<XeX7XeX<X<X<X&X<X<X<XI.&X&X&X,X,X5  ... .) ) ) ` ` ) ` _ ~ e.q.w.w.w.w.w.w.+.w.w.w.w.+.w.w.w.e.w.e.q.2.0.<X&X;X-X;X;X;X;X;X7X;X;XnXVXGXAXGXVXHXGXHXPXVXHXVXHXHXHXJXVXJXLXLXLXIXAXSXSXSXSXNXNXSXfX1XL.D.P.y.D.y.D.a.D.y.y.D.y.D.D.J.D.J.U.U.L.ZXLXUXUXUXUXUXUXUXUXUXUXUXUXUXUXUXUXUXUXUXUXUXUXUXDXLXLXKXKXLXPXLXLXKXKXDXZXAXAXAXDXAXDXDXFXsXKXFXFXFXDXDXU.S.D.y.+.t.+.4.| ,X%X%X%X%X%X%X%X0X%X%X%X%X0Xf pXLXNXCXVXAXSXDXDXJXFXDXSXMXhXpX&X#XZ.Z.U U U U W Z.%X%X0XqX0XqXqXqXqXqX;XqXqXqX;X0X0X;X0XqXqXqXqX0XqX0X&XqX0XqXnXwXpXnXpXqX;XqX<XqXqX<X0XqXqX;XqXqXeXqXqXpXqXqX;XqXqX&X;XeX<X;XpXqXeX;XeX<XeXpXpXpXpXpX8X1X8XsXsXmXdX9X9X,X,XNXfXfXfXkXCXkXCXZXCXCX,X:X>X>X X>X X>X>X>X>X9XZXlXlXlXZXlXZXZXZXlXZXfX>X5X>X>X X>X} y.+.y.y.y.y.+.y.y.X.G.R.R.R.iXS.. o 3.j lXiXuX!.uXlXa h j.j.= j.SX7 4.6 8  .3 o | dXjXjXiXyXyXyXyXyXyXyXyXyXyXyXiXiXiXyXyXiXiXiXjXjXjXlXZXZXZXZXZXZXZXZXZXZXZXZXZXDXDXFXFXFXFXFXFXDXDXZXDXDXDXDXZXDXDXDXZXZXDXDXFXLXJXPXIXLXIXJXIXPXIXPXIXIXUXIXIXPXLX",
"=X7Xu 0.C.3.C.8.).^._.^.c c z z z c z z z z c c x k ; ; ).PXUXHXUXPXPXPXPXPXPXUXPX5.G , X PXPXAXPXPXUXHXHXUXOXy , ; X PXPXHXIXGXK G , ; ; k ; GXUXUXPXPXPXHXPXUXHXPXUXP D , ; z z z l ; < zXPXPXUXPXUXPXPXPXPXPXUX7.u G PXUXPXHXHXUXI F b l ; l GXPXJXHXJXJXPX> K , k c z z z k z z c c k z z c z z z x c c c z k ; ; 5.:X0 ; l k z z c z z z k z z k z k z m m m ^.`._.).T R 5.3.3.3.3.0.8.0.8.0.0.0.0.0.4.p.` O.:.w.w._ ' O...} 2.` 2.rX,X<X8XeX<XeX<X<XeXeX&XeX&X,X&X&X&X,X5  ...` ..~ ` ) ..) ..~ _ t.e.w.w.+.e.w.w.e.w.w.w.e.q.w.w.q.w.e.q.e.2.0.<X-X;XeX&X&XeX;X-XqX;X;XVXGXVXGXVXHXVXHXVXGXHXHXPXHXJXHXJXHXPXLXPXIXLXSXSXSXNXNXSXNXNXdX>XL.y.D.P.D.D.y.D.D.a.D.D.D.D.D.P.J.U.U.U.I.CXLXUXUXUXUXUXUXUXUXUXUXUXUXUXUXUXUXUXUXUXUXUXUXIXAXLXLXLXLXLXLXLXLXLXFXAXAXFXDXDXFXDXDXDXKXpXKXDXKXKXSXDX,XS.D.D.t.+.t.t.i eX%X0X%X%X%X0X0X%X%X%X0X%XqXqXP U pXMXbXwX7X-X&XZ.Z.f.f.U f.f.Z.+X%X&XqXqXqXqXqXqXqX;X0X&X;X0X0X0X;X0XqXqX0XqX0XqXqX0X0X0X0X;X%X0X;X;XqXqX0XW f 1 = = f Z.&XqXqXqX&XqXeX;XpXqX;XeXqXqX&XqX<X<X;XeXpX;XeX;X7XpX<X7X<XpXeXqXpX<X<XeX8XpX,X7X:X:X:X#Xp.}.@Xp.0.CXCXNXkXfXCXkXkXkXkXCX:X:X3X X>X>X X>X>X X:X1XCXlXlXlXlXlXlXlXlXlXZXfXP.>X>X>X>XP.w.+.y.+.o.y.+.y.y.y.! K.R.R.Q.rXg A.lX- - jX~.Q.tX!.lX$ j j I.tXlXlX# 8 ..)  . .| 7 7 g | Q.iXiXiXyXyXyXyXyXyXyXyXyXyXyXiXyXiXiXiXjXjXlXlXZXZXZXZXZXZXZXZXZXZXZXZXDXFXFXFXKXKXFXFXFXDXDXDXZXZXDXDXDXDXZXZXDXDXDXFXFXKXIXIXIXIXLXPXLXPXIXIXIXIXIXPXLXJXJX",
"$X-Xu C.3.j.3.8./.(.(.m c z x z z z z z z c c c z l ; ; GXUXUXUXUXPXPXHXUXPXPXIXPXi G q . UXUXIXPXPXUXUXUXUXBXy S O ; UXPXPXPXPX5.G v v k ; Y UXUXUXPXPXPXPXUXPXIXPXIXnX: N , x x z ; ; ;XUXIXUXUXPXUXIXPXIXPXUXPX1.u 5.UXIXPXPXPXUX5.G C , ; {.UXUXUXHXPXHXUX4 @.b l x c x k k z z c c z z z z k x x c m c c k k X I :X% : ; x x k z c z c c z c z z z z z c m m m '._./.).T 8.5.3.4.8.8.0.0.A.0.0.#Xp.p.0.:X' O.w.w.q._ } ..' 2.$.....dX,X<XeX<X-XeX<X<X<X<X<X&X&X<X&X&X#X,X5  ... .` ) ` ` ` ) ` _ _ r.e.e.e.e.e.w.w.w.e.w.e.e.w.w.w.q.e.w.q.t.2.0.<X-X-X&X;X-X;X;X;XpX;XaXGXHXVXGXHXGXHXHXHXHXHXHXHXHXVXPXJXHXPXPXLXPXKXBXSXNXCXSXNXNXNX1X>XS.D.P.y.D.D.y.D.y.D.D.D.D.D.D.J.P.U.U.rXI.CXLXIXUXUXUXUXUXUXUXUXUXUXUXUXUXUXUXUXUXUXUXUXUXIXHXLXLXKXKXLXLXLXLXKXKXAXDXFXFXDXDXDXFXZXFXMXKXFXDXKXFXDXL.D.U.y.t.t.t.4.h 8X&X%X0X0X0X%X0X%X0X%X0X%XoX0XoXoXoXL oXf.Z.Z.+XZ.%X%X0X0XoX%X0X%X0XqXqX+XoXU f.%XqXqX0X%X0X0X%X0X%XqX0X0X0X;X0XqX;X0X0XqX0X%X0X%X;XVX%XP = X X X X X X X - qXgX;X&X&XqX;X;XqXqXqX;XqXpXpXpXqX<X;XpX7X<X8X8X8XsX<X<XeX<XaXpXsXsXdXkXCX#X0.@X}. X}.:X}.#X}.L.SXNXfXCXkXCXkXkXkXkXCX1X:X>X X>X X>X>X X5X>X1XZXZXlXlXlXlXlXlXlXlXlXfX:X>X>X5X>X>X} y.+.y.y.y.o.y.y.y.! U.U.R.uXC.3 kXuXQ.- uX!.tX!.uXeX. 3.lXuXhXlXI.3 _ _ ~ 8 8 g h g 7 7 h j tXlXjXiX~.tX~.yX~.iXyXyXyXiXjXiXjXjXjXlXlXZXZXZXZXZXZXZXZXZXZXZXZXDXDXFXKXLXLXLXLXLXKXFXFXDXDXDXZXDXDXZXDXZXDXZXDXDXFXLXLXLXPXPXLXPXIXJXPXPXIXUXJXIXIXIXAX",
"=X@X7 A.4.C.3.U /.(.^.m c z z z z z z k z z c c x k ; *XUXUXUXUXUXUXPXUXLXIXLXIX2X3 6.# T UXPXPXPXUXUXUXPXIXIXI G % O UXPXPXPXUX}.9 B l l ; PXUXUXPXUXPXPXUXHXPXPXPXJXIXI G , l x k ; *XPXUXPXPXIXUXJXPXUXIXPXIXPX# e 8.IXUXPXPXPXUX=XG C , ; PXUXPXPXPXHXIXvX9 C , l c c x k k z z c z z z z z z z x x x c l l O I :XA.% O l x k c c z c z c c c z c k z z c c m m _._././.R R 3.3.3.3.4.3.0.8.0.0.0.A.A.p.L.' } q.:.w._ O.%.......2. .dX<X<X<X<XeX<X<X<XeX&XeX<X<X,X&X&X&X,X5  ...` ) ) ..) ~ ) ` ~ _ e.O.e.O.e.O.w.e.e.w.w.e.q.w.e.q.w.w.e.e.r.2.4.7X-X;X;X<X;X;X<XqX;X;XVXGXGXGXVXVXVXVXHXVXHXGXPXVXHXHXHXJXAXLXLXJXLXKXAXSXSXSXNXNXCX1X1X1XS.a.D.D.D.a.D.y.D.a.D.y.D.D.D.P.J.J.J.U.I.ZXIXUXUXUXUXUXUXUXUXUXUXUXUXUXUXUXUXUXUXUXUXUXUXIXAXKXLXJXLXLXPXLXLXKXKXAXCXKXFXDXDXZXDXDXFXgXFXDXFXDXFXDXI.S.D.y.y.+.+.t. .<X%X0X%X%X%X%X0X%XoX0XoX0X0X0X0X0XoXbXwX0X%XqXqX0X0X%X%X%X0X%XoXbXqXf X       X   X L 0XqX%XqX0X0X0X0X0X0X0X0XqX0X0X0X0X0XqX0X&XqXVXU   X X O X X X . X O X   U VX0X0X&XqXqXeXeXpXeXeXqX&X&X7XaXaX7X7X7X7X7X#X@X<XCXCXCXCXCXCXCXCXAXNX:X}. X}.}. X X X X}.#XNXCXkXkXkXkXkXkXkXkXCX1X:X4X X>X X4X X4X>X:X9XZXlXZXZXZXlXlXZXlXlXlXkXU.>X>X>X>X>X+.e.y.o.y.o.y.y.+.y.~ J.R.!.rX@ ,XiXeXuXjXrX!.!.uXrXI.I.jXQ.Q.uXjXrX3 _ ~ ~ F.uX~.E.!.Q.j.7 7 o g Q.jXiXiXyXyXyXyXyXiXjXjXhXjXjXjXlXlXZXZXZXZXZXZXZXZXZXZXZXDXDXDXFXKXLXLXIXIXIXLXLXKXFXFXFXDXZXDXZXDXZXDXZXDXDXFXKXLXLXIXUXIXIXJXIXJXUXPXIXIXJXIXIXJXAX",
"=XU  .C.| 3.3.7././.^.c c z z z z z z k z z c c k k ; HXPXIXUXUXUXPXPXUXPX}.6.q 3 6.C @ [.UXUXPXUXPXPXUXUXUXUX2Xt B % UXPXPXUXIX}.e 9 , ; Y UXPXPXUXHXPXUXUXUXHXPXUXIXUXBX% J , l ; l UXUXUXUXUXPXJXIXPXPXPXPX9Xi i G {.UXPXUXPXPXPX:Xu G o HXPXUXUXPXPXPXUX6 @.C , l x x x k k z z c c z z z z k x z x z z ; ; I 7Xo 5.}.O k x z k c c z c z z z z z z z c c c z c ^.'.^./.].5.3.3.8.4.3.0.0.0.0.0.0.L.A.0.p.) } w.} w._ } O.$...2... .1X<XeXeXeXeX<X<X<X&X<X&X&XI.&X&X&XI.,X7  .) ..) ` ~ ~ ) ) ..( _ r.w.w.+.+.w.e.e.w.e.e.w.e.w.w.e.e.e.q.e.e...8.7X;X&X;X-X&XpX;X;X;XnXVXGXGXVXHXGXHXHXHXHXHXVXPXHXHXHXJXJXHXPXPXLXLXLXAXSXNXSXfXNXdX:XU.1XP.t.D.y.D.y.a.D.D.D.y.D.D.D.P.D.P.J.U.U.L.ZXLXUXUXUXUXUXUXUXUXUXUXUXUXUXUXUXUXUXUXUXUXUXUXUXJXLXLXLXKXLXLXLXLXKXFXZXAXFXDXDXDXAXDXSXFXsXJXFXKXFXDXZX1Xt.P.S.+.t.+.t. .<X&X%XC.0X%X%X%X%XoX0X0X0X0XoXoX0X0XoX0XoX%X0X%X%X*X0X%X0X%X0XbXY   X   X   +     X X X f.qX;X;X%XqX0X0XqX0X0X0X0X0X0X0XqX&X0XqXVX=   X = = = X X .   O . O     U VX-XgX&X<X<X;X&X<X<XeXeXaX<X#XOX8.8.8.8.8.0.3.7XCXfXCXkXfXCXkXfXCXNX:X0. X}. X}. X}.2X:X}.CXNXkXkXkXkXlXlXkXkXCX1X>X>X X.X>X X4X X5X>X1XkXZXZXlXlXlXlXlXlXlXZXkXP.1X1X>X>X>XO.y.y.o.y.y.+.y.o.D.X.G.R.!.j.7 jXQ.tX!.rXQ.uX!.Q.!.uXhX!.rXrXQ.rXlX8 ~ ~ ..uX~.~.W.W.~.~.~.~.h @ o - rXlXjXiXiXyXiXiXuXlXlXlXlXlXlXZXZXDXZXDXZXZXZXZXZXZXZXDXDXFXFXKXLXIXIXIXIXIXIXLXKXKXFXDXZXDXDXDXZXDXDXDXDXFXKXLXLXIXIXLXJXIXIXPXLXLXIXPXIXLXIXAXBX",
"7Xu 4.4.S.| 3.[./.`.^.c c z z z z z k k z c c c k ; L PXPXPXPXUXUXUXUX$X@ i G @.@.9 , X zXUXPXUXUXPXPXPXPXPXUXmX9 G O UXPXUXPXIX#Xq B , X GXUXPXUXPXPXUX@X> UXUXUXUXPXAXIXS F , ; ; cXUXPXPXPXUXIXPXIXUXPX8Xu # G @.@ =XUXPXPXPXPXUX8X0 0 8.UXPXUXUXUXUXUX}.6 @.9 , l x x c z z z c c z z z z z z z x k z ; O T 7X@ o @ vX> ; z z x z c z z z k z k z c z z z z z z z ^.`.`.).W 3.5.3.3.4.8.0.0.0.0.A.}.p.0.L...2.q.q.w._ ' ' ..' ..2. .dX<X&X&X;X&XeX<X<X<X<X<X&X<X&X,X&X#X,X4  . ...)  .` ` ` `  ._ ~ t.w.w.w.w.e.w.w.w.e.w.e.w.w.w.e.w.q.e.e.r.2.0.<X<X;X;X<X;X;XqX;XpXGXGXVXVXGXVXGXVXHXVXHXHXHXHXHXFXHXJXHXAXPXLXJXLXJXBXSXSXSXNXNX1X1X>X1Xy.D.P.D.D.D.y.D.y.D.D.D.D.D.D.J.P.J.K.U.I.CXLXUXUXUXUXUXUXUXUXUXUXUXUXUXUXUXUXUXUXUXUXUXUXIXAXKXLXLXJXLXIXLXJXKXFXAXAXDXDXDXDXDXDXDXKXsXFXFXKXSXSXDX1XS.D.D.y.t.t.t. .eX%X0X0X%X0X0X%X0X0X0XoXoXoX0X%X0X0XoX0X0XqX%X%X0X0X0X%X*X0XVXL X X   + O X X = + O X X X 1 VXqX0X%X0X0X0XqXqXqX%X0X0X&XqX0XpXqXX X + = X     O f U P X . o X X   #XgX&XpXpXpXhXAXAXCXSXCXKX&X3.8.8.@X0.}.}.}.0.7XCXMXCXfXkXfXfXkXfXNX:X X}.}..X X X X X}.:XSXCXkXZXkXkXkXkXZXkXCX2X>X X>X>X X>X>X>X>X>X9XZXlXlXZXlXlXlXlXlXlXlXkXI.>X>X>X>XP.} +.y.y.y.y.+.y.y.y.~ D.U.!.8 C.rX!.!.Q.rXrX!.!.rXQ.Q.rX!.Q.Q.uXQ.!.lX3 ~ ~ ~ yXW.V.W.V.W.W.~.iXjX| $ o 7 jXlXiXiXyXiXjXlXDXlXZXZXDXZXDXDXDXDXDXZXZXZXZXZXZXFXFXKXLXLXIXIXUXUXIXIXIXLXLXKXKXDXDXDXDXDXDXDXFXDXFXFXKXLXLXLXLXIXIXJXJXJXPXIXPXJXIXJXLXBXAX",
"7X0 :XC.4.3.3.7.^.'.m c c c z z z z z k z z c c z ; n PXPXPXIXUXUXUXPXo 5.i , , l l ; ; zXPXPXUXPXUXUXUXUXJXJXSX5.1.o UXUXUXUXPX2X5 G % O UXPXPXHXUXUXmX* u E UXUXUXPXHXUX{.B 9 ; X UXPXUXPXUXUXPXUXUX2X# q @.@.C , o =XUXPXUXUXUXUX2X* * IXUXPXPXPXUXIXBX# @.t , l x x z z z z z z c z z z z z z k k l ; O y 2XS O ; O 8.7.O ; k z z c c z z k k z k z z z z z z k c ^.'.`.).).5.3.5.3.8.0.0.A.0.A.A.0.L.0.L.) } q.w.w._ ' ..' 2..... .9X<X<XeXeX<X<X<X&X<X<X<X<X<X&X&X&X&X,X8  ...` ` ~ ....) ) ` ~ _ e.e.+.w.w.+.w.w.+.w.w.w.w.+.w.w.e.e.e.q.t...0.7X-X&X;XeX7X;XpX;XGXVXVXGXGXGXHXVXHXHXHXHXHXVXHXHXHXAXJXHXHXPXLXLXLXJXMXSXSXNXSX1X1X1X>XU.D.a.D.D.a.D.y.D.y.D.D.D.D.D.D.D.J.U.U.U.I.CXLXUXUXUXUXUXUXUXUXUXUXUXUXUXUXUXUXUXUXUXUXUXUXIXHXLXLXJXLXLXLXLXLXJXFXAXZXFXFXDXDXAXDXFXFXaXDXKXKXDXDXDX1XS.D.y.t.y.t.t. .eX&X%X%X0X%X0XoX0X0XoX%X0X0X0X0X0X0XoXoX0X%X%X*X0X%X0X0X0XnX=   X X X X   X = O       = O X f VX0X%X0X0X0X0XqX0X;X;XqX%XqXqXgX= X X $     f &XpXpXpXnXnXE X . o O   OXU MXCXCXCXkXhXCXCXCXSX&X8.}.[.}.}.}.}.}.}.,XNXCXCXfXCXCXfXkXCXSX:X X X}. X X X X X#X}.NXCXkXlXZXkXlXZXkXkXCX1X:X X>X.X>X>X X4X>X:XrXZXZXlXZXlXlXlXlXlXlXlXkX>X>X>X>X>XP.} y.y.y.y.y.y.y.y.D.[ K.!.Q.- !.uXQ.!.!.!.!.Q.rXQ.rXQ.!.!.!.uX!.rXrXrXuX3 ~ 8 8 E.~.T.W.V.V.Y.iXiXjXyX| $ $ j jXjXiXiXuXlXDXDXDXDXFXFXFXKXFXDXDXZXZXDXZXZXDXFXKXKXLXIXIXIXIXUXIXIXIXLXLXLXJXFXDXFXDXFXFXFXFXDXFXFXJXJXLXPXPXPXLXJXLXJXPXLXIXJXJXIXSXAXVX",
":X*  .|  .| 3.)./.`.^.m c c z z c c z z k z z z k k ; PXPXPXUXPXUXUXUX{.@ % , l l l k ; zXUXUXPXPXUXIXUXPXIXPXUX0.u @ IXIXUXUXPX8Xe G o 7.UXPXPXUXUXIX#Xi i 0 HXUXPXUXUXUXSX% i O W UXPXUXIXUXUXUXUX{.3 @.@.9 , ; , O zXUXPXUXUXUXPXSX- mXPXPXPXPXUXUXIX4 @.t , ; k k k z k z c c c c z z z z z c c k l ; + 7XI ; ; l O i 2X, ; k z z z z z z k z x k z z z z z z z m m `.`./.).E 7.3.8.3.0.3.0.0.0.}.0.0.0.p.` O.q.%.w._ ' ' ..2.' 2. .rX<X<X<XeX&X<X<X<X<X&X<X<X&X&X&XA.,X,X5  . . .) ) ) ) ` ` ` _ ~ t.e.w.e.e.w.e.w.w.e.w.+.e.w.r.w.e.q.q.e.r...0.eX-X;X-X;XqX;X;XaXHXGXGXVXGXVXGXHXVXHXVXHXHXHXHXJXHXJXJXJXAXIXLXJXJXIXAXSXNXSXfX>X1X1XU.>XD.D.y.a.D.a.y.D.D.D.y.D.D.J.P.J.P.J.U.!.I.CXLXIXUXUXUXUXUXUXUXUXUXUXUXUXUXUXUXUXUXUXUXUXUXIXAXKXLXKXLXKXIXLXLXLXKXAXDXKXFXDXFXDXDXAXLXgXKXFXKXFXFXSX1XS.P.D.y.y.t.t. .pX%X0X%X0X0X*XbXoX0X0X0X0X0X%X0XoXoXbX0X0X%X0X0X0X0XoX*X0XY X = X X = W qX;XqXqX0XoX1 X X +   W gXqX0X0X0XqX0X%XqXqXqXqXqXnXA   $ X   j aXNXgXaXMXSX<XI 9.9.. o o . u Z.MXCXZXCXCXlXkXkXCXSX:X0.0.}. X}.}.}.}.}.8XCXfXNXCXfXfXkXkXfXCX:X}.}. X X X X X X X:XNXCXkXkXkXCXkXkXZXkXCX1X:X>X.X>X X X>X X>X>X9XCXlXZXlXZXlXlXlXlXlXZXfX1X>X>X>X>X>Xw.y.D.y.o.+.y.o.+.y.~ U.!.U.$ rXQ.Q.Q.uXrXQ.!.!.!.!.rXuXuX!.rX!.Q.!.Q.rXdX8 8 ~ 3 l.yX~.T.W.h - | !.iXjX!.g $ - Q.iXjXkXDXZXFXFXFXLXLXLXKXKXFXDXDXDXZXDXZXDXKXKXLXLXIXIXUXIXIXIXIXIXLXLXKXFXFXFXFXFXKXFXFXFXFXFXFXFXJXJXLXLXLXPXJXLXJXIXPXLXJXJXJXMXCXMX",
"5.G i i 8 8 u 2 /.`.^.c m z z z c c c z z z z z z k ; *XPXPXPXUXPXUXPXUX;X& ; k l k ; X zXUXPXUXPXPXUXUXUXPXPXPX7X0 > LXIXUXIXPX9X0 G o -XUXJXPXUXPXUX4 1.r o nXUXUXUXHXPXPXS G o cXUXPXHXIXUXPXPXBX3 6.t % l l k ; O zXUXPXPXUXPXUXUXUXUXUXPXPXPXPXIXi r @.N , k k k k k z z z c c c z z z z k x x k ; o #X@X. l k x ; o 7XF ; k z z z z z z c x z x z z z z z z z c c ^.`././.R 7.8.3.8.3.3.0.0.0.@XA.L.p.L.) ' q.w.q._ _ ..' ' ' .. .8X<X<XeXeX;XeX<X<X<X<X<X<X<XI.&X&X&X,X7  . .` .. .` ~ ` ) ` ~ _ r.q.e.w.w.w.w.e.w.e.w.w.w.e.q.e.e.e.e.q.r.2.4.7X-X&X;X;X;X<X;XAXVXGXGXGXGXVXVXHXVXHXHXHXHXHXHXAXJXJXHXJXHXLXLXLXLXJXAXSXNXNX9X,X1X1X1XP.p.D.D.D.y.P.D.y.D.y.D.D.D.D.D.P.J.U.J.1XL.ZXLXUXUXUXUXUXUXUXUXUXUXUXUXUXUXUXUXUXUXUXUXUXUXIXAXKXLXLXLXLXLXPXLXKXKXAXAXFXDXDXFXDXFXDXKXMXLXJXJXDXDXSXI.S.P.D.y.t.+.t. .<X&X%X0X0X0X0X%X0X0XoX0XoX0X0X0X0X0X0X0X0X0X%X0X%X0XoXbXoXX =   = U wXqX%X0X0X%X0XqXzX%XX   = X %XqX0XqX0X&X0XqXqXzXqX;X$X%X. .   A aXIXSXCXZXCXNXJX8X3.8.7.OXo & & . E MXCXkXCXkXkXkXCXNXSX:X}.}.}.}.}.}. X}.0.3XNXCXCXCXkXfXkXkXCXCX:X X}.:X}. X X X X:X:XNXCXkXkXCXCXkXCXkXkXCX1X:X>X X X>X X>X5X>X>X9XZXZXlXlXlXlXlXlXlXlXZXkX>X5X>X>X>X>X+.+.y.y.y.y.y.y.+.D.~ !.rXS.* eXrXrXdXI.I.rX!.!.rXeXtXC.I.tXQ.!.!.Q.!.I.lXh 7 * ~ 8 h !.~.~.yX7 7 7 h I.iXjX!.7 @ 3.ZXDXZXDXLXLXLXIXLXLXLXKXFXFXFXDXDXDXZXFXKXLXLXIXIXIXIXUXIXUXIXIXIXLXLXKXFXFXFXFXKXKXKXKXJXFXLXJXLXPXPXLXJXLXJXPXHXLXPXLXIXJXSXAXAXNX",
"7 3.3. .1.1.1.J (.`.^.m c c c z c c c z z z z z z x ; ; GXPXUXUXIXPXHXUXUXUX+X; l v k ; nXPXPXPXUXUX;XI IXPXUXUXJX@ u SXUXPXIXUXvX4 G o UXPXUXPXPXPXPX% @.q o +XUXUXPXUXHXIX0.q % cXUXJXJXUXPXUXPXG @.^ % ; l z z x ; zXUXPXUXUXUXPXPXUXUXPXPXPXPXPXR e #.9 , x k z z z z z z z z c z z z z k z z z ; % 0.:X> ; l x x l X 7.{.O ; z k z z c c c c z z c z z z z k z z z ^.`.(.'.[.8.8.8.8.Z.0.A.A.0.A.0.@X0.:X..' w.} w._ } O.` ..2...1.9X<X<X<X&XeX<X<X&X<X&X<X&X<X&X&X&X&X,X5 2.) ` ` ` ) ..) ` ..( _ e.e.w.+.w.+.w.e.e.w.e.w.e.w.e.e.q.e.e.e.q.2.0.7X;X;XpX&X;X;XnXGXnXVXbXGXGXHXVXGXHXVXHXHXVXHXHXHXHXJXHXJXAXLXPXJXLXLXMXSXCX9X1X1X1X1X>X1XS.y.D.a.D.D.y.D.D.y.D.D.D.D.J.P.D.J.U.U.I.ZXIXUXUXUXUXUXUXUXUXUXUXUXUXUXUXUXUXUXUXUXUXUXUXIXHXLXKXLXLXLXLXLXLXKXFXAXAXFXDXAXZXAXVXAXAXpXDXDXKXKXJXDXL.D.J.y.y.t.t.t.| pX0X0X%X0X0X%X0X%X%X0X0X0XoX0XoX0X0XoX0XoX0X%X%X0X*X0X0X= X X X Z.wX%X%X%X%X%X%X0X%XqXqXnX+XX   %XqX;XeXpXgXAXnXW Z.W f.W W P - W KXFXMXhXkXZXkXkXSX7X7.8.7.8.7.o $ o 1 SXZXCXkXkXCXCXkXCXSX2X0.}.}.}.|. X}.}.0.9XCXNXkXfXCXkXfXkXkXCX:X X X X X2X X X X X:XCXNXCXkXZXkXkXZXZXZXCX3X>X>X>X4X>X>X>X.X>X>X1XCXlXlXZXlXlXlXlXlXZXZXkXI.1X>X5X>XP.O.y.y.y.y.y.y.y.o.y.~ U.S.o @ rXrXQ.hX. . uXtXQ.!.rXeXo o rXrX!.Q.Q.Q.rXhX- rX1X8 7 8 7 | !.uXrX# h 8 * 7 S.rXlXj 7 7 dXDXDXKXLXIXIXIXIXIXLXKXFXDXDXDXDXDXFXKXLXLXIXIXIXIXIXIXIXIXIXIXLXIXLXKXKXJXJXKXLXLXJXKXKXLXLXLXLXLXPXLXPXJXPXLXLXPXLXLXJXAXAXMXNX",
"5 1. . . .( 1.K /.`.^.m m x z c c c c c z z z k z z z ; ).PXPXHXPXPXPXPXUXUXUX*X< v ; O nXUXPXPXUXUX{.. IXPXPXPXPXS O UXIXUXPXUX8X5 i @ IXUXPXUXUXUXHX@ I 0 . W UXUXPXUXUXUX#Xi % mXUXPXPXUXPXPXUX@ #.w l l k k k k X zXPXPXUXUXUXUXUXUXUXUXPXUXUXnX% 1.C , l x z z z k k k z x x c z k z c z z x l O u L.0.; ; z x k k O T #X% ; l x x c c m z k k x c c c c c k z z c m (._.(.|.oXZ.Z.Z.A.#X#XA.#X#X#X&X:X,X2...w.O.:._ ' 2.` ' 2.2. .rX<XeXeX<X<X<X<X<X<X<X&X&X&X&X<X&X#X,X5  .....~ ~ ) ) ` ) ` ~ _ e.e.e.e.e.w.w.e.e.w.w.e.w.q.e.e.q.e.e.q.t.$.0.7X&X;X;XqX-XpXVXnXGXVXGXGXAXGXHXGXHXHXHXVXVXJXJXHXJXJXHXFXVXLXIXLXIXJXMXCXCX,X1X1X>X1X1XU.P.S.D.y.D.y.D.D.y.D.D.D.D.D.P.D.P.K.U.1XU.CXIXUXUXUXUXUXUXUXUXUXUXUXUXUXUXUXUXUXUXUXUXUXUXIXJXLXLXKXLXLXIXPXLXLXFXAXAXAXAXVXAXAXAXFXFXgXFXJXFXKXFXDX1XS.D.D.y.y.y.t.j pX&X0X0X%X0X%X%X0X0X%X0X%X%X0X0X%X0X%X0X%X0X%X%X%X%XqXf.  =   f.gX0X0X0X0X%X0XqXqX;X;X;X-X;XU +XhXCXAXCXZXCXAXMXW {.8.[.[.[.8.{.9.SXCXCXZXCXlXCXCXSX8X7.8.8.[.}.S . o . JXCXCXkXCXkXCXCXkXSX,X}.}.}.}.}.}. X}.}.8XCXNXCXCXkXCXkXCXCXNX2X X#X X X:X X X2X X:XSXCXkXkXZXkXZXkXZXCXCX1X:X>X>X>X X>X X5X>X>X1XZXlXlXlXlXlXZXZXjXlXlXkX:X>X5X5X>XP.O.y.y.y.y.y.o.y.y.y...t.@ - $ I.hXQ.hX@ - hXrXQ.!.rXrXo $ uXrXQ.U.Q.!.!.uX7 ,XrXdX .o 7 7 | S.jXS.3 8 5 8 7 4 C.lX8  .8 NXKXLXLXLXLXLXIXLXLXKXFXDXZXZXDXZXFXLXIXIXLXIXIXIXIXIXIXIXIXIXIXIXIXIXLXIXIXIXIXIXIXIXLXPXLXPXIXIXIXPXIXIXPXJXIXJXUXJXHXSXAXAXMX",
"(  . .~  .( ( K /.'.^.m c c c c c c c c z z z z z z z k ; < PXPXUXPXPXPXUXUXUXUXGX+ F o cXUXPXUXPXUX8.# ;XUXPXUXUX;X. UXUXPXUXPXvX4 e I IXUXPXPXUXUXUXI > u 2 nXPXUXPXUXPXPXSX* q 8XUXPXUXUXPXUXUX@ G 9 l l k k x l ; zXPXPXUXUXUXUXUXHXUXUXUXUXPXSX0 G , , l k z c x z k k z c c x k k l l ; l , ; # #X:X3 ; x k x l ; o 4 :X# ; ; l l c c z k k k x x c c c z k z z c c ^._._./.P A P P I U P U U I U I I 3.1.2.q.} q._ ' ' ` ..2... .8X<X&X&XeX<X<X<X<X&X<X<X<X,X&X&XA.&X,X7  . .) ) ....` ` ` ..` _ t.w.e.q.+.e.e.w.e.e.e.w.w.e.w.e.e.e.e.e.r...0.<X;X;X;X-X;XAXnXGXnXVXGXVXVXGXVXHXVXHXHXHXHXHXHXJXHXAXFXHXAXIXLXLXLXDXCXNXrX1X1X1X1X5X>X1XU.y.P.D.D.D.y.D.y.D.D.D.D.D.D.P.J.P.K.U.I.ZXLXIXUXUXUXPXUXUXUXUXUXUXUXUXUXUXUXUXUXUXUXUXUXUXAXLXLXLXKXLXLXLXLXFXFXDXDXFXDXDXFXFXDXFXKXaXFXFXJXKXDXFXI.S.D.S.y.t.t.S. .pX0X0X0X0X0X0X0X%X0X0X%X0X0X0X0X%X%X0X0X0X%X0X0X%X*XqX= =   U gXZ.&X%X&XqXqX+X[.f.W E E W I &XKXCXZXlXCXZXCXZXAX3.{.8.{.8.].}.OX8.SXZXCXSXZXCXCXkXCX8X5.}.}.7.[.#Xo $ . 7XSXkXCXlXkXCXCXCXSX:X{.}.}.}.}.}.}. X}.9XSXkXkXCXCXkXkXCXfXSX:X:X X X X X2X X X X:XBXCXCXlXkXCXkXZXkXkXZX9X>X4X X4X>X4X>X>X5X>X9XlXlXlXlXZXlXlXlXlXlXZXkX>X1X>X>X>X>Xw.y.y.y.o.D.y.y.y.P.8 # 7 lX3.U rXQ.Q.!.rXrXuXuXuXrXeXuXuXeXQ.rXQ.rXQ.yX3.j rXQ.hXC. . .@ 7 $ - dXj ( 8 5 8 * $ 7 7  ...3 CXLXJXIXLXLXIXIXLXFXFXDXZXZXZXDXFXLXLXLXIXIXIXIXLXIXIXIXUXIXIXIXUXIXIXIXIXIXLXIXIXIXJXLXLXIXIXIXUXIXIXJXIXJXIXIXJXSXSXAXBXBXBX",
"1. .)  .( ( ( G /./._.m m z z z c c c c c z k k k x x c k ; ; *XUXUXPXHXPXUXPXPXUX7.i $ nXJXIXPXUXUXZ.u @XUXPXPXPXUXUXPXUXUXUXPX8X5 5 #XUXUXUXUXPXHXUXUXPXPXPXPXPXUXUXUXUXUXPX$ * 8XUXUXPXUXIXUXIXu I , l x k l z k ; zXPXUXUXUXUXPXUXPXUXPXPXIXIXIXmXo B , l x z z z z z z z c c x l ; l , % 0 % # 4.4.0.o ; x x k l , 9 6 a.~ 6 4 , v ; c m c k k c x c c z z z z z c m ^.^._.).*X%X&X+X+X=X=X#X-X<X=X-X7X2X1.' q.q.w._ _ ' 2...2. .1.1X<X<X<X&XeX<X&X<X&X&X<X&X<X&X&X&X,X,X4  .` ` ..) ) ` ) ) ..~ _ r.q.e.e.w.w.e.e.+.w.e.e.e.w.e.e.e.e.e.q.t.2.0.7X7X;X;X;XpXGXVXGXGXAXVXGXGXGXHXVXHXVXHXHXJXHXHXHXJXJXJXFXAXIXHXLXKXJXNXdX,X1X1X1X1X>X1XfXP.S.P.y.a.a.D.D.D.D.y.D.D.D.P.J.J.J.K.U.S.kXFXJXIXIXPXUXUXUXUXUXUXUXUXUXUXUXUXUXUXUXIXUXUXUXDXKXLXLXLXLXLXIXLXLXKXAXAXDXFXLXLXFXJXFXKXgXFXFXDXDXDXDX1XS.J.D.y.y.y.p.| pX&X0X&X0X%X0X*X0X*X0X%X0X%X0X0X0X0X0X0X%X0XzXqXzXqXoX  X = KXpXAXhXAXDXAXDXU W W 9.W 7.9.9.&XFXfXZXCXZXCXlXCXMX3.{.].{.].9.8.}.8.SXZXCXZXCXkXCXkXZX8X8.{.}.}.8.}.7.o . U CXkXZXkXkXkXkXCXSX:X}.=X X}.}. X}. X}.8XCXCXkXCXkXCXkXCXCXNX:X X X X X X X2X X X:XSXCXkXkXkXkXCXkXZXkXSX3X:X>X.X>X X X>X.X5X>X1XZXlXlXlXZXlXZXlXlXlXlXkX1X>X1X5XP.1XO.a.y.y.D.y.y.y.D._ # 7 SXC.- $ jXI.rXU.!.C.g g g | jXQ.eX!.!.rXQ.!.eXjXo rXQ.Q.hXo eXlXdX7 @ # # i # 1.3 dX1Xo 7 8  .....~ NXIXLXIXJXLXJXLXKXDXDXZXZXZXDXDXLXIXLXIXIXLXIXIXIXIXIXIXIXIXIXIXIXIXIXIXIXIXIXIXIXPXLXPXUXIXIXUXUXUXJXIXJXIXIXAXHXSXSXSXAXAX",
"2.)  . .)  .( G /./.(.^.c z c z z c c c z k k k k k z x c ; k + ; PXUXUXIXUXUXUXJXHX# q -XIXPXUXPXUX0.i % UXPXPXPXUXPXHXPXUXUXPX9X5 4 9XPXPXUXUXPXUXHXPXPXPXPXPXUXUXUXUXUXPXJXi u :XUXUXPXUXIXPXPXBX% F ; x x k k k ; zXUXPXPXUXUXPXUXUXIXIXPXPXJXJXIX7XO b ; x k z z z z z c z x ; ; , w t #.#.^ ) +.D.# , v l l ; 9 @.$./ i._ / #.^ 9 , l l x k k k c c c z z z z z c m ^._._.'.*X+X$X+X=X;X;X;X7X;X;XcXmXmX}...q.O.q._ '  .$...$... .9X<X<X<XeX&X<X<X<X<X<X<X,X&XA.&X&X&X,X5 1...` ) ..) ) ` ) ` ( _ e.e.e.e.e.e.e.e.q.e.e.w.e.e.e.q.q.e.e.e.e.` A.<X-XqX-XpXGXnXGXVXGXVXnXGXHXVXVXHXHXHXJXVXVXHXFXHXHXJXJXJXAXLXHXLXLXKXdX8X,X1X1X1X1X>XdXfX1XS.D.D.D.D.D.y.D.D.D.D.D.D.D.D.P.J.K.U.I.kXDXFXFXKXLXIXIXUXUXUXUXUXUXUXUXUXUXUXUXUXUXUXUXIXJXKXKXLXKXLXLXLXLXKXFXAXAXDXJXAXJXFXDXKXKXsXFXFXJXDXDXDXU.S.P.y.D.y.t.t. .eXI.0X0X0X%X0X0X0X0XzX;XqX0X%X%X%X%X;XqXqX%XoXf.W f.: X $ 7XFXCXAXhXZXCXAXFXU 9.[.[.9.7.7.W #XDXAXCXkXCXCXCXZXMX7.{.8.{.8.[.{.[.8.SXCXCXlXZXCXlXkXSX8X3.}.8.8.].7.#X> o o aXDXkXkXkXCXCXCXSX2X}.}.}. X X}. X}.}.9XSXCXCXCXCXlXCXCXCXSX:X:X2X X X>X X X X2X:XSXCXCXZXkXZXZXkXlXlXCX9X>X>X>X>X.X4X>X>X5X>X1XZXlXlXZXlXZXlXlXlXlXlXkX1X1X>X>X>X>XO.y.y.y.y.o.+.P.~ 3 i SX7 @ 7 @ Z.hXI.!.tXQ.U.C.I.rXI.!.!.Q.Q.I.Q.I.lX- 3.hXeXhX3.7 lXQ.lXj C.A.$ o 8 8 1.# <XDXA.# # ..t. .8.IXLXLXIXLXLXLXFXDXDXZXZXZXDXFXLXLXIXLXIXIXIXIXIXIXIXIXIXIXIXIXUXIXIXIXIXIXIXIXIXLXPXLXIXIXIXIXIXUXHXPXJXIXLXAXAXAXSXSXSXSX",
"1.1. . .( i i G C /.`.^.c c z z z z z c c k k k k x x x x k ; ; ; Y PXUXUXLXUXUXPXPXq q -XUXUXPXPXPX0.i @ PXUXPXPXIXPXUXUXPXUXUX,Xq 4 mXIXPXUXUXPXPXPXUXUXUXUXHXIXUXPXUXPXIXUX5.i I IXPXJXIXUXPXIXUX9.; ; k k l x k O zXUXPXPXUXPXUXGXO BXUXUXIXUXUXPXPX[., , l k k z z k x c k l , w #./ { [ ] ! +.+.+.3 9 ; l ; % #./ { ! } ] ! ] { { w , l x x z c z c c z z z z z c m m `._.*XzX*XzXoX*X*X;X;X;XzXcXnXcXcX0.$.q.O.q._ ` ......2.`  .pX,X<X<X&X<X&X<X,X&X<X&X&X&XI.&X&X#X,X7  .) ..) ) ` ) ) ` ` ~ _ e.e.e.e.e.e.w.e.e.e.e.w.e.e.e.e.e.e.e.t.a. .0.7X&X;X;XnXVXnXAXnXGXVXGXVXVXHXHXVXVXHXVXFXHXHXJXFXJXJXJXJXJXLXJXJXKXKXdX1X1X1X1X1X1X9XfXdX1Xt.D.D.D.a.D.y.D.D.D.D.D.D.D.J.J.J.U.J.S.rXhXhXhXkXDXLXPXIXIXPXUXUXUXUXUXUXUXUXUXUXUXUXUXUXDXKXLXLXLXLXLXLXLXKXKXDXAXFXJXFXJXJXDXFXKXgXFXFXJXFXSXDXU.S.D.D.y.a.y.S. .hX0XeX0X&XzXqXqXqXqX;X%X&XpXpXVXVXCXZXAXAXf.E W ).W + . u pXDXdXkXZXCXkXCXDXU 8.9.].7.{.[.9.&XDXCXkXDXZXCXlXCXMX3.{.[.8.}.].{.{.A.CXCXZXkXZXkXlXkXZX8X7.}.8.].[.}.{.{.o o #XFXCXkXkXCXkXCXSX:X}.}.}..X.X}. X$X}.9XSXCXkXCXkXCXCXkXCXCX:X X X2X X X.X X X:X XSXCXkXCXkXZXkXkXlXCXZX1X>X>X3X.X>X>X.X>X5X>X9XCXlXkXlXZXZXZXZXlXlXlXfXL.1X>XP.>XP.O.y.y.D.y.y.P.O.6 6 p.7 @ 7 4 5 @ <XjXQ.Q.Q.Q.hXrXQ.Q.Q.Q.U.Q.Q.eXlX3.. I.eXtXeXo hXI.eXhX7 rXZXZXeXj # 3 h $ FXKXKX8X7 @ i u IXIXIXLXLXJXKXFXDXZXZXZXZXDXFXLXLXIXLXIXLXIXIXIXIXIXIXIXIXIXIXIXIXIXIXIXIXIXIXIXJXLXIXIXIXIXIXIXUXIXJXJXIXAXAXSXSXJXSXSXBX",
"e i i i 1.1.1.I J /.`._.m z z k z z z z z z z z k k z x k k x ; X L UXPXIXIXUXUXHXPXq e -XUXPXPXPXPX}.i % 8XUXPXLXUXUXIXIXPXUXIX,Xq # JXJXUXUXUXUXPXIXPXUXPXPXUXIXPXUXPXIXIXUX9.i # PXPXPXIXUXUXUXUXUXzXn ; ; ; ; ; ; ;XUXUXUXIXPXUX7X> u UXPXHXUXUXPXPXPXB F ; ; k k z x x z l , 9 / { ] { ] ] ] y.y.] _ w , ; , w { ] ] [ Q ] ] [ ] [ / 9 ; l c z z z c z z k z z c c m ^.`._.'.*X*X*XoX*X;X*X;XzXzXzXzXcXmX0.2.q.q.q.~ ` ' ..` 2.2. .1X<X<X<XeX<X<X<X<X&X&X<X&X<X&X&XI.&X,X5  .` ` ` ..~ ` ..) ..~ ` e.w.e.q.e.e.e.e.w.+.e.+.w.e.e.e.e.e.e.e.r...0.7X;X;XpXnXnXGXnXVXVXGXGXVXHXVXGXHXHXHXAXHXAXFXJXHXHXHXHXJXAXLXJXJXJXDX,XdX1X1X1X1X>XfXdXfXU.a.P.D.D.D.D.D.D.y.D.D.J.D.D.D.J.J.J.U.F.hXlXlXhXlXlXAXFXIXUXUXUXUXUXIXUXUXIXUXUXUXUXUXUXIXHXKXKXLXLXKXLXIXLXKXKXAXAXJXJXJXLXAXJXFXKXaXKXKXKXKXDXDXU.L.J.D.y.y.y.t.| pX<X<XeXqX%XoXZ.).f.W W Z.HXSXSXkXAXCXAXCX+XE 9.f.I . . E 8XCXCXCXkXkXkXZXSXE 9.9.8.7.8.8.7.&XDXkXCXZXkXZXkXZXkXW 8.[.[.[.}.{.8.8.DXCXZXZXZXCXlXCXCX7X8.{.}.}.6.8.8.=Xu o P JXCXkXkXZXkXCXSX-X}. X=X}.}. X}. X#X9XSXCXCXCXkXkXZXCXCXCX:X:X X2X X.X>X X3X X:XSXCXCXZXkXkXkXZXZXkXCX9X:X3X X4X>X5X>X>X>X1X1XZXZXlXZXZXZXZXZXZXZXZXkX,XI.1X1XrX1X+.y.D.y.y.D.y.6 ~ 6 # @ * A.5 i # o 3.jXuX!.rXQ.Q.I.U.Q.!.eXrXhXhXj $ ,Xd FXrXo ,XhXQ.tXeXg hXjXjXlXZXkXA.7 o - LXKXLXLXsXP Z.LXLXLXLXLXLXKXFXDXZXZXZXZXZXFXLXIXLXIXIXIXIXIXIXIXIXIXUXIXIXIXIXIXIXIXIXIXIXIXIXLXPXIXUXIXUXIXLXIXJXJXJXJXGXJXSXSXSXHXSXBX",
"* * $ * * 3 q G H /.`.`.m c x x k k z z z z z z z k l k ; ; ; ; P HXUXUXHXIXUXPXJXPX4 5 7XUXUXPXJXPX}.i q 8.UXHXUXUXUXIXUXUXPXUX:Xu # PXPXPXUXUXPXUXPXIXIXUXIXUXUXPXUXPXIXIXUXOXG 3 mXUXPXPXUXUXPXUXPXPXPXGXW ; ; ; ; *XUXUXPXIXPXIX7X0 0 2XUXPXUXUXPXPXUXPX% C , l k z x k k l 9 #.{ ] ] ] ] ] ! ! e.! { $.9 % 4 #.[ ] ] ] ] [ ] ] ] [ { ^ B l z z k z z z z k z z c z m ^.`.`.'.*X*X*X+X;X;X;X;XzXcXzXzXnXnX0.$.q.O.q._ ......` 2.)  .pX,XeX&X&X<X<XI.<X<X<X&X&X<X&X&X&X&X,X5  . .` ` ) ) ) ` `  .( _ t.e.e.e.+.e.e.w.e.e.e.e.e.e.q.r.e.e.e.e.a. .0.7X;XpXnXAXMXGXnXGXGXMXGXAXGXVXHXAXHXFXHXJXJXHXJXHXJXHXJXJXHXLXLXLXSXCX,X1X1X1X1X9X9XNX9XfXU.t.P.D.D.y.D.D.y.D.D.D.G.D.J.D.J.P.J.K.F.uXjXjXlXlXlXlXDXFXIXIXUXUXUXUXUXIXUXUXUXUXUXUXUXIXHXKXLXKXLXLXLXIXLXKXFXAXFXLXFXHXLXLXKXKXKXMXKXFXJXKXSXDX1XS.P.D.D.y.y.S. .kXhXAXCXAXZ.W Z.9.9.9.9.OXAXCXCXkXCXkXCXMX9.E 9.OXP   y Z.<XDXCXkXkXZXkXCXFX3.[.[.}.7.[.8.8.&XFXCXCXkXDXZXZXCXfX3.{.{.}.}.8.{.OX9.DXCXkXZXZXkXZXkXZX8X8.}.}.[.}.].}.{.}.o - DXSXCXkXkXZXCXSX:X{..X X}.}. X X}.}.9XSXCXCXkXkXZXkXCXCXSX2X:X X.X X4X X X X:X:XSXNXCXkXkXZXZXCXkXCXDX9X:X>X:X4X>X2X>X>X>X:X1XZXZXCXZXCXCXCXCXfXfXrXhXkXlXZXkXlXkXt.+.y.y.y.y.Q ! _ 3 # 7 NXi 8 8 # 7 7 o h C.I.rXdXrXdXeXeXI.I.j o 3.7 Z.U Z.- eXhX,XeXlXg &XZXDXZXkXlXhXlXkXhXZ.Z.FXAXPXLXIXPXIXJXIXPXKXKXFXDXDXZXZXZXZXDXFXLXIXIXLXIXIXIXIXIXIXIXLXIXIXIXIXIXIXIXUXIXIXIXIXIXJXPXIXUXIXIXIXIXIXJXLXSXSXAXSXHXSXSXSXAXMX",
"0 0 > - > * * ; , V _.`.^.m c k z k k z z z c c z k ; < ).).zXGXPXUXHXPXPXUXIXUXPXBX6 i @XUXUXIXJXPX:Xi q o UXUXIXUXUXUXIXJXUXUX}.i @ PXPXJXUXUXUXUXIX8.I I P BXIXPXPXUXIXPXUX$X( e y UXIXPXUXUXPXPXPXPXPXPXPXGXW 2 . OXUXPXPXIXPXIX:Xi i o HXPXUXPXPXPXHXUX2Xu N l k z z k k v w { ] ] [ ] ] [ ] ] Q ! ] { ^ % w { ] ] ] ] ] ] ] ] ] ] ] $.9 l k z z k z z k z k c z z c m `.`.*X*X*XzXoX*X;X;XzXzXzXzXzXcXBX8.2.q...q._ ` $.' ..$... .1X<X&X<XeXeX&X&X&X<X&X,X,X&X&X&XA.#X,X5  ...`  ...` ) ` ` ..~ _ e.q.e.w.w.e.e.e.e.e.e.e.e.q.e.e.e.e.e.t.e.) A.<X-XnXnXVXVXnXVXnXGXVXVXGXVXHXVXHXVXVXHXHXKXVXJXJXJXHXHXJXAXLXJXLXSXkX,X1X1X1X1X1XNXfXfXfX1Xa.D.P.D.D.D.D.D.D.D.D.D.D.J.P.D.J.J.K.S.uXiXiXjXjXjXlXlXAXKXIXUXUXUXUXUXUXUXUXUXUXUXUXUXIXDXKXLXLXLXLXIXLXKXKXKXAXAXJXLXJXJXJXKXKXKXaXKXFXDXDXJXSXU.S.J.D.y.y.a.S. .ZXCXhXZXkXZ.9.9.[.9.9.U @XCXCXCXkXkXCXkXCXZ.7.W OX1   U 8.7XDXCXCXkXZXkXZXSX5.8.[.[.[.8.[.8.#XDXCXZXlXCXkXCXZXNX8.{.{.[.8.[.}.0.8.SXZXkXCXZXCXlXCXZX9X8.{.}.}.8.}.}.5.=XI . MXDXkXZXdXZXZXSX7X}.=X}. X X}..X=X}.vXSXSXkXZXkXCXZXCXCXSX:X X2X X.X X.X2X>X:X:XSXCXCXCXZXCXkXZXCXCXSX1X,X>X:X,X>X1X1X9XdXdXCX9XeX1X9X1X,X>X,X1X,XA.dXZXZXlXlXlXlX| t.y.D.D.O.6 ~ 6 6 8 kXL.@ 5 5 | uXuXI.C.7 - @ * * - g g 7 g Z.AX3.Z.A.o g U 3.U C.lXQ.- FXDXDXZXZXhXkXuXuXuXZXDXAXAXHXJXLXIXJXLXKXLXDXJXFXDXZXZXlXZXZXDXFXLXIXIXLXIXIXIXLXIXIXIXIXIXIXIXIXIXIXIXIXIXIXIXIXIXJXIXIXIXUXIXIXIXIXJXIXSXGXSXJXSXSXSXAXSXMX",
"y 1 & & : > * : < l (.`._.c c c z z k z z c c c x x ; zXPXPXUXPXPXPXUXUXPXUXUXIXJX0.r r A.PXIXHXHXUX}.i B o GXPXUXUXPXUXPXPXUXUX}.i # PXHXPXUXPXHXUXBX# @.G 9 E UXUXUXPXPXIXUX$Xe r o GXPXPXPXPXUXPXUXUXUXUXUXUXUX& 0 [.UXHXPXPXHXUX0.i e o ).UXUXUXPXPXPXPXPX: C , l x c x x , / [ [ ] ] ] ] ] ] [ ] [ ] ] / 6 Q / { ] ] ] ] ] ] ] ] ] ] { C ; l z z z z z k z z k x z m m `.`.'.*X*X;X+X*X;X;X;XzXzXzXnXcXnX0.$.q.O.q.( _ 2.` @..... .8X<X<X&XeXI.&X&X<X&X<X&X&X&X&XI.#XA.,X7  .` ` ` ` )  .` ` ..~ ..e.e.e.e.e.e.e.e.q.e.e.e.e.e.e.e.e.e.e.e.a.2.0.-XqXGXnXnXnXGXnXAXnXVXGXAXGXAXHXAXHXAXHXHXAXJXJXJXHXJXJXAXSXLXKXJXCXCX1X1X9X1X1XsXNXNXNXNX1Xt.D.D.D.D.D.D.D.D.D.D.D.D.J.J.D.P.J.U.S.uXuXiXjXiXiXjXlXZXDXLXUXUXUXUXUXUXUXUXUXUXUXUXUXIXHXFXLXLXLXLXIXLXLXJXKXFXFXJXFXHXAXAXAXVXAXeXKXKXJXFXDXDX1XS.J.D.y.y.y.P. .ZXkXCXZXNXZ.9.9.8.[.9.9.@XSXCXCXkXCXlXCXCX8.8.9.Z.1 X 9.U 8XDXCXkXZXkXkXZXSX7.[.[.9.8.[.8.8.&XDXkXCXZXZXZXCXZXAX3.{.{.{.{.[.}.}.8.FXCXCXZXSXZXkXCXDXsX0.}.}.}.}.}.}.}.}.=Xo 7XKXZXkXkXZXCXDX,X}.2X X}.2X X X X#X9XSXCXCXCXkXkXkXCXSXSX3X X2X X2X2X X:X2X:X:XSXSXSXSXZXCXCXSXNXSXNX9XpXdXfXNXCXkXCXZXZXCXCX,X,X1X>X5X>X1X>X>X1X,XdXkXZXlXlXkXjXO.y.k.y.D.~ Q 6 6 t...kX8 @ 8 F.uX!.R.!.!.rXI.- 3.  7 Z.,XeX<X&XA.X FX$ &Xj g SX$ ZXDXX <XZXZXDXZXZXlXjXuXhXtXZXFXKXJXPXIXLXLXIXLXLXLXKXFXDXZXZXZXlXZXDXDXKXLXIXIXIXIXIXIXLXIXIXIXIXIXIXLXIXIXIXIXIXLXIXIXIXIXJXIXIXIXIXIXIXIXLXJXIXAXSXHXSXSXSXAXSXAXMX",
"2 u 2 2 1 & & & % l ^.`._.m m c z z k z z z c c x ; *XUXPXHXIXUXUXPXUXHXUXPXIXPXBX3 @.6 I IXGXPXPXUX#Xu G o ).UXUXPXUXUXJXIXUXHX0.i @ PXPXPXPXUXPXUX:Xt G 4 ; n GXUXHXPXIXPXUX0.i t ;   PXPXGXPXPXUXIXPXIXUXIXJXUXy i 5.PXUXPXPXPXIX8.G B , X GXUXUXPXPXPXPXUXR C N l c z k x 9 #.] ] ] ] ] ] ] ] ] ] ] ] ] $.6 Q { ] [ [ [ ] ] ] ] ] ] ] { t , l z k c c z z z z z x m c ^.'.(.*X*X*X*X+X;X*X;X;XzX;XnXzXnXBX8.1.q.q.q._ ` `  .' 2.@. .1X&X<X<X&X<X&XeX<X&X&X&XI.&X&X&X&X#X,X8  ...`  .` ) ` ` ` ) ~ _ t.e.w.e.e.e.+.e.e.e.e.e.e.e.e.e.e.r.y.e.t.2.0.7XaXVXnXMXVXnXVXnXGXGXAXVXGXAXVXHXAXHXHXFXAXJXJXJXJXHXHXFXAXJXDXSXNXCX<X1XrX,X9XNXNXNXfX9X>XD.P.D.y.D.D.D.D.D.D.D.D.D.D.D.J.J.J.K.k.uXyXiXiXjXjXjXjXlXkXKXLXUXUXUXUXUXUXUXUXUXUXUXUXUXJXKXKXLXKXLXLXLXJXKXKXAXAXAXHXVXAXFXJXFXFXaXKXKXFXKXDXSXI.P.U.D.D.y.y.S.| ZXkXkXkXNX#X8.[.8.[.9.9.A.CXCXZXkXkXCXCXCXZ.9.7.9.: > Z.9.pXSXCXZXZXCXCXZXDXU 9.[.9.[.[.[.9.#XDXCXCXZXCXZXCXZXCX8.{.}.8.}.}.{.{.8.DXZXkXZXZXZXCXkXCX8X8.}.}.8.}.}.}.0.8.PXU - DXCXDXkXCXCXSX:X}.}.}. X X=X}.2X}.8XSXCXCXNXCXCXNXCXSXJX:X:X}.:X XL. X:X:X:X:XNXNX9X9X9X:X:X:X:X:X#XSXZXZXZXkXZXlXZXZXZXZXCX1X>X5X1X>X>X5X>X>X>X>XrXZXlXlXlXjXlXt.S.D.y.D.~ 3 ~ a.D.O.~ # rXrX~.Q.T.E.R.E.!.uX+ ZXj - o . X - - U $ 7 f #XI FXg Z.ZX  eXZXlXZXDXDXlXlXjXtXiXhXlXFXKXJXLXLXLXIXLXLXKXKXKXDXDXZXZXZXZXZXZXFXKXLXIXIXLXLXIXIXIXIXIXIXIXIXIXIXIXIXIXIXIXIXIXIXLXLXPXIXUXIXUXIXUXJXIXJXSXBXSXSXSXHXSXBXSXMXMX",
"u y 2 2 y y > > , < ^._.`.^.m c c c z k z z c z k ; zXUXHXHXPXLXPXPXUXUXPXPXIX9X4 @.@.% X UXPXPXGXPX0.i t ; X PXUXPXIXPXPXHXIXSX6 1.o JXPXPXPXPXPXIX3 1.9 , ; ; nXPXPXPXHXUXPX8.t t ; ; ; GXPXPXIXPXPXUXUXIXPXUXIXS i G PXUXPXPXGXUX1.t F , ; ; PXIXPXPXHXPXUX5.G B l k k k l , ^ *.r.] ] ] ] ] ] ] ] ] ] ] ^ 6 w _ { ! ] ] ] ] [ ] ] ] [ { w l k c c c c c z z z c c c c ^.`.(.*X*X*X;XoX;X*X;X;XzXzXzXzXzXmX8.2.q.} q._ ' $.$.` 2.`  .eX&X<X&X&X<X<X&X<X&X<X,X&X&X&X&X&X&X,X5  .` ..) `  .` ) ` ` ~ _ e.e.e.e.e.e.e.e.e.e.+.e.e.e.r.e.e.t.e.r.a.` A.pXMXnXnXVXnXGXAXGXVXAXMXGXAXAXHXAXAXHXAXHXKXKXJXHXJXHXAXJXSXLXCXAXAXCX1XrX1X1XfXNXNX9XNX9X1Xp.P.D.D.D.D.D.D.D.D.D.P.J.D.D.P.J.J.U.k.uXiXyXiXjXiXjXiXlXgXKXIXIXUXUXUXUXUXUXUXUXUXUXIXUXDXKXLXLXLXLXLXIXLXKXLXDXKXLXJXLXJXLXKXKXLXgXFXFXAXKXDXSXU.S.U.D.y.D.y.L. .ZXkXkXZXkXA.8.{.[.[.9.9.@XCXCXZXkXlXkXAXAX0.8.7.9.o P 9.3.8XDXCXZXCXZXCXCXDXU OX[.[.[.8.[.8.&XDXCXZXZXCXCXkXDXMX8.{.}.{.{.[.{.8.A.CXZXZXZXDXZXZXhXFX8X8.#X}.}.}.}.{.}.}.NXKX#XZXkXCXkXCXCXSX2X@X:X:X2X X2X2X:X}.9XJXSXSXSXCXSXSXJXSXBX7X3X9XdXfXNXCXSXSXSXJXp.0.2X:X:X>X2X>X2X>X:XCXCXlXZXlXZXZXZXlXZXZXkX:X>X>X>X5X>X5X5X5X5X>XdXZXlXlXlXjXjX| y.y.y.D.+.+.U.+.D.~ X.uX!.R.E.E.R.R.R.E.!.uX| - 7 o DX- X j pXFXFX3.FXA.- $ j f.  j ZXZXZXDXDXZXZXlXhXiXuXhXlXDXFXLXPXLXLXLXLXLXKXFXFXDXDXZXZXZXlXZXDXFXJXLXIXIXIXIXIXIXIXIXIXLXIXIXIXIXIXIXIXIXIXIXIXIXIXLXJXIXIXIXIXIXIXLXLXSXAXGXKXSXSXSXSXBXSXAXmX",
"2 y y y 1 > 1 y > v l (.'.^.c m c c z z k z z z k ; ).PXPXHXLXPXHXUXUXUXPXPX#X@ @.@., ; X GXUXPXPXPX@.@.9 , X ).PXUXPXJXHXIXIX:Xe ( o =XUXPXHXUXHXPX3 @.9 ; l ; ).UXPXHXUXPXPXq @.9 < k ; O zXPXIXIXPXUXPXHXPXPXPX% @.@ HXUXPXIXIXPXe @.B ; ; ; ).UXPXHXPXIXUXq @.w ; k x k ; ; w a.5X! [ ] ] ] ] ] ] ] ] { #.9 w ^ :.vX! ] ] ! ! ] a.*.! &.9 l k c c c c c z z k x c c m _.(.'.XX*X*X*X+X*X;XzXzXqXnX;XnXcXBX0.2.2.q.q._ ` ....2.` ..) 1X,X<X<X<X&X,X<X&X<X&X&X&X&X&X&XA.#X,X5  . .` ` ..~ ` ` ) ..( _ t.q.+.e.e.e.e.e.e.t.e.e.e.e.e.e.e.e.e.t.e...#XMXnXnXnXnXVXnXnXnXGXVXVXGXHXVXAXHXHXHXJXAXVXJXJXJXJXFXFXAXSXDXAXMXCXNX,X1X1XdXCXfXNXfXfXdX1XD.D.D.D.D.D.D.D.D.D.D.D.J.D.J.J.D.J.K.S.uXuXuXiXiXiXiXiXlXhXFXIXUXUXUXUXUXUXUXUXUXUXUXUXIXJXKXKXLXLXLXLXLXJXKXDXAXFXKXJXJXJXJXJXJXLXpXFXAXKXFXDXDX,XD.J.D.y.y.y.P.| ZXkXCXCXCXA.9.{.{.{.[.9.A.SXCXCXkXCXZXlXCXZ.7.7.8.o E 9.9.pXFXCXkXZXkXZXCXSX7.9.{.8.8.[.8.8.#XDXZXCXlXlXZXZXDXMX8.8.[.8.}.8.8.8.@XSXCXkXCXCXZXkXAXCXsX3.}.}.}.}.}.}.#X5.SXCXFXhXCXNXCXCXSXKX,X}.}.#X0.}.}.:X}.:X9XBXBXfXsX9X,X:X:X:X}.SXSXSXSXNXCXCXCXNXSXSX:X2X>X X4X4X X>X4X>X>XNXZXCXlXlXZXlXlXZXlXZXfX:X1X5X5X>X5X>X5X5X1X1XdXZXlXlXjXjXjXS.y.D.y.y.D.D.+.y.D.~ R.R.!.E.R.!.E.E.E.E.E.T.iX| C. .3.g I.I.p   g U Z.j $ = X U ZXg lXlXZXZXDXDXZXlXjXuXjXjXlXDXKXLXLXLXLXLXLXKXKXFXDXDXZXZXZXZXZXDXDXKXLXIXIXLXIXLXIXIXIXIXIXIXIXLXIXIXIXIXIXIXIXIXIXIXIXIXHXIXIXIXIXPXIXJXJXGXSXMXSXSXJXSXSXAXSXAXMX",
"y y 0 y 2 y > 1 2 v v /.`.`.m c c c z z z z z k k ; ; zXUXUXUXUXUXUXPXBX0.4 w @.C 9 ; l ; M UXUXPXvX3 5., , ; ; ).PXIXUXUXPXvX4 ( e ; X GXUXPXUXPX1.r @., l ; k ; GXPXUXPXUX5.9 @.% l x l ; O Y ;XPXUXUXUXIXUXSX@.t @.@ I UXUXIXIX0.3 @.N l k ; ; zXUXUXIXJX:X4 @.9 ; k k k k , t ^ u.5X! ] ] ] ] ] ] [ ] [ w , , w #.i.>XBX5Xp.>XNXSXa.^ w v l c c c c c c z z c z z m ^.'._.'.*X*X*X*XoX;X;X;X;XzXnXzXzXcXnX0.2.2.O.q._ ` ..` ` 2.@. .1X&X<X<X<X&X<X&X&X&X&X<X&X,X&X&X&X&X,X7  .) ` ) ` ) ..) ) ..~ _ r.q.e.e.e.e.e.e.e.e.e.e.e.e.r.e.e.e.y.e.a. .:XMXnXnXVXnXBXnXGXVXVXGXAXAXHXAXAXAXAXHXFXAXJXFXHXFXFXJXSXDXAXSXAXCXCXCX,XdX9XCXfXfXmXNXfXfXP.D.D.D.P.D.D.D.D.D.D.D.D.D.D.D.J.J.J.U.S.!.yXiXiXiXiXiXiXjXZXDXLXUXUXUXUXUXUXUXUXUXUXUXUXIXJXKXLXKXLXLXLXLXLXKXLXAXFXFXJXJXJXLXFXFXKXpXKXFXJXDXFXDXI.P.U.D.y.y.D.p.| ZXkXCXCXCX@X0.8.{.}.[.8.@XSXCXZXlXkXCXCXCXA.8.7.[.& 9.7.9.aXDXCXCXCXZXZXAXDX7.{.[.[.8.[.8.8.&XDXCXCXlXkXZXkXZXMX8.{.8.8.8.@X8.8.A.DXZXkXZXAXlXZXkXCXsX8.}.@X#X}.@X0.@X8.NXSXDXCXSXSXJXJXSXJX8X2X7X9XmXBXNXBXSXSXmX}.:X}.}. X#X:X2X2X#XSXSXkXCXCXZXCXkXCXfXSX:X:X>X>X X4X>X X>X X3XNXZXZXlXlXZXlXlXlXlXZXkX1X5X>X5X5X>X5X5X1X5X1X9XZXlXlXlXlXlXt.y.D.D.y.y.D.D.y.D.X.J.K.E.E.T.T.E.E.E.E.E.T.E.~.~.yX3 7 lXlXlXg Z.C.X C.dXA.j LXj C.lXlXZXZXZXZXZXlXlXhXjXlXZXFXLXLXLXKXKXLXKXKXFXFXDXDXZXZXlXZXZXZXFXLXLXIXIXIXIXIXIXLXIXIXIXIXLXIXIXLXIXIXIXIXIXIXIXIXIXIXJXIXIXIXIXPXLXIXDXBXAXMXJXFXSXBXAXBXSXBXMX",
"y 2 y y 2 > 1 > > b v ^._.`.m c c c z z z z z z z l ; ; Y T {.[.7.S G 0 w @.G B , ; x l k ; F ).T 9 @.@., l k ; ; Y ).@X9.S 0 G G 9 l ; X Y ].T S 9 6.9 l k k k ; ; ).W T F e 5.C v l x k k ; ; O Z Y [.OXOXI 0 w 5.C , X n ).7.I 4 6.B ; k k l ; X Y [.[.I 9 @.C , l l k z k ; 9 ^  XSX9X/ ! ! ] ] ] [ { #.9 ; , N ^ Q $.BXHXJXSXBX6.@.t 9 l k k z z c c z z z c c z c ^.'._.*X*X*X*XzX*X*X*XqXzXqXzXzXnXqXBX8.2.2.q.q._ ` $.' ` ` .. .pX,X,X&X&X<X,X&X,X,X&X&XA.&X&XA.&XA.,X4  .....) ) ..~ ` ) ..) ` y.e.e.e.e.e.e.e.e.+.e.e.e.e.e.e.e.y.e.r.a. .,XnXpXnXnXnXnXVXnXGXAXnXVXGXVXVXHXJXAXJXHXHXVXJXAXJXJXJXFXDXMXAXCXAXNXCX,X1XdXfXfXNXmXfXfXfXP.D.D.P.J.D.D.D.D.D.D.D.D.G.D.J.J.D.J.K.S.uXiXyXiXiXiXiXjXjXAXDXIXUXIXUXUXUXUXUXUXUXUXUXUXUXDXKXLXLXLXLXPXLXLXLXLXJXJXLXJXJXFXJXKXKXDXsXDXKXFXFXFXZX1XS.P.D.y.D.y.D...ZXlXkXZXCXA.8.{.{.[.9.8.#XCXCXCXkXCXZXCXSXOX7.9.W I {.9.3.8XDXCXCXZXCXlXZXDX3.9.8.8.[.8.{.8.=XDXkXZXCXZXZXkXDXCX8.8.8.@X8.0.0.Z.&XDXDXDXZXFXFXDXZXKXpX3.8.8.8.8.0.}.A.@XCXNXsXdX9X7X2X:X#X0.NXJXSXCXSXFXSXSXNXFX9X}.2X2X X:X X:X X2X XNXSXCXZXkXCXCXZXkXCXCX3X>X X4X.X4X X X4X>X>XNXZXlXZXlXlXlXZXlXZXZXCX,X5X>X5X>X5X>X1X5X>X>XdXlXlXlXjXjXjX| D.y.y.D.D.y.+.D.y.~ K.R.T.T.E.E.T.E.!.E.E.E.m.E.!.R.| iXiXiXjXQ.$ ZXo tXlXC.U f.- lXhXlXZXDXZXZXZXZXkXhXjXZXZXFXKXLXLXKXKXLXKXFXDXDXZXDXZXZXZXZXZXDXFXLXIXIXIXIXIXIXLXIXIXIXIXIXIXIXLXIXIXIXUXIXIXIXIXLXIXIXJXIXIXIXIXPXJXHXSXSXJXMXJXSXBXAXNXBXAXSXMX",
"2 y y 1 1 1 > 1 > 2 v ^._.`.^.z x z z z z z z z k k x ; ; D D B B G F C C 9 v l l k x x l k ; v C T C , ; l z k l ; , N 9 J G C b v x k k < N C G G 9 l l c k k x ; < B C G @.9 , l z c c k l k l v v V Z B F K C B , l x ; v F C K 9 , k x c z x ; ; b B C G C , l l x z c c l , C @.vXJXSX5X5X>X} ! { { 9 ; l l ; 9 G @.^  Xp.u.^ @.B , ; k x k k k z z z z z c c z c _._.'.*X*X*X*X*XoX;XzXqX;XzXnXzXnXzXBX8.2.q.2.q._ ` ` 2.$... .) ,X,X&X<X&X&X&X&X&X&X&X&X&X&X&X&X&X#X,X4  .` ` ` ` ) ) ) ) ..~ _ e.+.e.e.+.e.e.e.e.e.y.e.e.e.e.r.e.e.y.t.a. .,XmXnXnXVXVXGXnXGXMXVXGXVXGXAXHXHXVXAXJXFXAXHXAXHXHXAXFXDXAXaXCXAXCXCXNX,XfXNXfXfXNXNXNXfX1XL.a.D.D.D.D.D.D.D.D.D.D.D.D.J.J.D.G.G.K.k.rXyXuXyXiXiXiXjXjXCXKXIXUXUXUXUXUXUXUXUXUXUXUXUXIXHXKXLXLXKXLXLXLXLXKXKXDXJXLXPXLXFXJXDXKXSXMXFXKXDXDXDXDXI.D.U.D.D.y.D.a. .ZXkXZXZXNX@XZ.8.{.{.[.8.#XSXCXCXZXZXCXCXDXOX7.OX[.{.9.9.U aXSXCXkXZXkXZXCXDX3.}.{.{.8.{.8.Z.&XDXlXlXCXCXZXZXDXSXZ.A.Z.8.3.U U U j Z.C.C.Z.C.I.C.eXpXpX#X8XMXJXNXSXJXNXJXA.0.:X0.}.:X}.=X#X#XBXJXCXCXCXkXZXCXkXDXdX}.2X X2X.X2X4X X X:XNXNXCXkXCXkXkXZXkXZXNXL. X>X4X>X4X>X>X>X>X:XNXZXlXlXZXZXlXlXlXlXZXCX>X>X5X>X5X>X>X5X5X5X1XdXlXlXlXjXjXjX+.y.D.o.y.+.D.D.o.D.~ J.E.T.T.T.E.E.E.E.T.E.T.E.T.!.!.| uXyXyXuXjXC.- j lXiXhXs.j.jXjXjXlXZXDXZXDXDXZXlXlXlXlXZXFXKXLXLXFXKXKXKXFXDXDXZXZXZXlXZXZXZXDXFXLXIXIXIXIXLXIXIXLXIXIXIXLXLXIXIXIXLXIXIXIXIXIXLXIXIXIXJXIXIXPXPXPXLXSXSXSXSXSXJXAXMXMXNXAXSXAXMX",
"& : > y 1 y 1 1 1 2 < v _._.^.m c k z z z z z z k x x l l l ; , , , , l , ; k l c z x z x k l l , v , l l x x z x l l ; , , , v l l x x l l ; , , , l l x z x z x x ; ; , , ; v k k x m c x z k x l x l , , , 9 , l l x z k ; l N , ; ; l c m x x z k l v , , v l x c c z z c l l , B w :XmXSXBX9X} / ^ 9 , l x x l l , B w w w w B 9 , l k x k k k k z z k c c c c c ^._._.'.'.*X*X*X0XoX;X*X*XzXzXzXzXzXcXBX8.1.q.O.q._ ` ` ` ) 2.)  .9X&X,X<X,X<X,X,X&X,X:X&X&X<X&X,XA.A.,X7  . ...) ) ....` ` ) ) _ t.q.e.e.e.e.e.e.e.e.e.e.y.e.e.t.t.r.e.e.y.2.:XBXnXnXnXnXnXnXGXVXAXGXAXAXAXVXAXAXHXAXHXJXAXFXFXDXHXDXDXCXpXAXCXAXCXCX,XNXNXfXNXfXfXNX9X1XD.D.J.D.D.D.D.D.D.D.k.D.D.J.D.D.D.G.D.K.S.~.uXyXyXiXyXiXjXlXhXKXIXUXUXIXUXUXUXUXUXUXUXUXUXIXDXKXKXKXKXLXLXLXLXKXKXDXDXJXFXJXJXJXDXAXDXgXKXFXKXFXDXDX1XD.P.D.y.D.a.P.| ZXlXCXZXCXA.8.{.9.{.8.9.#XCXDXkXkXCXZXCXSXOX9.9.[.[.9.9.8.8XDXZXCXZXZXlXCXSX8.8.{.8.{.8.{.8.#XDXAXZXZXlXlXeXC.3.- 7 7 - 7 7 j h j j h h j j g g g - 7 j 7 g  .A.A.sXNXDXA.#X#X:X#X:X X2X#X#XNXSXkXZXkXAXlXkXCXSXmX}.2X X2X.X X3X.X2X:XCXCXCXZXZXCXZXZXZXCXSX:X>X4X X4X X X>X>X2X:XCXCXZXZXZXZXZXlXZXlXZXkX1X>X5X5X>X5X1X1X>X5X>XdXlXlXlXlXjXjXt.D.y.D.D.y.o.y.y.D.X.K.E.T.E.W.W.E.E.E.T.E.E.E.R.E.!.~ !.~.~.yXyXjXiXjXyXuXiXjXjXiXiXiXlXDXFXDXDXFXDXAXlXZXZXZXDXKXLXLXKXKXKXFXDXDXZXDXZXZXZXZXZXZXDXFXLXIXLXIXIXIXIXIXIXIXIXIXIXIXIXLXIXIXIXIXIXIXIXIXIXIXIXJXIXIXLXLXJXJXJXSXAXAXMXSXNXSXAXSXSXMXBXMX",
"O O O O , : 2 > 2 : < v (._.`.m c c z c z z z z z z z z x l k l ; l ; l l x z c k c z z z z k k l k k x k k c z z k k k k l ; l l x x x z x l ; l l k k k c c c z k ; k k l l k k x z c c z x k x k k x k ; l l l l x k k z k k l l k k z x k k k k x l x l k z c x z x c z z z k l , N C G 6.1.@.^ C 9 l l k k z z k k l , v , l l l l l z z z z k x z z z z c c c c ^._.^.'.*X*X+X*X;X*X*X;X;XzXzXzXnXzXnXnX8.2.q.2.q._ ` _ ` ` $.1.) 0.0.0.OX@X#XA.}.}.#XA.-X,X,X&X,X&XA.1X7  .` ` ` ` ..) ` ` ` ~ ..e.e.e.e.e.e.e.e.e.e.e.e.e.y.e.e.y.e.t.e.y...:XmXmXnXnXGXGXnXGXGXAXGXAXAXHXAXAXHXAXHXFXHXHXJXJXJXFXAXDXsXpXCXAXCXAXCXsXCXNXNXfXNXfXfX1X1XP.D.D.D.D.D.D.D.D.G.D.D.D.D.G.D.J.D.J.K.S.uXuXyXiXuXiXyXiXjXgXLXPXUXUXUXPXUXUXUXUXUXIXUXUXUXAXFXKXKXKXLXLXLXLXLXLXAXAXFXFXFXKXFXDXKXFXdXKXKXKXAXDXDXU.S.U.D.y.y.D.D.| ZXZXZXZXAXZ.0.{.[.{.{.9.@XCXZXCXZXZXCXSXSX@X{.8.[.[.{.{.7.pXDXkXCXZXhXZXCXDX8.3.Z.9.9.9.9.E ;XFXFXpXC.j = $ - h j.C.F.Q.W.~.~.~.~.~.W.~.~.~.~.~.~.~.Q.Y.F.F.j h $ $ - U C.Z.2X3X}.:X#X}.:X#XSXCXZXkXZXZXhXZXZXSXdX}.2X X X.X2X4X X>X:XNXCXZXkXCXkXZXZXkXZXCX:X>X>X>X>X.X>X>X>X>X>XCXZXZXlXZXZXlXZXlXZXZXkX,X>X>X5X5X5X>X5X5X1X>XdXZXlXlXlXlXjX4.D.D.D.o.y.D.y.o.D.X.G.!.R.R.E.T.E.E.W.R.W.R.T.E.E.!.~ ~.~.yX~.yXyXyXiXiXyXiXiXiXiXiXlXlXZXZXDXDXDXZXDXZXZXDXZXZXFXFXFXFXFXDXZXZXZXZXDXZXZXZXZXZXZXDXFXLXIXLXIXIXIXIXIXIXIXLXIXIXLXIXIXIXLXIXIXIXIXIXIXIXIXIXLXIXJXJXLXIXSXKXSXAXsXAXZXDXCXSXAXMXMXMXAX",
"O + + O O O O & > 1 1 l M _._.^.c z z z z z c c z z z z c k k k x z z z z c z z k x x x c x k k l k k c m z z k z k x z k k c z c c x x k k z z x z x z z z k z z k z k z k c z c z x z k k k x z c c z k k z z c z c z z x z x k k z z z k z z x z k x x c c c x z x z c x k k k x l ; , , % % , , , l k c x k z x z x l k l k x k c x k z z z z z z z z z z c c c c ^.`.(.*XoX+X*X*X;X*X;XzX;XzXqXzXzXzXnXBX0.1.q.q.q._ ` ` ` ..) ) i 1.5.1.5.5.1.1.5.1.5.1.8XdXpXpX8XaX1XsXi  . . .` ` ) ) ) ` ) ( ..e.e.e.+.e.e.e.e.e.y.e.+.e.e.r.y.r.y.r.y.y...:XBXnXnXnXcXMXnXGXBXAXGXnXAXAXGXHXAXHXAXJXAXSXHXSXJXSXKXCXMXpXCXCXAXCXSXdXNXNXNXNXfXNXdX1XU.S.D.P.D.J.D.D.D.D.D.D.J.J.J.D.D.D.J.J.K.k.!.~.uXyXiXiXiXjXhXZXLXUXUXUXUXUXUXUXUXUXUXUXIXUXIXDXKXFXKXKXKXKXLXLXLXKXFXKXFXDXSXAXgXsXgXpXpXpXaXFXDXSXDXI.P.P.D.D.y.y.P...ZXCXCXZXCXA.9.OX{.@X{.8.#XCXZXCXkXlXCXDXCX8.8.8.{.{.9.{.9.aXSXFXdXZXDXCXDXFXS 7.3.U 8.A.-X<X3.j o   g C.Q.yX~.yXyX~.W.~.W.W.W.W.V.W.W.W.W.W.W.W.W.W.W.W.~.~.~.yXyXyXQ.j.- o $ 7 C.3X3X,X#X:XmXDXCXCXkXDXZXDXCXCXsX:X2X X2X2X X.X X2X XNXZXCXlXZXCXZXkXZXCXCX:X>X>X X>X>X>X2X4X3X:XCXZXZXZXlXlXZXlXZXZXZXkX>X5X5X>X>X5X>X5X5X1X,XdXZXlXjXlXlXlX..D.D.y.y.D.D.y.y.D.~ J.R.R.E.T.T.E.E.E.E.E.E.E.E.E.!.| ~.yXyXyXyXyXyXyXyXyXyXyXyXiXiXlXZXDXDXDXDXDXDXDXDXZXZXDXDXDXDXDXFXFXDXDXDXZXZXZXDXZXDXZXZXDXFXKXLXIXIXIXLXIXIXLXIXLXIXIXIXIXLXIXIXIXIXIXIXIXIXIXIXLXLXHXJXJXSXSXSXAXMXMXMXAXNXMXMXMXfXMXMXAXAXJX",
"O O O O O O O O O O , n m _.`.^.m z z z z z z z z z z c c c c x c c z z x x c c z x x z k x k k k z z m c c c k k z k z k x z c z k x k k z c x z x z z z z z l k x z z x x z z x k c c c z x z z z k k k z z z c c x l k x x x c x k k z z x k z k x x z z z k z z z c c z x k x k x k l l l ; ; l ; l k c z x x x x z k z x k x x x k z z z z z z z z z z z z c x m `.'.(.'.*X*X%X*X*X+X*X;X;XzXcXzXnXzXnXnX0.2.q.q.q._ ` $. .` $.$.t 6.6.5.5.5.5.5.7.5.5.I 9XdX8X7X1X9XeXrX4  . .` ` `  ...` ` ..~ ..t.e.e.e.+.e.e.e.e.e.+.y.e.e.r.e.e.y.t.r.t.2.}.8XcX=XcX-XcXzXaXnXGXAXAXHXHXAXHXAXAXHXJXAXAXAXAXGXSXAXaXdXpXZXAXCXSXDXfXNXNXfXfXNXdX5XrX1Xa.D.D.J.D.D.J.D.D.D.G.D.D.D.D.G.J.J.J.J.S.!.uXyXyXyXyXjXiXhXDXLXIXUXUXUXIXUXUXUXUXUXUXUXUXUXSXFXKXKXKXKXKXKXKXKXAXkXAXkXAXZXDXDXDXDXFXFXFXkXZXDXDXDX1XD.U.D.D.y.y.S. .CXCXDXZXAX@X0.@X8.{.@X8.#XCXCXCXlXCXCXZXCXZ.8.9.9.8.9.3.U 8XLXKXDXCXCXCXmX8XpXaXJXLXJX<X7 o - j.Q.iXyX~.~.W.W.W.W.W.V.W.V.V.W.V.W.W.W.W.W.W.W.V.W.V.V.W.W.W.W.W.W.W.~.~.yXyXF.| - o 7 A.<X,XSXZXDXhXAXZXCXZXCXDXdX#X X X2X X X4X2X X2XNXZXlXCXkXZXCXkXZXCXCX:X2X X>X.X X4X X4X>X:XNXDXZXlXZXlXlXZXlXZXZXkX,X5X>X5X>X5X5X1X5X>X>XdXZXlXlXjXlXlXO.y.D.D.D.y.y.o.y.o.X.K.R.E.E.E.E.W.E.T.E.E.E.W.R.E.K.| ~.yX~.yXyX~.yXyXyXyXyXyXyXiXjXlXZXDXFXFXDXDXDXDXDXZXDXZXDXDXZXDXDXDXDXZXZXZXZXDXZXZXZXZXDXFXKXKXIXLXLXIXIXLXLXIXIXIXIXLXIXIXIXIXIXIXLXIXIXIXIXIXLXHXLXLXJXLXJXDXSXHXSXCXAXDXDXSXCXSXSXDXDXSXSXLX",
"+ & O ; O & O O O O . ; M (._.^.m c c z z c c z z z z z c x z k z z z c x z z x x k x x x k k x k k c m c x x k z k x z x x z k k k k k k x k z k z x z c x k x x k l x k k x k k x k x k z x x z z c x x x k k x k k l l k k x c x x c c c c c m x k k k ; k x z z z x c z k k l k x x x x x k k k k l x k k k l k z x x z k x z k z z z z z z z z z z x z z z c m m '._.'.*X*X+X*X;X=X*X;X;XzX;XzXqXzXzXcXBX}.1.q.$.q._ ' ` ` ` @. .( 5.5.5.5.5.5.5.5.5.5.1.8X,X8XeX7X8X,XsX5 2.) ` ` ` ~ ` ) '  .~ _ e.e.e.e.e.e.e.e.e.e.e.e.e.e.t.e.e.e.e.r.a...}.cX-XzXzXcX;X8XnXHXAXHXAXHXHXJXJXJXJXJXJXKXAXBXMXBXAX8XpXpXsXSXZXAXFXFXsXNXNXNXfXNX9X1X1X1XP.D.P.J.D.D.D.D.G.D.D.D.D.J.D.J.D.J.J.G.S.~.~.yXyXuXyXiXiXjXDXLXIXUXUXUXUXUXUXUXUXUXUXUXUXUXHXFXKXKXLXKXKXKXFXFXDXFXFXFXFXZXZXDXDXDXFXDXKXgXDXDXDXZX1XS.U.D.y.y.D.P.| CXCXZXAXkX#XZ.{.Z.{.{.9.#XSXSXDXDXDXDXJXDX9.Z.Z.A.#X&X8XaXaX@XZ.A.U 8.U 9.U JXFXpXj o $ C.Q.iX~.~.W.W.V.W.W.V.W.V.V.V.V.V.V.V.V.V.V.V.V.V.V.V.V.V.V.V.V.V.V.W.V.V.W.W.V.W.W.~.yXjXQ.| $ $ j MXDXDXZXlXAXZXZXkXCXsX X2X X6X X2X.X:X3X:XNXSXZXCXZXCXZXZXCXZXCX:X>X4X>X.X4X>X>X4X4X>XNXZXZXlXlXZXZXlXZXZXZXkX,X>X5X>X5X>X5X5X5X1X>XdXZXlXlXlXjXkX4.k.y.y.D.y.D.y.D.D.~ G.E.R.T.E.R.R.E.E.E.E.E.T.E.E.R.| !.yXyXyXyXyXyXyXyXyXyXyXiXiXjXlXDXFXFXFXFXFXFXFXFXDXZXDXZXZXDXDXDXDXZXZXDXDXDXZXZXDXDXDXFXKXLXLXLXIXIXLXIXLXIXIXLXIXIXIXIXLXIXIXIXIXIXIXIXIXIXLXJXJXJXJXLXLXLXJXDXDXDXSXSXSXSXSXSXCXSXSXSXSXSXJX",
"O O & + O O O O O O O ; ; ^.(._.m m c c z c z z z z z z z z z z z z x x k l ; ; ; k ; ; ; ; ; ; ; ; k k x x c x k z x k ; k ; ; ; X ; ; ; ; k x ; k z x c x c c k ; k ; ; ; ; ; ; ; ; k k k x x c c x x c x k ; l ; ; ; ; ; ; ; k k k x c c x m x x x ; ; ; ; k x k z z x k k ; ; ; ; z x c z m m x x l k ; ; ; X + ; k k k x x x k k z z z k z z z z c z z z z m m ^.'.^.'.*XoX*X%X*X;X*X;X;XzXzXzX;XnXzXnXBX8.2.q.O.q._ ` ` ` 2.$. .i 6.6.6.5.5.1.5.5.5.6.G vX7X1X8X1X<X<X9X8  ...`  .` ) ` ) ` ) ~ ..e.e.e.e.e.e.e.e.e.y.e.e.y.e.y.e.r.t.r.y.y...:X7XzX2XzX;XcXnXcXGXAXHXAXAXAXHXAXJXJXJXAXJXBXAXBXAXsX8XaXpXaXCXSXDXJXDXsXCXfXNXfXdX1X1X1X1XS.D.D.D.D.D.D.D.D.D.D.D.J.D.J.G.D.J.J.J.k.!.uXuXuXiXiXyXuXhXDXKXIXIXIXUXUXUXUXUXPXUXIXIXIXUXHXKXKXLXLXLXKXKXFXFXDXDXDXZXDXAXlXZXZXhXAXkXdXpXDXDXDXZXU.P.P.D.y.D.y.D...ZXCXSXZXNX@X8.3.8.8.9.8.@XSXNXAXMXaX<X&X@XCXAXDXFXDXDXDXSX7XU 8.9.Z.8.@X{.#XeX$ . g ~.yX~.~.V.V.V.V.V.V.m.m.m.m.M.b.b.N.N.n.N.M.B.B.V.B.B.V.V.V.V.V.V.V.V.V.V.W.W.V.W.W.W.W.W.W.W.W.yXyXC.h o j ZXDXDXZXZXkXZXDXNX:X.X X.X X.X>X2X>X:XBXSXlXCXZXZXZXZXZXSXSX:X>X X4X.X.X>X.X.X>X>XCXZXZXZXZXlXZXlXZXZXZXkX,X5X1X>X>X>X5X5X5X1X1XdXZXlXlXlXlXlX| D.D.y.D.y.y.D.o.D.X.J.R.E.E.E.E.E.E.E.W.R.E.E.!.E.R.| E.yXyXyXyXyXyXyXyXyXyXyXiXjXlXlXDXFXFXFXKXFXFXFXDXDXDXZXZXZXZXDXZXDXDXZXDXZXDXZXZXDXDXDXKXLXLXIXIXLXLXIXLXIXIXIXIXIXLXLXIXIXIXLXIXIXLXIXIXLXLXLXJXJXKXJXJXJXJXSXAXCXMXMXMXfXAXMXMXaXMXMXBXSXHXAX",
"O O O O O O O % O O O O l m (.`.^.m c c z c z z z z z z c z z z z z k x k + ; k M M Y T Y Y M L ; ; ; k l l x c x x x ; ; ; M M M Y Y Y L M ; ; ; k k k x z z x k ; ; M Y Y Y Y Y Y L Y ; ; ; l k k x x x x ; ; X M ).).oX).n ; ; l k z x m c z x ; ; M Y n O l ; k x m x k ; ; M Y n ; l l x x x l ; ; ; n Y oX).).).; ; k l x k c x z z z z z z z z z c z z z c m ^._.(.*XoX*X+X*X;X;X*X*XzXqXzXnXnXzXnXzXBX{.@.2.q.q.( _ ` $.` ` ` ^ 5.5.5.5.5.5.5.5.5.5.1.8X8XpXpX1X8X1XdX5  . .` ` ) ...._ ` ` ) ~ t.+.e.e.y.e.e.e.e.e.e.+.e.e.y.e.y.e.e.y.y.2.}.8XcXcXcXcXzXcX7XAXAXAXHXAXHXFXHXHXJXJXJXJXAXMXHXMX8XsX8XsXaXCXSXSXKXSXdXCXfXfXfX9X9X1X1X1XD.P.D.D.D.D.J.D.D.G.D.G.D.J.D.D.G.J.J.K.S.uX~.uXuX~.uXiXiXtXtXAXKXIXUXIXIXUXIXKXLXLXLXLXIXLXAXDXLXLXLXLXKXKXKXFXAXAXAXAXkXAXVXCXAXZXAXDXZXDXFXFXDXZXI.P.U.D.D.a.y.t.4.DXSXDXSXCX&X<XpXaXdXMXCXSXZ.7.3.8.E E 8.8.AXZXAXCXkXCXCXCX<X8.Z.9.{.@X#Xj $ o j.uXyX~.W.W.V.V.N.N.b.b.B.B.B.B.V.V.N.N.N.V.M.M.M.M.m.n.M.M.m.m.N.b.V.V.V.V.V.V.V.V.W.V.V.W.W.V.V.W.W.W.~.yXiXtXg o j ZXDXZXZXkXCXsX}.3X3X.X3X2X X X:X:XNXSXZXCXlXCXCXCXZXZXSX:X2X4X.X>X>X.X>X5X>X>XNXDXZXlXlXZXlXZXlXZXZXkX,X1X5X5X5X5X5X1X5X>X>XrXZXZXjXlXlXjX+.D.D.o.D.y.D.y.y.D.~ K.!.R.T.E.E.E.E.E.E.E.E.E.E.E.!.| ~.~.yXyXyXyXyXyX~.yXyXyXiXjXZXZXDXFXFXKXFXKXFXFXFXDXZXZXZXZXZXZXZXZXZXZXZXDXZXDXZXZXDXFXLXLXLXIXIXIXIXLXIXLXLXIXLXIXIXIXIXLXIXLXIXLXLXLXIXIXLXIXLXJXJXJXJXDXSXAXCXAXMXSXSXAXNXCXSXBXSXAXSXJXJXJX",
"& + O O & + O O + O O ; ; k _.'.^.m m x z c c z z z z z z c z z k x x ; ; Y GXGXPXPXUXUXUXUXUXPXPXzXn ; ; l ; x x z ; M zXGXPXPXPXUXPXPXPXPXnX*XY X ; ; k x x ; O *XHXPXPXPXPXPXPXPXPXPXPXGX+X; v ; l x x k ; L nXUXUXUXPXPXPXzX: ; ; k x x x l ; ; GXPXUXUX*X; v k x x k ; n PXUXUXPX[.& ; ; l k ; ; ).GXUXUXUXUXUXIXPXb b l l x c z c z z z z z z z z c z z z m m _._.'.*X*XoX%X*X;X*X%X;XzXzXzXzXnXzXzXnXmX0.2.q.q.2._ ` `  .` `  .^ 6.@.5.5.5.5.5.5.1.5.1.2XsXeX9X7XeX,XdX7 1.` ` ` ` ` ) ~ ` ..~ _ r.e.e.e.e.e.+.e.e.y.e.y.e.e.e.e.y.e.y.e.a...}.8X2XzXzXcX8XcX7XGXHXAXHXHXJXAXJXJXHXDXJXKXBXBXBXaXaX8X9XaXpXCXFXDXJXDXsXNXNXfX9X1X5X1X1X1XP.D.P.D.D.J.D.D.D.D.G.D.D.J.J.D.J.J.J.U.k.!.~.uXiXiXyXuXjXjXjXhXCXKXIXIXJXPXFXZXVXlXZXDXFXKXAXFXLXLXLXIXLXLXLXJXFXKXFXFXKXKXFXFXDXKXFXFXKXKXFXDXSXZXI.S.U.D.y.D.D.t...eX#XA.Z.A.ZXFXDXZXZXDXDXNXZ.Z.{.{.9.OX8.Z.CXDXDXZXZXkXZXZX<X8.OXOX$X3.$ $ j.~.yX~.W.V.V.m.b.N.c.N.N.M.n.B.V.M.M.m.V.m.B.B.M.M.N.M.M.n.c.N.b.B.n.N.N.b.N.N.B.V.B.V.V.V.V.V.W.V.V.W.W.W.W.~.~.~.iXuXh X U DXDXZXAXmX:X:X X X.X X>X2X>X:XSXSXCXlXlXZXZXCXZXCXDX:X3X>X>X>X.X4X>X5X5X>XCXDXZXZXlXlXZXlXZXZXZXkX>X5X>X5X5X5X>X5X5X1X1XdXZXlXlXlXlXjX| D.o.D.y.D.D.y.y.D.X.D.E.R.E.E.E.E.E.E.E.E.E.E.E.E.E.~ !.yXyX~.yXyXyXyXyXyXyXiXjXlXZXZXDXDXFXFXFXFXFXFXDXZXZXZXZXZXZXZXZXDXDXZXZXDXDXZXZXDXFXFXLXIXIXIXIXLXIXLXIXLXLXIXLXIXLXIXLXIXLXIXIXIXPXIXIXLXLXLXIXJXDXSXSXJXSXAXSXAXCXSXBXSXSXNXSXSXSXHXSXJXJXSX",
"O O O O o O O ; O & X O O ; ^._.(.m c m z z c z z z z z z c c k k ; ; ; +XPXPXPXPXPXHXPXHXHXPXUXPXUXUXnX< l l ; l ; M PXUXPXPXPXPXPXPXPXPXPXUXUXPXnX; v ; l ; < zXUXPXPXPXPXPXPXPXPXPXPXPXPXUX=XB , l l k ; Y PXPXPXHXPXPXHXPXUXUX2 v l l k x k ; bXUXHXGXHXPX2 F ; k ; ; < UXPXPXHXUXUX9 J ; ; ; oXUXIXPXHXPXHXHXHXPXUXBX, V ; x k z k z z z z z z z c z z z c m m '.(.'.'.oX*X*X*X*X;X*X;X;XzXqXzXzXnXnXzXGX0.1.q.%.q._ ` ` ' ` ` ` r 6.5.@.5.5.5.1.5.5.5.1.8X9X<X<XdX9X<X9X8  .` ` `  .` `  .) ..) ( y.e.t.+.e.e.e.e.e.e.e.e.y.e.e.y.e.y.r.r.y.2.L.2XzXcX2XcXcXnXcXGXSXGXSXAXAXJXAXHXJXHXJXDXSXSXnXsX9X8X8XsX8XSXJXJXJXFXMXNXfXCX1X9X1X1X1X1XD.D.D.J.D.J.D.D.D.J.D.G.J.D.D.J.J.J.J.J.S.!.uX~.uXyXiXiXiXiXiXjXhXkXFXLXFXhXhXlXlXlXhXhXkXZXAXLXKXLXIXLXLXLXLXKXLXKXKXKXKXKXKXKXJXKXLXDXKXFXJXDXDXZX1XD.P.D.y.y.y.D. .L.0.OXA.,XCXSXkXCXZXCXDXMX8.8.{.8.{.{.{.@XNXZXZXCXZXkXZXDX<XU {.3.* o j.iX~.W.T.m.m.b.b.m.N.N.N.N.N.V.M.M.M.M.M.M.m.M.M.B.M.M.n.n.M.M.N.N.B.N.M.N.N.N.N.V.B.B.B.b.N.V.V.V.V.V.V.V.W.W.W.W.W.~.~.iXjXiXj - f.hXFXsX:X X4X>X X2X.X:X2X:XNXSXZXZXCXZXCXlXCXZXSX:X>X3X4X.X>X>X X5X>X:XCXZXlXlXZXZXlXZXZXZXZXkX2X1X5X1X>X>X5X1X5X1X:XdXZXZXlXlXlXkX+.y.D.D.y.y.y.o.D.D.~ J.R.R.E.E.R.E.E.E.E.E.W.E.E.E.E.| ~.yXyX~.yXyXyXyXyXyXiXiXjXlXZXZXDXZXDXFXDXDXDXDXZXDXZXZXZXZXZXZXZXZXZXZXZXZXZXZXZXDXFXKXLXIXIXIXLXIXLXIXLXIXIXLXIXLXIXIXLXIXIXIXLXLXLXLXJXJXPXLXIXJXIXIXLXJXAXSXSXSXDXSXSXSXJXSXSXSXSXSXJXPXIXJX",
"P P P P P L 2 P < . + X + ; ^.(.(.^.z c c z z z z z z z z z z z z x k ; UXPXUXPXPXPXIXUXPXPXPXUXUXPXUXUXGXO D ; l ; nXUXIXIXUXUXPXPXUXPXUXHXUXUXIXUXcX; D < ; M HXUXUXPXPXUXIXUXJXUXIXPXPXUXPXBX4 G , l ; ; UXUXUXPXPXPXPXPXPXUXUXnX, D l l k k X PXPXIXPXPXUX@XG B ; l ; *XPXPXUXUXPXPX0.S 9 O Y IXUXUXUXPXUXPXPXPXPXPXPX% G , l z z z z z z z z z z z z z z z m ^._._.'.%X*XoX*X*X0XzX*X;X;X;XzXzXzXnXzXnXBX0.2.q.q.q._ ` ` ` $.) ) ( 1.5.5.5.5.5.5.6.5.5.1.6XaX1XdX,X,X,XdX5  .) ) ` `  .` ` ) ..~ ~ r.e.q.e.e.e.e.e.e.y.e.e.e.e.y.e.y.y.r.y.y.2.L.8XcXcXzX7X8XnXcXGXGXSXAXHXHXJXAXHXJXJXJXSXAXMX8X8XvXsX9XaXaXSXKXKXKXJXsXCXfX9XrX9X1X1X1X1XD.D.D.J.D.D.D.J.G.D.D.J.D.D.G.J.J.J.J.K.S.!.~.uX~.uXuXyXyXyXyXiXjXhXlXZXgXkXjXjXjXiXjXjXlXZXhXDXKXLXLXLXLXLXLXKXLXLXLXLXLXLXLXKXLXKXKXKXKXKXJXFXDXDXU.S.P.D.D.a.y.a. .L.A.@XA.#XSXZXCXCXZXCXSXCXZ.9.{.9.[.{.9.OXSXFXZXhXkXkXZXZX7X#Xj o g Q.yXE.T.B.b.B.m.V.B.M.B.B.M.M.M.E.M.B.B.B.M.B.M.M.M.M.M.M.M.n.n.N.M.n.M.N.M.N.M.M.M.M.M.m.B.M.B.M.B.M.N.N.V.W.W.W.W.~.yXiXiXjXiXiXiXC.- $ CXDX#X:X>X X X4X X4X2X:XSXNXkXlXZXZXZXZXZXCXDX:X3X3X5X.X>X>X4X5X>X,XCXDXlXlXlXlXZXZXZXZXlXkX1X1X>X1X1X1X5X,X1XL.,XrXZXlXlXlXjXkXO.D.y.y.D.o.D.D.y.D.~ G.R.R.E.R.E.E.E.E.E.T.T.E.E.E.!.| E.~.yX~.yXyXyX~.yXiXiXjXjXZXZXDXZXZXZXZXZXZXZXZXZXZXZXZXZXZXZXlXZXZXDXZXZXZXZXZXDXDXKXLXLXLXLXIXLXLXIXLXIXLXIXLXIXLXIXLXIXPXLXIXIXJXIXLXPXIXIXIXLXJXLXJXJXSXJXSXSXSXSXSXSXSXSXSXBXJXSXJXLXPXHXPX",
"E P P P P P P P E O O O O ; z (._.^.c c c z c z z z z z z c z z z z ; Y PXUXUXUXHXPXPXPXPXHXUXUXUXUXUXUXPX*XZ 9 ; < HXPXPXIXIXPXPXUXUXUXPXUXPXUXIXPXUXE G , O ).PXUXPXPXIXPXUXUXIXIXPXIXJXPXUXBX3 @.; l X GXUXPXUXUXPXUXPXPXUXUXHXPX$X2 N ; k ; < PXIXPXPXIXUX=Xe C , ; Y UXPXHXUXHXPXPX1.@.% 7.UXHXUXUXPXPXPXUXUXPXHXUXHX4 C , l k z z z z z z z c z z z x z c m ^._._.XX*XoX%X*X;X*X;X*X;XzXzXzXnXzXnXnXcXGX8.2.2.2.q.Q ' ` ` ` ` $.i 6.1.5.5.5.5.5.5.5.5.I 7X8X8X,X,X9X9XdX8  .....` ) ` ` ` ` ` ) ~ t.e.e.e.e.e.e.e.e.e.e.y.e.e.e.e.e.r.r.y.a...#X2X;X2XcXcXcXcX8XBXSXGXAXSXAXHXJXSXJXAXDXJXBXmX8XcXmX9XsX9X8XJXJXJXKXDXsXNXdXrX9X1X1X1X1X1Xp.D.D.D.D.J.J.D.J.G.J.G.G.J.J.D.J.J.D.K.S.!.uX~.yXyX~.uXyXyXuXyXiXjXhXhXjXjXiXiXiXiXiXjXjXjXhXDXFXKXLXLXLXLXKXKXKXKXKXLXKXLXLXLXLXKXLXKXKXKXJXFXDXZX,XP.U.D.y.y.y.P...:XA.}.A.#XSXZXZXZXZXZXDXNX8.{.8.[.{.9.9.0.SXCXCXlXlXZXCXFXdXX X rXiXW.T.m.M.M.B.B.m.B.m.m.M.M.M.M.M.M.M.M.B.M.M.M.N.N.N.M.M.M.M.N.M.B.n.N.n.n.M.M.M.M.M.M.M.M.M.M.M.M.m.V.N.N.B.V.V.W.W.~.iXjXjXjXlXjXiXiXjXC.o U vX,X X2X>X X2X X2X:XSXDXCXZXZXCXZXCXZXCXCX:X,X>X>X>X5X>X3X>X>X,XCXlXZXZXZXlXZXlXlXlXZXkX,X,X,X1X1X1XrX9XfXdXkXkXlXlXjXjXjXjXX.S.D.D.D.y.y.y.o.D.X.J.R.R.R.E.R.R.E.E.E.E.E.E.E.R.!.| ~.yXyXyXyXyXyXyXiXiXiXlXlXZXZXZXlXZXZXZXZXZXZXZXZXZXZXZXlXZXZXZXZXZXZXZXZXlXZXZXDXFXLXLXLXLXLXLXLXIXLXIXLXIXLXIXLXIXLXIXIXLXIXLXIXIXIXPXLXJXIXIXPXIXIXIXJXSXSXJXSXJXSXSXSXJXSXBXJXBXJXJXPXJXPXPX",
"A f 2 P 2 A 2 2 2 X O O X ; ; (.`._.m m m z c z z z z z z c z z z k ; zXUXUXPXUXPXPXIXJXPXUXUXPXPXUXHXUXPXHX9 i O A UXPXUXPXUXUXPXPXBXUXUXUXPXPXPXPXIXmX9 S o *XPXUXPXPXUXPXUXUXUXUXUXUXUXPXPX8.r i v ; Y UXPXUXUXPXUXUXPXPXUXIXPXUXPXu F , k ; L PXUXPXUXUXUX7Xr t , ; UXUXUXPXPXUXIXPX# 1.o PXUXUXPXUXUXPXUXPXIXUXPXPX@.w @., l k k x z z z z z z z z c c c c m (._.(.).*X+X*X*X*X;X;X*X;XzX;XzXnXnXzXzXnXBX}.2.q.q.q._ ` $.` ` ) ) r 6.5.5.5.5.5.5.5.5.5.G 9X9X<X9X8X8X,XdX6 @. .` ` ) ) ) ` ` ` ) _ r.e.e.e.y.e.e.e.+.e.e.e.y.e.y.y.y.e.y.r.y.q.p.7X-XcXcXcX;XcXcXVXBXSXHXSXFXJXJXJXJXJXJXJXMX8X8XaXvX8XsX8XsXKXJXJXJXSXsXfX9X1X1X1X1X1X1XU.D.D.D.D.D.D.J.D.D.G.D.D.G.D.J.D.D.J.J.K.k.!.~.uX~.uXyXyX~.uXuXyXiXiXiXtXiXiXyXiXiXyXiXiXjXjXgXDXFXKXKXKXLXKXKXKXKXKXKXLXLXKXKXLXLXKXKXKXKXJXFXFXDXZXI.D.U.y.y.P.y.D. .L.@X0.0.&XSXDXCXZXCXCXZXAXZ.{.9.{.{.8.8.{.CXZXkXAXkXDXFX3.X j.iX~.T.m.B.N.M.M.M.M.B.M.M.V.M.M.B.M.M.B.M.M.B.b.N.M.n.N.M.N.N.N.M.N.M.m.m.M.N.n.M.n.M.M.M.M.M.M.M.M.M.M.M.M.V.V.b.m.M.W.W.~.iXjXjXjXlXjXlXlXiXjXjX7 @ :X9X2X2X X3X2X2X:XNXSXZXCXZXAXZXCXkXZXCX,X:X2X:X:X>X:X:X:XL.:XCXZXlXkXlXlXlXlXlXlXZXhXkXkXkXkXlXkXZXlXlXlXlXlXjXjXjXjXjXjX| y.D.y.D.y.o.y.y.D.~ G.R.R.E.R.R.E.E.E.E.E.T.T.E.!.R.| !.iXyXyXyXyXyXyXyXiXjXjXlXZXZXlXjXjXlXlXlXZXZXZXZXZXZXlXZXZXZXZXZXZXZXZXZXZXZXZXDXFXLXLXLXLXLXLXLXLXLXLXIXLXIXLXLXIXLXIXIXLXIXLXIXLXPXLXIXIXJXPXIXJXJXJXJXHXSXSXSXJXSXSXSXJXJXBXHXJXJXJXIXLXPXPX",
"1 2 1 1 1 = + & : . + O X + ; ^._.`.m c x z z z z z z z z z c z x k ; GXPXPXUXUXPXPXu u u A ;XUXUXPXUXPXHXPXe G * T UXPXUXUXIXPX7X% > A [.UXUXUXPXUXPXUXq G o cXUXUXPXUXPXIXPX$X$X-X;X8X7X8X5.0 @.e ; ; nXUXPXPXPXPXUXUXUXUXPXHXPXPXUX7.C 9 ; ; ).PXPXUXUXUXUXcXi G X ;XUXUXPXIXPXPXIX1.r @.0 IXUXUXPXPXUXPXIXUXmX8.G 0 e 5.N , l z z c z z z z z z z z c c z c ^.'.(.'.*XoX+X%X*X0X*XzX;X;X;XzXzXzXzXnXzXnXnX}.2.2.O.q.^ ` ..` ` ) $.( 5.5.6.5.5.5.1.5.5.5.5.8X9X8XsX,X<X9XdXe  .` ` ` ` ` ` ) `  .~ ~ y.e.e.e.e.e.e.y.e.e.e.y.+.e.e.r.e.y.r.y.a...}.2X2XzXzX2X8XcXcXBXSXHXAXJXHXAXJXJXJXSXSXSXmXsX8XvXsXvX8XsXMXJXJXJXDXSXfX9X1X1X1X9X1X1X1X1XP.D.D.J.D.J.D.J.D.G.G.J.J.J.J.G.J.J.J.K.S.!.uX~.uX~.~.~.uXyXyXyXyXyXiXyXiXyXiXiXiXyXiXiXiXjXhXZXFXFXKXKXKXKXFXKXKXKXKXKXKXKXKXKXKXKXFXKXFXFXFXFXDXDX1XD.U.D.y.D.y.a...A.A.@X@X$XCXZXlXZXlXZXZXNXZ.8.[.[.[.[.8.Z.MXCXZXZXZXZXg X C.yXT.v.B.n.c.M.m.M.M.M.B.M.M.M.M.M.M.M.M.B.N.M.B.B.B.N.N.M.N.M.m.M.M.M.B.B.B.M.n.N.n.M.M.M.M.M.M.M.M.M.M.M.M.M.V.V.V.V.M.V.W.W.yXjXjXlXlXlXZXjXjXjXiXlXA.o 3.9X2X:X2X2X:X:XDXCXZXCXZXZXCXZXZXCXCX,X,X1X9X9X9XfXfXNXfXfXkXkXhXlXhXlXlXkXlXlXlXlXlXlXjXlXlXjXlXlXlXlXlXjXjXjXjXjXjXjXO.D.o.D.y.D.D.D.y.D.X.G.K.R.R.E.E.R.R.E.E.E.E.R.E.E.E.| !.yXyXyXiXyXiXiXiXiXjXlXlXlXlXhXhXhXlXlXZXlXlXZXlXZXlXZXlXZXZXZXDXZXZXZXZXZXZXDXFXLXLXLXLXLXLXLXLXLXLXIXLXIXLXLXIXLXLXIXLXJXJXIXIXJXLXPXIXIXJXIXIXPXJXJXSXSXSXJXSXSXJXBXSXJXSXSXSXJXJXPXJXPXLXJX",
"W E E E W P S Y R O O O O ; ; x _.`.^.z m c z z z z z z z x z z x ; ; GXPXUXUXPXUX8.q 5.F S . nXUXUXUXUXPXUXi i % [.UXPXPXPXUXJX1.i J u X =XUXPXPXPXJXPXq @.o BXUXPXUXPXUXUX8.% i e 9 9 q 9 C 5.G % ; M UXUXUXUXHXPXPXI {.UXUXHXPXUXUXSX% C ; ; ).UXPXPXPXPXUX8Xu i y UXUXPXIXUXHXPX9X3 1.9 1.UXUXPXUXPXUXUXPXi 4 t G G C 9 v l k c z c z z z z z z c c c z x m ^._.(.*XoXoX+X*X*X;X;XzX*XqXnXzXzXnXzXnXzXnXGX0.2.2.q.q._ ` ` ` ` $.) i 6.1.5.5.1.5.5.5.5.8.I 8X8X,X9X,X8X,X1X8 1.` ` ` `  ._ ) _ ) ~ ~ r.+.e.e.e.e.e.e.e.e.e.+.y.e.y.r.y.y.r.y.a...L.8X7XcXzX7XcXnX8XGXBXHXAXSXSXJXSXHXSXJXSXSXaXaX8XsX9XvX8XMXNXDXJXJXDXJX9XrXdX1X1X1X1X1XP.1XS.P.D.D.G.D.G.D.J.G.D.J.D.J.J.D.J.J.J.J.S.!.!.uX~.~.uX~.yXuXyXyXyX~.yXyXyXuXiXyXyXyXiXiXiXjXhXDXFXKXKXKXKXKXFXFXKXFXFXKXKXKXKXKXKXKXKXFXFXKXFXDXDXDXU.L.U.D.y.y.y.a...L.}.@X0.&XZXZXZXZXZXkXDXMX8.{.[.[.[.[.9.OXAXAXZXDXkXo 7 rX~.m.W.B.M.v.n.N.B.M.M.M.M.M.M.B.M.m.V.M.M.B.N.N.B.B.B.M.B.M.N.N.B.N.N.n.N.M.M.M.N.n.M.M.M.M.M.M.M.T.M.M.B.M.B.V.m.V.M.W.V.V.V.T.~.jXjXhXZXlXZXlXlXlXjXiXjXrX$ j 1X2X2X#X#X,XNXCXkXhXVXhXgXhXkXhXkXdXCXCXCXCXNXfXNXCXkXkXkXkXhXlXkXlXlXlXlXhXjXlXlXjXjXjXlXjXlXjXlXjXjXjXjXjXjXiXjXjX| D.y.D.D.y.y.y.D.D.X.D.R.R.R.R.R.R.E.E.E.R.R.E.E.R.!.~ ~.~.iXyXiXiXiXiXiXhXuXjXhXhXhXhXjXlXlXlXZXlXZXlXZXZXlXZXZXZXlXZXZXZXZXZXZXZXDXFXKXLXLXIXLXLXLXLXLXLXLXLXLXIXIXIXLXIXLXPXLXIXLXJXLXJXLXIXIXJXLXPXIXLXJXHXSXSXHXSXSXSXSXJXSXBXJXSXBXJXJXJXPXHXPXPX",
"P P P P L A A P E & O O +   ; l _.`.^.k z x z c z z k z z z z c x k ; GXUXPXUXUXUX7.i t 9 o X +XUXUXPXPXPXIXr @.% +XUXPXPXUXUXHX1.I % @ o ).UXPXUXUXPXPXe G @ BXUXUXUXUXJXPX5.G C 9 9 9 9 B 9 9 , ; ; ).UXPXUXPXPXUX0.0 % BXPXPXPXUXPXUXG G , ; E UXUXUXUXUXUXnX0 @ PXUXUXUXUXUXUXPX4 ( @.@ S UXPXPXPXPXUXUXnX% G e 9 , , l ; k k c x c z z z z z k z c c z m m ^._.(.'.).oX+X*X*X;X;XzX*XzXzXzXnXqXnXzXnXnXBX}.2.q.q.q._ _  .$.) 2.1.( 1.I 1.5.1.I I 1.1.1.G 9XsX8X8X8X8X1XsX4 )  .) ` ) _ ~ ` ) ..) ~ y.e.e.e.+.e.e.e.e.e.y.e.e.e.e.y.r.y.r.y.D...}.8X=X;X8XcXcXcXaXBXAXSXSXHXHXHXSXSXJXSXAXSXaX8XsXvX8X8XBXMXMXJXKXHXSXJX,X9X1X1X1X1X1X1X1XU.D.D.D.J.D.D.J.D.D.D.G.G.G.J.J.J.J.J.J.U.k.!.uX~.~.uX~.yX~.uXuX~.yXyXyX~.yXyXiXiXiXyXiXiXiXjXtXDXFXKXKXKXKXKXKXFXFXKXKXKXKXKXKXFXKXKXKXFXFXFXDXFXDXZXI.D.P.D.y.y.y.a. .A.L.}.0.$XCXZXZXkXkXZXZXCXZ.8.[.8.{.{.9.8.CXkXDXhXo j iXW.m.M.v.M.n.N.B.M.m.M.M.M.M.M.M.M.V.M.M.M.m.M.M.N.B.N.N.M.N.N.n.N.n.N.M.N.n.M.M.M.M.N.M.M.N.M.M.M.B.B.M.M.M.B.B.M.B.m.M.B.M.T.V.W.W.!.yXjXjXlXlXZXZXlXlXjXiXjXuX7 * SXCXMXCXNXNXpXhXAXfXhXCXhXsXhXdXhXCXkXdXkXkXfXfXkXkXhXkXjXlXkXjXkXkXlXjXlXjXlXlXlXlXjXjXjXjXjXjXjXlXjXjXjXjXjXjXjXX.D.D.y.y.D.y.D.y.o.~ G.R.R.T.R.R.R.R.R.R.E.E.R.R.!.!.| !.yXiXuXuXyXuXuXuXuXjXuXiXuXuXjXjXlXZXlXZXlXlXZXZXlXZXZXlXlXZXZXZXZXZXZXZXFXKXKXLXLXLXLXLXLXLXLXLXLXLXIXLXLXLXLXLXLXLXLXLXLXLXLXPXIXIXJXJXIXJXIXJXJXJXSXHXHXJXSXSXSXSXSXSXSXBXSXPXHXJXPXHXJXPXGX",
"1 1 1 1 2 2 2 1 1 O + X O O + k ^._.(.m z z c c z z z z z z z x x k < HXUXPXUXUXUXE u G ;   X GXUXHXUXPXUXmX6 ( % -XUXPXPXPXUXHXI G 9 , O *XUXPXHXUXJXJX6 i # BXUXUXPXPXUXIXR 0 % o o X O ; < , l ; X nXUXHXPXPXPXIX4 1.0 R UXPXUXPXJXUX6.S , ; ).IXUXPXUXIXUXGXP =XUXHXPXUXHXUXIXG r @.9 ; < UXPXUXPXPXIXUXIXy > % ; l x l z k x k c k z z z z z z z z z c c m _._.(.*X*X*X*X*X*X;XzXqX%XqXzXzXzXnXnXzXzXnXBXA.2.q.%.q._ ` ' ` ` .. .( 3X:X:X:X,X#X:X#X#X}.0.2X7X,X,X9X,X7X9X5 ) ) ` ) ` ` ..) ` ` ) ( r.e.+.e.e.e.e.e.e.y.y.e.e.y.y.e.y.r.y.a.a...A.2X7XzX7XcX8XcXcXVXAXHXSXSXSXHXSXHXHXSXSXBXsX8XmX8XvXsXSXMXMXJXFXAXSXCX1XrX1X1X1X1X>X1X1XU.S.D.D.J.D.G.D.J.G.J.D.G.D.J.D.J.J.J.J.J.S.!.uX~.~.uXuXuXuXuXuX~.yXyX~.uXyXiXyXyXyXuXiXiXiXjXtXDXKXKXLXLXLXLXKXKXKXKXKXKXKXKXKXKXKXKXKXKXKXFXFXFXDXZX1XS.P.D.y.D.y.D...L.0.@XOX$XCXZXZXZXZXZXDXCXZ.8.8.9.{.8.8.8.AXKX&Xo j.iXE.m.T.b.V.n.B.M.B.B.M.M.M.B.N.M.N.M.B.M.M.B.B.V.B.V.B.M.B.N.M.M.M.N.M.M.M.m.N.M.M.M.M.N.M.M.M.N.M.N.B.M.N.M.B.M.M.B.M.M.M.B.M.V.V.W.W.m.~.iXjXjXjXlXjXZXlXlXjXiXiXuXj $ ZXCXpXhXkXdXhXhXkXgXkXhXhXhXkXhXkXCXAXhXhXhXhXhXlXkXlXjXlXkXlXlXlXjXlXjXjXlXlXlXjXlXjXjXjXjXjXjXlXlXlXjXjXlXhXuXO.y.D.y.D.y.y.y.D.D.X.G.K.R.R.R.R.T.T.E.R.E.E.R.R.R.K.| !.uX~.uXuX~.uXuXuXuXiXuXuXtXjXjXlXlXZXlXlXZXlXZXZXlXZXlXZXZXlXZXZXZXZXZXDXFXKXLXLXIXLXLXLXLXLXLXLXLXIXLXLXLXLXLXIXLXLXPXIXLXPXLXIXJXLXJXLXJXJXLXJXIXSXSXSXSXSXJXSXSXSXJXSXHXJXSXJXJXJXHXSXPXbXGX",
"P P P P P 2 1 A P O O O O + + ; ^._.'.m c z z c z z z k z z c x x x < PXHXPXUXUXHXMXy > 2 ).HXHXUXUXIXIXPXu @.t @ ;XUXHXUXUXPXIX{.0 : & P UXPXAXUXPXIX7X6  .@ HXUXUXPXPXPXUXHX9.W +X*X*X*X|.< ; v ; ; UXUXPXUXUXIXmX5 1.0 > UXPXUXPXPXUXBX% G & {.UXUXUXUXIXUXIXIXPXHXPXHXPXUXIX8.5 @.B < l ; nXUXUXPXIXJXPXUXUX$X; ; ; x k k k c z c z z z k z z z c c z z m m _._.'.*X*X*X*X*X%X;X*XzX*XzXzXzXzXzXnXnXnXcXGX0.2.2.q.q.( ` 2.` ` ) ) ) NXdXsX9XdX9XsX9X9XNXNX3.I I 1.I I  .I 5 ) 2...~ ) ) ` ) ) ..~ ~ e.e.e.e.e.e.e.y.e.e.e.e.y.e.e.y.r.y.y.e.y.q.:XvXcXcXcX8XnXnXnXBXSXBXGXGXSXSXHXSXSXSXAXSX8XsX8XaXcXMXMXMXnXSXJXJXSXNX2XdX9X1X1X1X1X1X1X1Xa.D.J.D.G.D.J.G.G.D.J.G.J.J.G.G.J.J.J.J.k.!.!.~.uX~.uX~.~.yXyXuX~.uXyXiXuXuXiXuXiXyXyXyXiXiXhXDXKXKXKXLXLXLXLXLXKXKXKXKXLXLXKXLXKXKXKXKXFXJXFXJXDXZX,XD.U.D.y.a.y.t...p.#X#X8.&XSXZXCXZXCXZXZXCX8.9.8.9.9.8.9.Z.SXZ.. Q.iXW.b.b.n.m.V.n.m.M.V.m.B.M.B.M.M.N.M.M.B.M.M.B.M.B.M.m.B.B.N.M.M.N.M.M.n.N.M.B.V.T.M.M.M.n.M.N.M.M.N.M.M.N.N.N.B.M.B.N.n.M.M.B.B.B.B.m.V.V.T.~.yXiXjXjXlXlXZXlXlXlXiXuXlXj.X dXlXdXkXkXsXhXkXMXhXhXhXhXhXkXCXkXhXhXhXlXkXhXkXkXkXlXkXhXkXlXkXlXlXlXjXjXjXlXlXjXlXlXlXlXlXlXjXjXlXjXjXjXjXjX| D.y.D.y.o.D.o.y.D.~ G.R.R.R.R.R.R.R.R.R.R.R.R.R.R.R.| !.!.uXrXuXuXuXuXuXiXuXuXiXiXjXlXlXZXlXlXlXZXZXZXZXZXZXZXlXZXZXZXZXZXZXZXDXKXLXLXLXIXLXLXIXLXLXLXLXLXLXLXLXIXLXLXLXIXLXLXJXIXLXJXJXIXIXJXIXIXJXIXJXJXSXHXSXSXSXSXSXSXSXBXJXSXBXJXJXHXHXJXJXJXbXbX",
"T U P Y P P P A Y + X + O & O ; x (.`.^.c c z x c c z k z z c c m k n HXUXUXPXUXUXPXUXGXUXPXUXIXHXPXPXPX1.r @.q O zXUXHXPXPXUXUXPX*X$X=XIXUXPXIXHXJXUXi @.t @ mXUXPXUXUXUXIXIXPXPXPXHXPXPXPXGX% N O P UXPXPXPXUXUX8X5 1.> ; GXUXPXPXUXUXPX@ G % [.UXPXUXUXUXUXPXPXIXIXIXIXUXUX#Xe @.9 ; l l ; ).PXPXPXHXHXPXUXUXUXGXY ; l l k x c c z z k z z z z m c z c c c ^.`._.'.).oX+X+X;X;X;X;XzX*XzXzXzXnXzXnXnXnXzXGX{.2.q.q.q.` ` ..) $.` ..) dX9X9X9XeXdX8XsX9X<XsX0.1.5.I T 1.1.1.5 @.) ` ) ) ` ) ) ` ` ( ~ r.e.e.e.e.e.e.e.e.e.e.y.e.e.y.r.r.y.y.y.a.2.3XNXBXGXBXBXBXAXHXBXcXnXnXmXmXnXmXBXmX8XaXaXSXSXBXAXSXSXJXSXAXBXMXBXaX8X1X9X1X1X1X1X1X1X1XU.y.D.D.J.D.J.J.D.D.J.D.G.D.H.G.J.G.J.J.U.S.!.!.uX~.uX~.uXuX~.~.uXyXuXuXuXiXyXyXyXuXyXyXyXyXiXhXDXKXKXLXLXLXLXLXKXLXKXLXKXKXKXKXKXLXKXKXKXKXKXFXDXSXZXU.L.U.D.y.y.y.a.2.L.0.@X0.#XCXDXZXZXZXlXZXCX9.8.8.7.8.8.W $XsXo C.~.T.m.m.m.n.b.T.V.n.n.c.N.B.N.M.B.N.B.B.B.N.M.N.N.M.N.B.N.B.B.N.M.M.M.m.M.m.b.b.W.~.~.T.z.m.B.B.B.M.B.n.M.N.N.N.M.N.M.N.M.N.N.M.V.M.m.W.M.V.V.T.T.W.~.yXuXjXlXlXZXDXZXlXiXyXjXs.X DXDXdXdXhXhXkXfXCXhXkXhXhXkXAXhXkXlXhXlXhXkXkXjXkXkXkXjXlXkXjXlXlXlXlXjXjXlXlXjXjXlXjXlXjXlXlXjXjXjXlXjXjXuXX.S.D.y.y.D.D.y.o.y.~ G.K.R.R.R.R.R.R.R.R.R.R.R.R.R.R.~ !.rXuXuXuXrXjXuXuXuXuXuXhXjXjXlXZXlXZXlXZXZXZXZXZXZXZXZXlXZXlXlXZXZXDXDXFXKXKXLXLXLXIXLXIXLXLXLXLXKXLXLXIXLXLXLXLXLXJXLXJXLXLXIXJXJXPXPXIXJXJXPXSXSXAXSXSXSXSXSXSXSXSXJXSXBXSXHXJXSXPXJXSXHXDXJX",
"P 2 A P A f P y P + O O O O O ; x (.`.^.c c c z x c z k k z c c x k L GXUXIXPXUXPXUXUXUXUXIXPXJXIXPXPXo i @.e , O zXUXPXPXUXUXUXUXUXPXUXUXPXIXPXHXPX8.e 1.9 o GXUXUXUXUXUXPXPXIXPXPXPXPXPXPXPXS 5.@ @XUXPXPXUXPXUXU 5 e o . nXUXPXUXIXPXIXI I % ].UXPXUXIXUXUXUXUXUXPXUXUXUXPX@ @.t 9 l x x ; ; Y UXUXUXPXPXUXUXHXUXIXcXO n l k k c z z k k k k z c c c z c m ^.`.'.*XoXoX%X*X*X*X;X;XqX;XzXnXzXzXnXzXnXnXnXGX}.2.q.2.q._ ` ' ....1.) 1.dX7XeXdXeX9X1XsX<X9XsXA.T 5.5.1.1.T 1.5  .) ) ` ) .._ )  .~ ) ~ y.w.e.e.e.e.e.y.+.y.+.e.e.y.e.y.y.y.y.a.a...1XMXBXmXMXGXGXAXSXmX8XmXmXaXmXmXMXmXaX8X8XsXNXSXAXNXSXJXSXSXMXMXNXmX8X9X,X1X9X1X1X1X5X1X1XU.S.P.J.D.D.J.D.G.G.G.J.J.J.J.J.G.H.J.J.K.k.!.~.~.!.uXyX~.~.yXuXyXyX~.yX~.~.uXuXyXyXuXyXyXuXiXtXZXKXKXKXKXKXLXLXLXKXKXKXLXKXLXLXKXFXFXJXFXJXFXFXDXCXDXI.P.P.D.D.y.y.D.O.p.0.#X@X#XCXZXZXlXZXAXDXAXA.9.8.8.9.7.$Xj o I.~.V.V.m.V.m.m.b.~.~.W.m.n.c.M.N.M.B.M.B.B.M.B.M.B.B.N.M.B.B.B.B.n.M.M.M.M.M.m.m.~.l.g $ l.~.T.M.M.M.M.V.m.M.M.M.N.N.B.B.B.B.N.N.M.M.M.V.M.M.m.V.V.W.T.~.~.yXiXjXjXlXZXZXlXlXiXyXlXj.. dXZXhXgXhXhXgXCXhXgXhXkXhXkXkXhXkXhXkXkXkXkXkXkXjXkXkXkXjXlXkXkXlXkXlXlXjXlXlXlXlXjXjXjXjXjXjXjXjXjXjXjXiX4.y.D.D.y.y.y.D.y.D.X.G.R.R.K.R.R.R.T.R.R.K.R.K.H.R.R.| !.uXuXuXuXuXuXrXjXuXuXhXjXjXlXlXlXZXlXlXlXlXZXlXZXlXlXlXlXlXZXlXZXZXFXFXFXKXKXKXLXLXLXIXIXLXLXLXKXLXLXLXLXLXLXJXPXLXLXLXLXLXJXLXPXJXJXJXJXJXJXJXSXJXSXSXSXAXSXAXSXSXSXSXSXSXSXJXJXHXJXJXPXDXSXAX",
": : : O & : + + 1 : 1 = & : O   ; ^.`.`.c z z z z k c z z z c z x ; L PXUXIXIXUXPXPXUXUXIXPXPXPXPXUXIXE # # , ; ; zXUXPXPXUXUXUXHXUXUXUXPXUXPXUXUXOX# 1.C % o HXPXUXUXUXUXPXIXPXUXHXPXPXPXPXPXq 1.@ cXIXPXUXIXIXUXGXI I W W HXUXUXUXPXUXUXOXi 4 {.UXPXUXUXPXUXUXUXUXPXPXUXUXIXy t % ; l x x x ; ; Y PXUXPXPXPXUXPXUXUXUX=Xb v l x z z z z k z z z z c c z x m (._.'.*XoX*X*X*X;X;X;XzXzX*XzXzXnXnXnXnXzXnXnXGX}.2.2.q.q._ ` ` @.$. . .1.fX9XrX8X9XpX8X8X9X7XsX8.1.5.@.5.T I 1.q ) ) ~ ..` ~ ) ` ` ..~ ~ y.e.e.e.+.e.e.y.e.y.e.y.e.y.y.e.r.y.r.y.y.O.1XBXMXGXGXMXAXBXSXnXaX8XnXnXnXmXBXaX8X8X8XaXSXMXNXSXSXSXJXSXVXBXBXvXmX9X1X9X1X1X5X1X1X1X1X>XS.D.D.J.D.G.J.D.D.J.J.D.J.J.J.J.D.J.J.U.S.!.!.uXuX~.~.uXuX~.uX~.uXyX~.yXuXyXyX~.yXuXuXyXyXiXuXDXFXKXKXFXKXKXKXKXKXKXKXKXKXKXKXFXKXKXFXFXFXDXFXDXDXSXU.S.P.D.y.y.y.a...p.A.@X0.#XAXZXZXkXZXhXlXAXZ.9.Z.9.9.Z.U . C.yXT.m.m.n.v.V.T.E.g 7 F.~.m.n.M.N.N.M.M.B.B.N.B.B.B.B.B.B.M.B.N.B.M.M.M.M.M.M.m.W.F.. $ o o Q.W.m.M.n.n.M.M.N.N.M.M.N.B.B.N.B.B.B.M.V.m.V.B.B.B.V.V.V.W.T.E.~.uXiXjXlXlXlXZXZXjXiXiXjXj.= hXkXhXhXdXkXhXhXhXhXkXhXhXkXkXkXlXhXlXkXkXlXkXkXjXkXkXlXjXkXjXkXjXlXlXjXlXjXjXlXjXlXlXjXlXjXlXjXjXjXjXjXX.S.y.o.D.y.y.D.y.D.] G.R.K.R.K.R.z.K.R.R.R.R.m.R.K.K.| !.!.rXuXuXuXuXuXuXuXjXhXiXjXlXlXZXlXZXlXlXlXlXlXlXZXZXlXZXZXZXDXDXDXKXKXKXKXKXKXLXLXIXLXLXLXLXLXLXKXLXLXLXLXLXIXLXLXLXJXIXLXPXLXLXJXLXIXLXLXJXSXSXSXSXSXSXSXJXSXAXSXSXAXGXSXHXLXIXLXBXpX&X+X#X$X",
"9.OXE : P P P P P I P A A P Y E Y /.`.`.^.c z z k c z c c c c z x k l PXUXPXUXUXHXUXPXSXHXUXUXPXPXPXPXUXPXS ; v X zXUXPXPXUXUXUXPXUXUXPXPXPXPXUXUXS @.C , , ; HXIXPXPXUXUXIXPXJXBXPXHXHXHXPX}.0 @.# PXPXIXIXIXUXGXUXUXUXUXUXPXHXUXPXUXUXUX#X7 u Z.UXPXPXUXUXUXUXUXUXPXPXUXPXIXSXS B v ; x x z k k ; ; zXIXJXIXIXPXPXUXPXPX, F , l k z z k z z z z c z m c c ^.`.'.'.*XoX+X*X*X;X;X;X;XzX;XqXzXzXzXnXzXGXnXnXBX}.2.t.q.q._ ` ' `  .$. .) dX1X8XpXdX1X1XpXeX8XmX0.T 5.5.5.5.@.1.q ) ) ` ) ) ) ` ) ` ` ) ~ r.O.e.e.e.e.e.e.e.e.e.e.e.e.e.y.y.y.y.a.P...9XfXmXMXMXVXBXAXHXMXnXnXmXmXmXmXmX8X7X8X8XaXBXMXSXSXJXDXSXSXMXMXsX8X8X9X,X1X1X1X1X1X1X1X1XU.y.P.J.D.J.D.J.G.G.J.G.J.J.D.J.J.H.J.J.K.k.!.~.~.~.uX~.~.~.uX~.yX~.~.uXyX~.uX~.yXuXyXyXuXuXjXtXDXFXKXFXKXFXKXFXFXFXJXFXKXKXKXKXKXKXFXKXDXKXFXJXSXDXZXI.D.J.D.D.a.y.D...p.@XZ.Z.&XZXDXAXZXZXAXZXkXZ.W E W @X7.. F.~.m.m.v.n.m.B.T.~.$ o o $ !.W.N.M.n.M.N.N.B.B.M.M.N.B.M.B.B.B.M.B.B.M.M.M.M.m.M.T.~.g $ $ $ o h E.b.M.n.M.n.B.B.B.N.N.M.B.B.M.B.N.B.B.B.W.m.V.B.B.M.B.V.V.W.W.T.~.yXiXjXjXlXZXZXhXlXiXtXjXj - DXkXpXAXVXpXlXhXhXgXhXAXhXkXgXhXhXhXkXlXhXkXjXkXlXlXkXlXlXlXlXlXlXlXlXjXlXlXjXlXjXlXjXjXjXjXjXjXjXjXhX+.D.y.D.y.o.y.o.+.y.X.G.K.H.z.R.R.R.R.m.R.K.R.K.T.R.R.~ !.uX~.uXuXrXuXuXrXuXiXjXjXjXjXlXlXlXlXlXlXlXlXlXlXlXlXlXZXZXZXFXFXKXKXKXKXKXKXKXKXKXLXLXLXLXLXLXKXLXLXLXLXIXLXLXIXLXLXLXLXPXLXJXLXLXLXLXJXJXJXSXSXSXAXSXSXSXSXAXJXJXJXSXSXIXLXHXpX$X;X;XaXVXgXaX",
"P P P & Y P P A A A f n A 1 f A M M `.`.^.m c c c z z z c c z z z k < PXUXUXUXUXUX8X> 4 0 P @XUXUXUXUXPXUXUXD Z o ;XUXPXPXUXUXUXHXPXPXUXPXPXPXPXUXBX@ B ; ; O BXUXUXUXUXUXUX@X% 0 9 u 9 u 4 e 1.i @ UXPXPXPXUXUXUXUXPXPXPXPXHXPXUXUXUXPXUXmX4 i 9.IXIXIXUXPXUXUXIXUXPXPXUXLXPXUXHX% D ; l z z z x k k O Y UXPXUXPXPXPXIXUX2Xe 9 ; x x x z z z c c c z z m c ^.`.(.'.*X%X%X*X*X%X;X;XzXzX;XqXzXnXzXnXGXzXnXnXGX}.2.2.q.q._ ` ..$.2.`  .@.fX1X1XpXdXpX8XpX9X1XsX0.K 1.5.T T @.1.5  .) ) ` ) ) ~ ` ) ..( ~ t.e.e.e.+.e.e.e.y.e.y.e.y.e.e.y.y.y.y.y.a...1XfXMXnXAXAXAXBXAXmXcX8XmXmXmXmXvX8X8X8X8XaXBXAXAXDXJXSXSXJXNXMX8X8XvXdX1X1X1X>X1X1X1X1X>XU.S.D.D.J.D.J.J.D.J.J.J.J.J.J.J.J.J.J.G.K.S.!.~.!.~.uX~.~.~.uX~.uXyX~.~.uX~.uXuXuXyXyXuX~.yXiXtXFXFXKXFXFXKXKXFXFXKXKXKXKXKXFXFXFXFXKXKXKXKXFXFXDXSXDXI.D.P.y.y.D.y.a...A.Z.Z.Z.A.AXDXlXVXgXhXhXgX#X%X;XgX&Xo | yXm.W.v.M.n.n.m.W.j.X $ * o j.~.b.N.M.n.M.M.B.N.M.B.B.N.B.M.B.B.M.M.M.M.N.M.M.n.m.T.F.. $ o = $ - Q.T.B.n.n.n.N.B.N.M.N.M.B.N.B.M.M.M.M.M.M.M.V.M.B.B.N.B.B.W.V.T.T.W.~.iXjXlXlXlXlXZXjXiXyXjXg U DXMXhXhXAXpXhXlXkXkXhXhXAXhXkXkXkXkXkXkXjXlXhXkXkXlXkXlXlXlXlXlXlXlXjXlXjXlXjXlXjXjXlXjXjXjXjXjXjXjXO.D.y.D.y.D.D.D.o.y.~ z.K.R.z.R.R.K.T.H.R.R.H.R.m.R.K.| !.rXrXuXuXrXuXhXrXjXjXjXjXjXlXlXlXjXjXlXlXjXlXlXlXlXlXZXZXDXDXFXLXKXKXFXFXFXFXFXKXKXKXLXLXLXKXLXLXLXLXLXLXLXLXLXLXLXLXLXJXLXJXPXLXJXLXLXJXJXSXAXSXSXSXSXDXFXJXDXAXdXpXqXqXpX;X+X*XqX7XgXVXVXnXVX",
"P P P 1 P P P P P n A P f A n 2 n M ^._._.m c z c z z c c z z k z ; < GXUXIXUXUXPXI i @.F Z O ).PXUXPXPXHXUXnX0 1 $XUXPXPXPXUXUXUX@ u IXUXPXPXPXPXIX#X> b ; X GXUXUXUXPXPXUX5.G G e G F Z B C 9 % Z UXUXPXUXUXUXUXUXUXUXPXPXPXPXUXUXUXPXUXUX# i 3.IXIXPXUXPXUXGXy -XUXPXPXIXHXUXPXzX, V l l z k x x l l X +XUXUXPXUXHXPXUX8X5 C ; x k c z z z z z c z z m m _._.'.*X*XoX*X+X*X;X;XzXzXqX;XzXzXnXGXnXzXnXnXnXBX}.2.u.q.q.( ` ..` ` 1.) 1.dXpXdX8X9XaX1X1XpX7XsX8.5.5.5.@.5.T 1.q @.) _ ) ) ~ ) ) ) ) _ _ r.e.+.e.e.e.e.e.e.e.e.+.e.y.e.y.y.e.y.y.a...1XNXBXMXVXMXAXGXGXBXaXnXmXcXmXmX7XcX8X9X9XsXSXCXSXSXDXSXSXJXMXsX8XvX9X9X:X9X1X1X1X1X1X1X1XU.S.P.U.D.D.J.J.G.J.D.J.G.D.J.J.J.J.K.G.K.k.K.~.~.~.uX~.rXyX~.uX~.~.uXuXyXuX~.~.yXuXyXyXuXuXjXuXDXFXKXKXFXKXFXFXKXKXKXKXKXKXKXFXFXDXFXKXKXFXDXFXDXCXSXI.S.U.D.y.y.y.P...I.<X;X&XqXqXqXqXqXqXqXqX0X0XqXqXVXX g iXE.E.m.M.c.n.m.W.Q.$ @ : $ o h ~.m.M.M.N.M.M.N.B.B.M.B.M.B.B.B.B.N.M.M.M.M.M.M.M.V.W.j.. + $ O O o j.W.M.n.M.n.N.B.M.N.M.N.B.M.B.B.B.V.M.M.M.M.M.M.B.B.N.V.B.V.V.W.T.W.~.~.iXjXlXlXZXZXlXjXyXiXiX= C.FXpXkXhXhXhXdXhXfXkXhXhXhXkXkXlXhXkXjXkXkXjXlXjXkXjXkXkXjXkXjXjXjXlXlXlXjXlXjXlXjXlXjXjXjXjXlXjXuXX.y.D.y.y.y.y.y.y.D.[ D.K.K.K.H.K.m.H.R.K.z.R.R.K.K.K.~ !.uXrXuXuXuXuXuXjXjXjXiXjXjXjXjXjXlXlXlXlXlXlXlXlXZXZXAXDXFXFXKXKXFXDXZXDXZXDXZXDXDXFXKXLXLXLXLXLXLXLXLXLXLXLXLXLXLXIXLXPXLXLXJXJXLXHXJXJXSXAXSXSXZXDXCXpXA.Z.Z.Z.0X%X&XqXwXgXgXbXbXqX%X%X%X&XqX",
"P P Y 1 P P A A P P f A P A L y n M (._.(.m m m c z z z z z z k l ; ; GXUXPXUXUXIX8.i 9 , ; ; : GXPXPXUXJXJXJX5 S 0.PXUXIXIXUXUX8X0 0 @XUXUXPXPXPXPXUXu I & X GXUXUXUXPXJXUX5.G 9 % ; , l ; ; , ; W UXPXUXPXUXPXUXPXUXPXPXUXUXUXUXUXUXUXPXPX3 i 9.UXIXIXPXUXUXcXu $ UXUXUXHXPXUXHXUX5.> , ; l z k ; z ; ; oXUXPXUXIXIXHXIXBXe t , k x c z z z z z z z z c m `._.'.*XoX*X*X;X;X;X;XzXzXzX;XzXnXzXzXnXnXnXnXnXGX}.2.q.q.q._ ` ` ` ` ` 1. .dXpXdXpXeX8XpX8XaX1XsX0.1.5.5.5.5.@.1.q  .) ` ) ` ) ) _ ) ` ~ ~ r.+.w.e.e.y.+.e.e.e.e.y.y.e.y.y.y.y.e.y.y.O.1XNXMXBXMXBXAXBXHXnXnX8XmXmXmX8X7X8X8X8XvXvXBXSXSXSXSXSXSXJXsXsX8X9X9X9X1X1X1X1X1X1X>X1XP.1XS.D.J.J.J.G.J.D.J.D.G.J.G.J.J.J.J.J.G.K.k.!.uX~.!.uX~.uX~.uXuXuXuXuX~.~.yXuXyXuX~.yXyXyXyXjXrXDXFXKXKXKXKXKXKXKXFXKXFXFXKXFXKXKXKXKXKXFXFXDXDXSXDXDXU.P.P.D.y.D.y.y. .dXpXpXtXwXqXqX0X0XwXqX0XqXqX%XHXd $ iX~.v.m.m.m.M.n.M.~.h . o & * o h ~.b.B.M.M.M.M.M.M.B.B.B.B.M.N.M.M.B.N.n.M.n.N.n.N.T.~.g o o = o X o | ~.M.M.M.n.M.B.M.N.N.N.B.B.M.N.B.B.B.V.M.M.V.M.B.B.M.V.M.B.V.V.V.W.T.~.~.iXjXjXZXZXZXjXiXtXiXQ.O pXZXhXhXhXpXlXhXhXhXMXkXkXkXhXkXhXlXkXjXkXkXkXkXlXjXlXlXkXlXkXlXjXjXlXjXlXlXjXlXjXjXjXjXlXjXjXjXuX| D.D.y.o.y.y.D.y.D.X.D.K.K.K.K.R.K.K.R.R.K.R.K.H.R.K.~ U.rXrXuXrXjXhXjXjXuXjXjXjXjXjXjXjXlXjXjXjXlXlXlXZXZXDXDXFXFXFXFXFXDXZXlXZXlXZXZXZXZXFXFXFXLXLXLXLXJXLXLXLXLXLXLXLXLXJXJXLXJXJXLXLXJXIXKXDXKXLXSXeXZ.Z.C.0XgXhXAXAXVXVXVXVXVXVXVXVXVXVXVXVXVXwX0X",
"P A P 1 P P A P A P P P n P A 2 n M M (.'.^.m c c c z z z z z z x ; ; GXUXUXPXUXUXE u B , , ; Y PXUXPXPXPXIXKXu i 1.PXJXIXUXUXUXBX5 i o UXUXPXPXHXPXUXUX0 B X BXUXPXPXIXHXUX8.S 9 @ ; ; ; ; k k ; *XUXIXPXUXPXUXUXPXJXPXPXUXUXUXUXUXPXPXPXUXe ( 5.UXUXPXPXUXUXcXi i P UXPXUXPXPXHXPXPXG F ; ; k ; ; ; X W UXPXPXUXUXIXHXIX8X0 @.; k x c z z c z z z z z c ^.'.`.'.*XoX*X%X*X*X;X;XqXzXzXqXzXzXnXGXzXnXnXnXGXBX}.1.q.q.q._ ' 2.` ` 2.`  .9X9X1XpX1XdX1X8X8X8XsX8.T 5.@.T 1.T 1.5 ) ) ) ` ~ ..) ) ` ) ( _ t.e.e.e.e.e.e.e.y.e.e.e.e.y.y.e.y.y.y.y.P...1XMXBXnXMXAXBXAXBXMX8XmXmXmXcX7X8X6X7X9X8X8XSXJXJXSXSXJXSXSXaXaXmX8X6X9X,X9X1X1X1X1X1X1X1X1Xy.D.J.D.D.J.J.J.J.J.J.J.G.J.J.J.J.K.G.G.S.!.!.uX~.yX!.~.~.uX~.yXuX~.yXuXyX~.uX~.uX~.yXyXuXiXtXFXFXKXKXKXLXLXKXKXKXFXDXCXAXAXfXgXsXpXpXpXAXDXFXDXSXZXI.P.J.D.y.a.y.y.| pXeXqXqXqXwXqXwXqX0XqXwX0XqXgXj   uX~.T.z.m.m.m.B.n.T.yX- o o $ o O g E.m.M.M.M.B.M.M.B.M.M.N.B.B.B.B.B.B.N.N.n.N.n.N.N.m.Q.o $ O o X o o h ~.m.M.N.M.M.N.N.N.M.M.M.B.B.B.V.B.M.M.M.W.M.M.B.B.M.n.B.B.T.M.V.V.W.T.!.~.iXjXlXlXZXlXlXjXiXiXQ.X kXAXpXhXZXhXhXhXkXhXhXhXhXkXkXkXkXkXkXkXlXkXjXkXkXkXlXjXlXjXkXjXlXhXlXlXjXlXjXlXjXlXjXlXjXjXjXiX4.y.y.D.y.D.y.y.y.o.~ D.K.G.H.H.K.z.K.z.R.K.K.R.z.K.R.| !.uX!.uX!.uXuXjXhXjXjXiXjXjXjXjXlXjXjXlXlXlXZXZXZXDXFXFXFXFXFXDXZXZXlXlXlXlXlXlXZXZXDXFXFXKXLXLXLXLXLXLXLXKXLXLXPXLXIXLXJXLXKXJXJXKXAXLXDXpXZ.Z.qXlXkXVXAXgXgXgXgXwXVXbXbXVXbXbXbXVXbXbXbXVXbXVX",
"P P P > P P P P A P P A P 2 P P A n M ^._._.m x c c z z z z z z x x ; GXPXPXPXUXIX=Xo > X ; O GXPXUXUXUXPXPXHXe i 1.IXIXPXUXUXUX9X4 G @ -XUXPXHXUXPXPXUXG S o nXUXPXIXUXIXIXnXP S T P Y Y Y n X   =XUXUXPXPXUXUXHXPXI i S [.PXHXUXPXUXUXPXUXi i U UXHXHXPXPXUX8Xe i o GXUXUXHXPXUXPXUXBX& F O ; Y oX*XGXUXUXUXUXUXPXPXPXUX2Xe t ; l c c x z z c z z k c m ^.`.(.*XoX+X*X%X;X;X;X;XzXzXnX;XqXzXnXzXGXzXGXnXGXGX}.6.q.2.t.( _ ` ' ` 2.`  .dX1X7X1XaXpX8X8X1X8XdX0.5.1.T T G 1.I e  .` ) _ ~ ) _ ) ~ ) ~ _ e.e.e.e.e.e.e.y.e.e.y.y.e.y.+.y.y.y.y.y.y...1XMXBXnXBXAXAXMXAXcX8XmXvX8X8X6X7X8X9X7X9X8XSXAXSXDXSXJXSXAXaXsX8X9X8X8X1X9X1X1X1X1X>X1X1XU.D.D.J.J.J.J.D.J.J.D.J.J.J.J.J.U.J.J.J.K.S.!.uXuXuX~.uX~.~.uXuX~.uXyXuX~.uXyX~.uXuXiXuXiXuXjXtXZXFXKXKXKXKXLXKXKXKXDXMXAXhXAXZXAXZXAXAXAXMXFXFXSXSXZXI.P.P.D.y.D.y.a.| 1XqXqXwX0X0XqXwXqX0X0X0X0XqXVX  C.~.m.m.T.M.M.m.m.v.T.Q.O o X X $ o g ~.m.M.n.M.M.M.M.M.N.N.N.N.M.N.N.M.M.M.n.B.N.n.c.n.m.Q.. o . O . . . g ~.T.n.N.n.N.N.N.N.n.N.M.N.B.B.M.M.B.B.V.B.B.V.M.B.B.V.M.M.M.M.M.V.T.W.T.W.yXiXlXlXZXZXlXlXiXyXjXg j ZXhXhXtXdXhXhXhXhXfXkXkXkXjXhXkXhXhXkXlXjXkXkXkXjXlXkXlXkXlXlXlXjXkXjXkXjXjXjXjXjXlXjXjXlXjXhX| D.D.D.y.y.y.y.o.y.X.y.J.G.z.K.z.K.K.K.K.z.K.H.T.K.K.| K.rXrXuXuXrXrXuXjXiXjXjXjXjXjXjXjXjXlXlXlXZXZXDXKXKXKXKXFXFXAXZXlXlXlXlXlXlXlXlXZXZXZXFXFXKXLXLXLXLXDXLXKXJXLXLXLXJXJXJXJXJXJXLXJXKXFXeXZ.0XjXlXlXVXVXgXVXgXwXVXVXwXbXbXbXbXbXbXbXbXbXbXbXbXbXbX",
"P S S 1 P S A A A A P 2 P 2 1 2 2 n M (.`.`.m m c c c z z z z c x k ; nXPXPXUXIXHXIXnX=XzXnXPXUXUXUXIXHXUXPXBX4 G i IXPXPXPXPXUXBX% K % O UXPXHXUXPXUXUXSX0 @ 7XUXIXPXPXHXPXIXPXUXUXPXUXPXPXUXW : *XUXHXPXPXUXUXUXG 5 ( G O =XUXUXUXPXPXUXUXi 1.S UXPXPXPXLXUX-Xr @.o < UXUXPXUXUXPXUXUXT F n UXPXPXUXUXIXPXUXUXUXPXPXPXPX% @.C ; k k c c z z z c z z c m ^.'.'.'.*X+X*X*X*X*X;XzXzXzXnX;XzXzXnXGXzXGXnXnXnXBX}.$.u.q.q._ _ ` ` ` ` )  .fXdXpXpX1X7X,XdX8X,XsX8.I 1.5.1.I 5.1.5 ) ) ) ( ` ` ) ) ` ..) ~ y.w.e.e.e.e.e.e.y.e.e.e.y.e.y.y.y.y.y.D.y.4.1XNXmXAXGXAXBXSXSXmX8XsX8X9X7X7X9X8X8X8XsXBXSXJXSXSXSXSXSXMXsX8X7X9X9X9X,X1X1X1X1X1X1X1X1XP.S.D.D.D.D.G.J.J.J.J.G.J.J.J.J.J.K.K.K.K.k.!.uXuXuXuXuXuXuXuXuXiXuXuXiXyXyXuXiXiXiXiXjXiXjXlXhXDXFXKXKXKXKXKXKXFXFXDXAXDXDXAXAXAXhXAXCXCXMXFXDXCXZXCXI.D.U.y.y.y.y.P. .dXpXwX0XwXwX0XqXwX0XwX0XqXVX= 7 iXb.B.B.b.M.n.m.m.m.W.| . X X o o o 7 ~.m.M.n.M.M.M.M.n.N.N.M.M.N.M.N.N.N.N.N.M.M.n.N.b.~.| o . . o o o o 7 !.m.m.n.N.N.N.N.N.N.N.M.N.M.N.M.M.M.B.B.B.B.B.M.M.V.M.W.M.M.V.M.B.V.V.V.T.~.~.iXlXlXZXZXlXjXiXyXjXX eXZXhXhXdXkXfXkXhXhXhXhXhXkXkXhXkXkXkXhXkXlXjXlXkXjXkXkXjXkXjXjXkXjXlXlXjXkXjXjXlXjXjXjXjXjXjX+.+.y.y.y.y.y.D.y.D.X.D.J.z.K.K.H.K.z.R.H.R.K.G.R.K.K.~ !.rXrXuXrXuXuXuXhXuXjXiXhXjXjXlXjXlXlXZXZXZXDXFXKXKXLXKXKXFXZXlXlXlXlXjXlXlXlXlXZXZXDXFXKXKXLXLXLXLXLXLXLXJXLXKXHXJXLXJXJXJXLXLXSX&XZ.gXZXVXgXgXgXgXgXgXwXgXwXwXwXbXbXbXbXbXbXbXbXbXbXGXbXbXbXbX",
"y 2 1 : > 1 1 1 1 1 : : 1 : : - 1 + l M _.`.m m c c z z z z z k z x ; oXUXHXUXIXHXPXUXPXPXPXPXHXPXHXIXIXPXPX1.( i 0 UXPXPXPXPXUXBX% G % X *XUXHXPXPXPXPXPXu 5 0.PXUXPXHXUXUXHXPXPXPXPXPXHXUXPXGX& 9.UXPXPXPXPXUXUX@ 1.w % ; Y UXUXPXUXPXHXIX5 ( 7 IXPXPXUXPXUX,Xr t % ; ).UXUXIXPXPXHXUX-X. BXUXUXPXPXPXIXUXUXUXPXUXJXPX}.9 @.9 l k c x z z c c c z z m m _._.'.*XoX*X*X*X*X;X;XzXqXzXzXzXzXnXzXnXzXzXGXnXnXBX#X2.q.q.q._ ) $.` @...) 1.9XsXeX8XaX9XeX8X<X1XsX3.3.I 1.1.5.I  .0 1.) ..) ) ) ) ` ` ) ( ~ y.w.e.e.y.e.e.y.e.e.y.e.e.e.r.y.y.y.y.y.D...1XMXMXnXMXAXBXBXSXMXmXsX9X8X7X9X8X6X7X9XsXmXJXSXDXSXSXSXSXNX8X9X7XsX8X9X2X1X>X1X1X1X1X1X1XU.S.P.D.J.J.G.D.J.J.J.G.G.J.J.K.J.J.K.K.R.l.rXrXuXuXuXhXuXuXuXuXuXuXrXtXtXtXrXtXrXtXeXtXeXeXhXhXDXFXFXKXFXKXFXFXFXDXAXgXAXAXAXZXAXAXAXAXAXAXDXDXDXSXDXP.L.U.D.y.D.y.a.| 1XeX0XwX0X0XqXqX0XwX0X0XgXZ.X iXT.V.c.B.n.B.n.n.M.m.~.$ . . . o o o g ~.m.N.n.M.M.N.N.N.N.M.N.N.M.M.N.N.M.N.M.M.M.n.m.B.~.g o o . X X X o - !.W.M.n.N.M.N.N.n.M.M.M.M.B.M.M.N.N.B.B.B.B.B.W.M.m.V.M.M.V.V.V.M.V.V.V.T.W.!.uXiXlXlXlXlXlXjXiXyXtX  lXZXdXkXhXsXkXhXhXhXkXkXkXhXkXkXjXkXkXjXjXkXhXkXkXjXkXlXlXkXlXjXkXjXjXjXlXjXjXjXjXjXjXjXhXjXO.D.o.D.D.y.y.y.y.y.] D.z.G.G.H.z.K.K.H.H.K.z.H.z.K.J.| !.rXrXuXrXuXrXhXrXjXjXhXjXjXjXgXlXZXZXDXDXDXFXFXKXKXKXKXFXDXZXlXjXlXlXlXlXlXZXZXZXDXDXKXKXKXLXLXLXLXLXLXJXJXJXLXLXLXJXJXJXLXDX;X&XgXVXlXZXgXgXgXgXgXgXwXgXwXgXwXwXgXbXbXbXbXbXbXbXbXbXbXbXbXbXbX",
"u A A S y A A A y A y 2 y 2 2 2 2 n v M `.`.^.x c c c c z z z z z ; ; < PXUXPXPXHXIXPXPXPXPXUXPXUXPXLXJXPX2X9 @.9 : GXPXHXPXPXUXSX4 C , ; ; PXPXPXPXPXPXIXI i I UXPXUXPXHXPXUXUXPXPXHXUXUXPXPXMXu u UXHXPXPXPXPXBX3 @.9 ; ; ; UXPXPXPXPXPXLX3 ) o UXPXPXHXJXPX=X^ w ; l O PXUXPXPXPXPXUX7Xo JXIXPXPXLXHXHXPXPXUXUXUXUX:X3 @.B , ; l c c z z z z z z c m ^.`.(.'.).+X+X+X$X%X*X*X*X*XqXzX;XnXnXnXzXGXnXnXGXvXHX}.4.q.q.q._ ) ......` )  .sX1XpXpX<XpXaX<XpX8XsX8.I I U I I I 1.5  .) ~ ) ) _ ` ` ) ` _ ~ r.e.e.e.e.e.e.e.y.e.e.e.+.y.y.y.r.y.y.y.a.O.1XfXNXMXaXBXAXMXBXmX8X8X8X7X7X8X9X7X8X8XmXMXSXSXSXAXCXSXCXMXpXdX8X9X8X9X,X1X1X1X1X1X1XP.U.1XD.D.J.G.D.J.J.J.J.J.J.G.J.J.J.J.U.K.J.U.S.!.rXeXtXeXtXrXtXdXpXhXhXhXhXhXhXhXlXhXjXhXZXkXkXZXDXFXKXFXFXFXFXFXFXDXFXCXAXDXAXAXVXZXVXAXZXVXsXDXDXDXZXCXI.D.P.D.y.a.y.D. .eXqXtX0XwXwXqXwX0X0X0X0X0XX C.yXm.n.n.n.B.B.n.n.m.E.Q.o o . . X o o 7 E.m.M.N.n.n.n.N.n.n.N.M.N.M.N.M.N.N.M.M.n.N.n.b.b.T.- . o . . O . o o Q.m.m.n.N.M.N.N.N.M.N.N.B.B.N.N.N.M.N.B.B.B.B.M.M.V.m.M.W.m.B.V.B.b.V.V.V.W.T.~.yXjXlXlXlXlXlXiXyXiXg g DXhXtXkXhXfXhXkXhXhXhXhXkXkXjXkXhXkXkXkXhXkXjXhXkXjXjXhXjXjXkXlXkXjXkXjXjXkXhXhXjXjXhXuXhXX.t.y.y.y.y.o.y.y.D.~ G.G.G.z.G.H.G.K.z.G.G.K.K.K.K.J.| U.uX!.uXuXrXuXuXuXhXjXjXjXjXlXlXZXZXFXKXFXFXFXKXKXKXKXKXFXDXlXlXjXlXlXlXZXZXZXDXDXFXFXKXKXLXJXKXLXJXKXJXLXFXKXJXDXHXDXJXDXMXA.pXKXFXgXlXVXgXgXgXgXgXgXgXwXwXgXwXwXbXbXbXbXbXbXbXbXbXbXbXbXbXbXbX",
"A y A u A y u A y 2 y 2 y 2 1 2 1 2 2 v ^.`._.m c z z c c c z z k ; k ; GXPXUXHXPXPXPXHXPXPXPXPXUXUXLXLX0.# @.C ; ; ;XPXPXPXUXPX9X4 G , k ; ).PXPXPXHXUXJXu @.q cXPXUXPXUXPXUXHXPXPXPXHXPXJXUX{.i @ PXUXPXHXPXPX6X6 @., ; ; ; GXPXUXPXPXPX6X3 @.o ;XUXHXUXJXPXi @.t l l ; n UXPXUXPXPXUX}.@ 7XIXPXPXPXPXPXHXPXUXUXHX1.3 $.C , l l k z z z z z z z z c m ^.'.(.'.*X+X*X*X;X*X;X;XzXzXzXnXzXzXzXGXGXGXGXnXnXGXBX}.2.u.q.q.` ` ..` $...) ( ,XL.&XA.&X&X&X&X#XA.,X#X&X#X#X#X#X#X#X4 ) ) ) ) ~ ` ` ) ` ) _ ~ t.e.e.e.e.e.e.e.e.y.e.y.y.e.y.y.y.y.y.y.D.O.1XfXsXmXdXNXAXMXMXaX9X7X7X7X7X3X7X7X8XsXsXsXSXSXSXCXCXCXfXCX1XdX8X9X9X9X,X1X1X1X1X1X1XU.1XU.S.P.J.J.D.G.J.J.J.J.J.H.G.J.J.J.K.K.K.!.S.jXZXZXDXDXDXDXDXDXDXDXDXDXDXDXDXDXDXDXFXDXFXDXDXDXFXFXFXFXFXFXKXFXFXFXFXAXhXAXlXAXkXVXVXVXZXAXVXDXSXSXSXCXI.P.P.y.y.y.y.D.| 9XeX0X0X0X0XwX0X0XqX0XlXg - jXT.T.M.c.M.M.n.n.n.v.~.| . o . . X o . g E.n.n.M.M.M.n.N.N.M.M.M.M.M.N.M.M.N.M.M.n.M.n.n.T.j.$ o . o . .   o X F.W.m.n.N.N.N.N.N.N.M.B.M.B.B.M.B.B.B.B.B.B.V.M.M.m.V.B.V.B.B.M.M.M.V.V.m.W.W.E.~.yXjXlXlXZXlXjXiXyXjXX eXZXhXhXhXhXkXfXhXhXhXkXhXkXhXkXhXhXhXhXkXjXkXhXhXhXkXjXkXkXkXhXkXjXjXhXjXjXjXhXjXjXjXjXjXt.+.D.y.y.y.o.y.y.o.[ D.D.z.G.K.G.z.G.G.K.K.K.G.H.K.K.~ U.rXuXuXuXrXuXuXjXjXjXjXjXlXlXZXZXDXKXKXKXKXKXFXFXKXKXKXFXZXZXlXjXlXlXZXZXZXZXDXFXFXKXLXLXLXLXKXKXKXLXJXLXDXJXLXFXIXSXKXdXdXFXKXCXgXCXAXAXZXAXlXgXgXgXgXgXwXwXwXgXbXbXbXbXbXbXbXbXbXbXbXbXbXbXbX",
"u A S y S A y A y u A 2 A 2 u 2 y 2 1 M ^._.`.m c z z c z z c z k x k ; ; zXUXUXUXUXUXUXIXUXIXUXUXPX#X5 4 5.t , l ; ; PXUXPXUXHX@.@.C ; l ; ; ;XUXUXUXPX0.q @.% ; GXUXUXUXUXUXUXUXUXUXUXPXPX}.% @.q Z UXUXUXPXHXe @.B , k k ; Y UXUXUXUXPX4 #.t , < UXUXUXUX9X3 @.9 l l k ; W PXUXUXUXBX# G > PXUXUXPXUXPXUXUX2X[.# G @.9 9 ; l z c c c z z z z z c c m _._.'.*X*X+X*X;X*X;XzX;XzXqXqXzXnXzXnXzXGXzXzXGXGXnXHX}.1.q.q.q._ ` $.` )  .1.i ,X&X&X#XA.A.&X&X&X&X&X&X&X&X#X#X#XA.,X4  .) ) ) ) ` ` ` ` ` ` ~ r.e.e.y.e.e.y.e.e.e.e.y.e.y.y.e.y.y.y.y.D...P.fXdXdXdXdXdXdXNXdXfXdXdXdXfXfXdXdXsXNXNXMXNXNXCXNXfXfXdXdXeXdXfXNXNXfX,X1X1X1X1X1X1X>X1X1Xy.D.J.J.J.J.J.J.D.J.J.J.K.J.J.K.J.U.K.U.S.uXZXDXSXDXFXFXFXFXFXFXFXFXFXFXKXFXFXKXFXFXKXFXFXFXKXFXKXKXFXKXKXFXFXFXKXCXMXAXVXAXVXDXkXAXDXgXsXFXDXSXSXCXP.D.P.D.D.y.y.P. .eXeXwXwX0XqXwXqX0XqXgX%XX F.W.T.M.n.n.n.n.m.m.c.m.~.7 . + . . . X o 7 ~.m.M.n.M.N.n.M.N.n.M.N.N.M.M.N.N.M.M.N.n.n.n.m.W.j.o .   . .     X   F.E.m.n.N.M.N.N.n.n.N.M.B.B.B.B.M.M.B.B.B.N.N.B.B.V.V.B.M.B.B.M.M.M.M.B.V.V.T.T.W.~.yXlXlXZXZXlXjXyXiXj.- ZXhXhXMXhXsXhXfXhXhXkXhXhXhXhXkXkXhXhXhXhXhXjXhXhXhXkXhXjXjXjXhXjXkXjXhXhXjXjXjXhXuXhXiX| y.y.y.y.D.D.y.y.y.X.y.G.k.z.G.G.G.G.K.G.G.H.G.H.G.K.| !.rXuXrXrXuXrXhXjXjXuXjXlXlXZXZXDXFXKXLXKXFXKXFXKXFXFXFXFXDXZXlXjXjXlXlXlXZXZXDXFXKXLXLXLXLXLXKXKXKXKXLXAXJXJXSXLXJXLX#X3.I 7 @ # @ @ o @ 7 j Z.pXFXZXVXVXgXbXwXVXbXbXbXbXbXbXbXbXbXbXbXbX0XbXbX",
"A u S A S u A y P A y y u 1 u 2 y 2 2 M ^./._.^.m z z z z z c c c c x l k ; O S R }.}.$X#X}.}.I e # e @.@.9 , l k x l ; H }.[.3 w 1., ; x k k ; < -X}.9 w @.C % ; O < F 9.}.}.=X@X#X0.5.4 # e 6.K , O X T @X5.4 @.@., ; l x ; ; ; W [.1.3 @.@., ; ; ; T @X@.# 6.e ; v x x k ; n [.=XG 3 #.6., X P OX=X}.5.e % q e @.C N , ; x k k c c z z z z z z c m m `._.'.*X+X+X*X*X;X*X;X;XzXzXzXnXnXzXnXnXzXGXzXnXzXnXGX}.2.u.q.q._ _ $. .` ` ..i &XA.&XI.&X&X&XA.#X&XA.&X&XA.A.#X#XA.&X3  . .) ~ _ ) ` ` ` ` ~ ~ y.e.e.e.e.e.e.e.y.y.e.e.y.r.y.y.y.y.y.y.y.q.L.rXrXdXfXdXkXfXkXhXfXfXfXfXfXfXfXfXkXkXkXCXNXNXkXfXfXfXfXfX9XdXdX9X9XfXI.1X1X1X1X5X1X1X1XU.S.D.J.D.J.J.J.J.J.J.H.J.J.J.J.K.J.U.K.!.S.hXZXSXFXFXFXFXFXKXKXKXKXKXKXFXKXKXFXFXFXKXKXKXKXFXFXFXKXFXFXFXKXKXFXFXKXAXdXAXAXVXVXgXgXAXAXaXaXDXSXSXZXCXU.L.U.y.y.y.y.D. .1XqXqXwX0XqX0XwX0X0XgX= U ~.m.m.m.m.n.M.n.n.M.n.E.F.o X O . . . X . g !.m.M.n.n.N.N.N.n.M.N.M.M.N.N.N.N.N.N.M.n.n.m.V.~.7 . X   .       X . C.~.v.n.N.n.N.N.N.M.M.B.B.B.M.M.V.M.B.B.N.N.N.B.B.B.b.B.V.N.V.B.B.V.M.B.V.V.V.V.W.~.uXjXlXlXZXlXlXiXyXjX$ A.DXgXhXhXhXfXhXhXhXhXhXhXhXhXhXkXkXhXjXhXhXkXhXhXkXhXjXjXkXkXjXhXhXhXjXhXjXhXjXjXhXuXhXX.t.D.y.y.y.y.y.y.o.~ y.G.D.G.G.G.G.z.G.K.z.H.K.G.H.G.| R.rXrXuXrXuXuXuXuXjXhXjXhXlXZXDXFXFXFXKXFXKXFXFXFXKXKXFXFXDXZXlXlXjXlXlXlXZXZXDXFXFXKXLXLXLXLXLXKXFXKXLXDXLXKXLXKX8.# # ( 2.p.p.p.p.p.a.t.4. .8 # @ 7 %XFXHXVXbXbXbXbXbXbXbXbXbXbXbXbXbXbXbX0XbX",
"S S A u u S S y y u A u y A y y y 2 2 n M (._._.m c z z z k c c c c x x k k ; n F Z F N y G C K C G G 9 , , l x x c x ; < N S G C 9 l l k x k ; ; , F G G C , ; l l v n Z Z y Z B u Z G G G C 9 , , l ; v n F G C 9 l l l k z k ; v Z F C C N , v l ; , N G G B , l x m x x ; ; l b G G G 9 ; ; < v N S G J G G 9 % , ; x c x c c c z z z z z z z m c ^.`._.*XXX+X*X*X;X*XzX*X;XzXzXzXzXzXnXzXGXGXnXGXGXGXGXGX X2.q.q.t.~ ` ) `  . . . .,X&X&X%XA.&X&X&XA.&XA.&XA.A.&X#XA.#X#X4  .) ) ..) ) ) ` ` ) ~ _ r.q.e.e.e.y.e.y.e.e.e.y.y.y.e.y.y.y.D.y.y.D.+...4.4.O.4.4.S.4.4.S.t.S.L.S.L.L.U.I.1X1X1XdXrXfXrX9XrXrXdXrXrXdXdXfXfXU.1X1XU.1XU.1X1XU.1XS.D.J.J.D.J.G.J.J.J.J.G.K.J.J.K.K.K.K.U.F.kXDXFXFXJXFXFXKXFXKXKXFXKXLXKXKXFXKXKXFXKXJXKXFXKXKXFXKXKXKXKXKXKXKXKXKXDXpXAXZXgXAXAXAXVXAXVXMXDXDXSXSXCXI.D.P.D.y.y.y.p. .rXpX0X0XwXwXwX0X0XwXZ.X uXT.B.m.m.m.M.m.M.M.m.m.E.j.X o o .   . X X 7 ~.v.M.M.N.n.n.N.N.N.M.N.N.M.M.M.M.N.N.n.n.n.c.V.yXo o X .           O | W.c.n.N.n.N.M.M.M.B.B.B.B.M.M.M.M.M.B.B.B.B.B.B.B.B.B.m.N.B.W.V.B.B.B.B.V.T.V.W.W.~.yXjXlXZXlXZXjXiXiXQ.$ CXfXdXhXhXhXfXhXhXfXhXfXhXkXhXhXhXkXhXkXhXhXhXhXjXhXkXhXhXhXhXhXjXjXhXjXhXjXhXjXhXjXhX+.y.o.y.y.y.y.y.y.y.[ k.G.G.G.G.z.G.G.G.G.G.H.z.G.H.K.~ U.rXuXrXuXrXjXuXhXuXjXhXlXZXDXDXDXKXFXJXKXFXFXFXFXKXFXFXFXDXZXlXlXlXZXZXZXZXZXZXDXFXLXLXLXLXKXKXKXKXLXLXJXLXLX3.@ ( q. Xu.i.i.q.i.w.q.i.i.u.p.a.L.L.4.7 X j VXVXbXbXbXbXbXbXbXbXbXbXbXbXbX0X0X0X",
"0 u u u u u y 0 > 0 > 0 > > 0 > * * 1 : x ^.`._.^.c m z z x z z c c z z z k l ; l l , , , , , , ; , l , l l k z k k k k l l , l , l l z z k k k l k l l v l l ; k k k l l l l , v , < , ; ; , ; ; k k k k l , l ; l l l k k z k l k ; l l v ; l k k k ; l ; , l ; k x k k k k k l l ; l , l l k ; ; l l v l , ; ; ; ; k k z z z c c k z c c c c k c c ^.`.'.).*X*X*X*X*X;X;X;XzXzXqXzXnXnXzXGXnXnXnXGXnXGXvXSX}.2.t.q.q._ ` 2.` ` `  .( ,XA.&X&X&XA.&X&XA.%X&XA.A.&XA.A.%XA.#X5  .) ` ) ) ` ( ) ) ` ) ~ r.e.e.e.e.+.y.e.y.e.e.+.e.y.e.y.y.y.y.y.D.y.D.D.D.D.P.D.J.P.J.P.J.P.J.P.P.J.D.P.F.S.D.P.S.D.D.S.S.S.S.S.S.D.S.S.S.S.S.t.S.S.D.S.P.S.D.D.+.H.J.J.J.J.J.D.J.J.J.J.H.H.K.J.K.U.R.!.S.kXDXSXKXFXFXKXFXKXFXKXKXKXKXKXKXFXKXKXKXFXKXKXFXKXFXKXKXFXKXKXFXKXFXDXFXAXpXAXVXhXVXVXVXVXAXaXgXDXSXCXCXSXL.D.J.y.y.y.y.a. .eXeXwXwX0X0X0XwX0XAXp h ~.b.V.M.m.B.n.n.M.n.m.m.~.h   . X . . . X . g E.m.n.n.N.n.N.N.N.M.M.M.N.N.n.N.N.n.n.N.n.c.n.T.!.  .               o | ~.m.b.n.N.n.N.M.M.N.M.B.M.B.M.B.B.B.B.B.B.B.B.B.V.m.B.B.B.B.M.V.M.B.V.B.T.B.W.T.W.T.~.iXjXZXZXlXlXiXyXiX- I.ZXpXhXhXdXkXrXkXhXhXhXdXhXfXhXhXhXhXhXhXhXhXhXhXhXhXhXhXhXhXjXjXhXuXhXjXhXhXiXhXuXhXO.y.y.y.D.y.y.y.y.y.] k.D.G.G.k.G.G.k.G.G.G.G.G.G.G.G.| !.!.!.uXuXuXhXuXkXjXhXjXZXZXFXFXFXKXKXJXDXJXJXDXDXFXFXFXFXZXZXZXZXZXDXDXDXZXZXDXKXKXKXJXIXLXLXFXAXFXAXKXPXSX4 8 u.u.<.:.:.:.:.:.:.:.:.:.r.:.r.r.i.e.a.L.A.. gXVXbXbXbXbXbXbXbXbXbXbXbX0XbXbX0XbX",
"mXvX8X8X8X8X8X8X8X8X7X7X7X7X<X7X7X#X$X=X*X*X(._._.c m c z k z z z z z z z c z k l l l l l l l l x l k k k z z z z z k z l x k x z z z z z x x z k k k x k k x k k z l k k l l l k k k k l ; k k k k k k x k x x x z z k c z c z k l x l x k x k k k c l k k k l z z c z z x k k l k l l x x k l l k l l k k k k x x k z z z c z z z z z c c c c m c m `.`.'.*X*X*X%X$X;X;X;X;XzXzXnXzXnXzXGXnXnXGXnXnXnXGXGXSX}.2.e.q.q._ ` ` ) $. .2.i eXA.&XA.&X&XA.&X&XA.A.&X&XA.%XA.A.&X&X5  .) ` ) ) ` ) ..` ` _ _ y.e.e.e.e.e.e.e.e.e.y.y.e.y.y.y.y.y.y.y.y.D.y.D.D.D.D.D.D.D.D.D.D.J.D.J.D.U.J.J.J.J.J.U.U.J.U.U.U.J.J.U.U.J.P.J.U.P.U.P.J.D.D.D.D.D.D.S.D.D.J.J.D.J.G.G.J.J.J.J.J.J.K.K.K.K.U.!.F.kXDXFXKXFXKXFXFXKXFXKXFXKXFXKXFXKXFXKXKXKXKXKXKXFXKXFXFXKXFXFXFXFXFXJXDXCXgXAXAXVXVXVXVXVXVXgXMXSXSXSXCXDXP.S.D.y.y.a.y.t.| 1X0X0X0X0X0X0XwXwXZ.o ~.T.m.m.m.M.m.M.M.m.m.m.T.!.- . X     . . . o g ~.m.N.N.n.N.M.n.M.N.N.N.M.M.N.N.N.N.N.N.n.n.b.T.Q.X . . .         X o j ~.b.n.N.M.N.N.M.M.M.B.B.B.M.B.M.B.B.B.B.B.B.B.B.N.N.B.B.B.B.M.M.B.B.B.B.V.V.V.V.m.W.~.~.jXjXZXZXlXjXyXiXQ.g eXhXhXuXhXhXdXhXfXdXhXhXhXhXdXhXdXhXhXhXhXhXhXhXhXhXhXhXhXhXhXhXhXhXhXjXuXhXjXhXhXhX+.t.D.y.y.y.+.y.o.y.X.+.J.D.D.G.G.G.z.G.G.G.z.G.G.G.J.~ U.rXrXrXrXhXuXjXhXjXhXZXDXFXFXDXFXFXKXKXLXLXSXDXFXDXFXFXDXZXZXlXZXDXFXKXFXDXDXFXFXKXLXLXLXLXKXKXJXLXHXLX,Xo 1.a.q.w.:.:.:.:.:.} :.:.:.:.{ :.:.:.r.i.r. X7 Z.HXbXVXbXbXbXbXbXbXbXbXbXbXbX0X0X0X0X",
"7.8.8.7.7.7.8.8.8.8.7.7.5.3.R R E E R E W ).^.`.`.^.c z z z k z z z k z k k z z c c c z z z k k k x k z k z z z z c z z k k k k z k k z c k k z k k x k x k k x k z z z k k l k l k k k x x c c z z z z k x k x l z x c c z c z x k x k z z z z c x x x k k z x z z z z c z z z z z c z k k k z x x k x k k z z c c z c c c c c z z z c z z z c m m m '.'.'.*X*X*X*X;X*X;X;XzX;XzXnXzXnXnXzXzXGXnXnXGXnXnXGXHX}.6.q.q.q.~ ) ..) `  . .i ,XA.A.&XA.%X&X&XA.&X&XA.&XA.A.%X%X#X&X7  .) ` ` ..) ~ ) ) ` ) ~ y.w.e.e.e.e.e.e.e.e.y.e.y.e.y.y.y.y.y.D.D.y.D.D.D.D.D.D.J.D.J.J.J.D.J.J.D.J.D.J.J.J.J.J.J.J.J.J.J.J.J.J.U.J.U.J.J.J.J.J.P.U.P.U.U.J.J.J.J.J.J.D.J.J.J.G.J.J.J.H.K.J.J.J.K.U.K.rXS.kXDXFXFXFXFXKXFXKXKXFXKXFXFXKXKXKXFXKXFXKXKXFXKXKXKXKXFXKXFXKXFXKXFXDXDXAXpXAXDXAXAXVXVXVXVXpXaXFXSXCXSXCXI.y.P.y.y.y.y.a.| 1XtX0XqXwXwX0X0XVXX j uXm.m.M.n.n.n.M.n.n.n.m.m.F.o . X     . . o   j E.m.M.n.N.n.n.N.n.N.M.N.N.N.N.N.N.N.N.M.M.n.b.W.C.. . .           . . j ~.m.n.N.c.N.M.M.M.B.N.M.M.B.M.B.B.B.B.B.B.B.B.B.B.B.B.B.B.V.B.V.B.M.B.B.M.W.B.M.W.W.W.~.iXjXjXZXlXjXiXiXlX- C.ZXdXhXrXdXdXkXhXdXdXhXhXdXdXhXhXhXdXhXhXhXhXhXhXhXhXhXhXhXhXuXhXjXhXuXuXhXuXhXuXhX| y.y.y.y.y.y.y.y.y.[ k.D.G.G.G.G.k.D.G.G.G.D.G.G.G.J.~ U.rXrXrXiXuXuXrXhXjXhXlXZXFXSXFXKXKXFXAXAXDXKXKXKXDXFXFXFXDXAXZXZXDXFXKXFXDXFXFXFXKXLXJXLXKXFXJXLXJXKX8.# p.u.%.%.*.:.{ [ *.{ { { { [ :.:.:.:.:.:.%.a.1.- HXbXVXbXbXbXbXbXbXbXbXbXbXbX0X0X0X0X0X",
"W E 7.E E 5.E E E E E E R I R R I I R Y P Y /.^.`.(.m c c z z z z k z k z z z z c c c c c z z z z k z z z z z z c z z z z z k z z z z z k c k z c x c z z c k c z z z z k x k z c x x c m m x c c c z c x k z z k z k z c z c z c c k c z z c c c x c x c c k z z z c z c z z z z k z z z c x z x c k z z c x x c x z c c c c c z z z z z k z c c m ^.`.`.'.*X*X*X;X*X;X;X;XzXzXzXzXzXnXnXzXGXzXcXGXnXGXGXnXHX}.2.q.q.q._ _ $. .$... .i <XA.0X&X%XI.&XA.%XA.&X%X&XA.%XA.A.A.A.5  .) ..` ` ` ) .. .` _ ~ y.e.e.y.+.y.y.e.+.y.e.y.y.y.y.y.y.y.y.y.y.D.y.y.y.D.D.D.D.D.D.D.P.D.J.D.J.D.J.D.J.P.J.J.J.J.J.J.J.P.J.J.J.J.P.U.J.P.U.D.J.J.J.J.D.J.D.J.U.J.J.J.J.J.J.J.J.J.J.J.J.J.K.K.K.K.U.U.F.kXZXFXFXKXKXFXKXFXKXKXKXFXKXKXFXKXKXFXKXFXFXKXFXFXKXFXKXKXKXFXFXFXFXFXDXMXpXVXVXVXVXVXVXVXVXnXpXJXSXCXSXSXL.D.D.y.y.y.y.a. .eXeXqX0X0X0X0XqXgX  tXE.T.V.m.M.n.n.n.n.m.n.m.~.j.. .   .     . . X h ~.m.M.N.n.N.n.M.N.N.N.M.N.N.N.n.n.N.N.n.n.n.N.~.| . . .               j !.b.n.n.N.N.M.M.M.B.B.B.B.M.M.B.B.B.B.B.B.B.B.B.B.B.B.B.B.B.B.B.B.B.B.M.M.B.V.W.B.T.T.E.yXjXlXZXZXlXiXtXjXC.$ DXdXfXhXdXhXfXdXhXhXhXdXhXhXhXrXhXhXhXdXhXhXhXhXhXhXhXhXhXhXhXhXhXhXhXhXjXhXhXhXjX+.+.y.+.o.y.y.y.+.D.[ o.G.D.D.k.G.G.G.G.G.G.z.G.G.z.G.| U.rXrXrXrXuXuXuXhXkXZXDXFXFXDX,X3.7 7 7 3 7 7 I #XDXKXFXFXDXDXZXZXFXFXKXFXFXFXFXKXKXKXLXJXDXDXFXLXLXA.# p.>.:.} :.} *.[ *.[ { :.:.{ [ { [ { :.:.<.q.p.$ pXVXbXbXbXbXbXbXbXbXbXbXbXbXbX0XbXbXbX0X",
"9.[.W 9.W 7.7.7.9.9.9.7.7.R E E E U R T E ).).M _.'.`.m m x x x k z z k k k z z z z z z z z z z c z z z z c c c c c c z z z k k z z k c z z c x z z z k k k z z z c x z z z z z c x z c c c c c c c c z z z z z c c x z c c c c x z z z k z z z z z z z x x c z z z z z z z z z z z z z z z z z x z z z z c c c c z z z z z z z z z k z k k z c c ^._._.(.*X*X*X%X;X;X;X;X;XzXnXnXqXnXnXzXGXGXGXGXGXnXGXGXvXGX}.2.i.q.q.~ _ $.`  .`  .i ,XA.&XA.A.&X&X%XA.A.&XA.&XA.#XA.&XA.L.7  .) ..) ~ ` ` ` ` ..~ _ r.e.e.e.e.+.y.e.y.+.y.e.y.y.y.y.y.y.y.D.y.D.D.D.D.D.D.D.D.D.D.J.J.J.D.J.D.J.J.J.J.J.J.J.J.J.P.J.J.U.J.J.J.J.D.J.J.J.J.D.J.J.P.J.J.P.J.J.J.D.J.J.J.J.J.J.J.J.J.J.J.K.K.J.U.K.K.!.F.kXDXDXKXFXFXFXFXKXFXKXFXKXKXFXKXFXKXKXKXFXKXFXKXKXFXKXKXJXFXJXFXJXDXFXDXVXgXHXVXHXVXVXVXVXnXpXaXSXSXNXNXCXL.y.P.y.y.y.e.y. .1XeXqX0XwX0X0XVXj a iXR.m.m.n.n.n.n.n.n.m.v.m.~.g . O   X     . . . j ~.m.n.N.n.N.N.n.N.n.M.N.N.N.n.N.N.N.N.c.M.n.n.~.h X . .     X         g E.m.n.n.B.n.B.B.N.M.B.B.M.B.B.B.B.B.M.B.B.B.B.B.B.B.B.B.B.B.B.B.N.N.B.B.B.V.m.V.V.m.W.W.~.iXjXZXlXlXjXiXyXtX$ dXCXdXhXdXdXhXhXdXhXdXfXhXfXdXfXdXhXhXhXhXhXhXhXfXhXhXhXhXhXhXhXhXhXhXhXhXhXuXhXhXO.y.y.y.y.y.+.y.+.y.X.o.D.k.G.k.G.G.G.G.G.G.G.G.G.D.G.~ !.rXrXuXuXrXuXhXhXhXDXFX1Xj # 3 ..t.t.p.P.a.p.4.i # u dXJXFXFXFXDXDXFXFXKXFXKXFXKXKXKXKXSXFXDXLXPX0.# p.%.<.*.:.{ { *.{ [ *.{ { { [ { [ { :.{ :.;.u.3 U KXVXbXVXbXwXbXbXbXbXbXbXbXbX0XbX0XbX0XbX",
"I I Y I T I I Y I P I P I P I P P P S P P A A v /.(.`._.m m m z z k k c z z z z z k z k z z z z c c z c c c z z z z z z z z z z k z c c x z k z x x z c z z k c z z z z z x k z z z z z z c c c c z z z z z k z c k z z z z z z z k k z z z z z z k z z c x x z z z z z z z z z x c c z z z z z z z z z z z z z c z z z z z z z z z z k k k z c m ^.`._.).zXXXzX*X*X*XzXzXzXqXzXnXzXzXnXzXnXzXbXnXnXnXGXGXnXHX}.4.q.q.t._ ` ) ) ` )  . .<XA.A.&X&XA.#XI.&X&X&X%X#X%XZ.&XA.A.#X4  .) `  ...` ( .. .` ` ~ y.e.e.r.y.e.e.y.e.y.e.y.y.y.y.y.D.y.y.y.D.y.y.D.D.D.D.D.J.D.J.D.D.D.D.J.J.J.D.J.D.J.D.J.J.J.J.J.J.J.J.J.J.J.J.J.J.J.U.J.J.J.J.J.J.J.J.J.J.G.J.H.J.G.J.J.J.J.K.K.K.G.K.K.K.R.R.!.S.kXDXFXFXFXKXKXFXKXFXKXKXFXFXKXKXKXFXFXKXKXKXKXFXKXKXFXFXKXFXDXDXSXJXJXDXnXpXAXVXVXVXVXVXVXVX8XaXJXNXSXNXSXL.t.D.y.y.e.y.p. .eXeXwXwX0X0X0XAX  C.~.m.m.n.n.n.n.n.n.n.m.n.m.~.* . X X       . X X 3.W.m.n.n.N.n.n.N.N.M.n.N.N.M.N.N.n.N.N.n.n.n.v.~.- o .         X     . g !.N.n.M.N.n.M.M.M.M.B.N.B.N.M.B.B.B.B.B.B.B.B.B.B.B.B.B.B.B.B.B.N.N.B.B.V.T.V.V.V.V.W.T.T.yXiXlXZXZXlXjXyXiXC.7 DXdXdXkXfXfXdXhXdXhXrXhXhXhXhXhXhXdXfXhXhXdXhXhXfXhXhXhXhXhXrXhXhXhXhXhXhXhXuXhX+.+.y.o.y.y.y.+.y.+.] y.G.G.G.D.k.G.G.G.k.D.G.G.G.G.K.~ !.rXhXrXuXrXuXrXlXZXdX3 @ 1.p.>X>Xa.a.i.i.a.a.a.P.a.4.@ j KXKXFXDXDXFXKXKXFXFXKXKXKXFXFXFXAXKXJXmX# 2.%.%.{ } :.:.} [ :.{ { { { *.*.{ { :.{ { %.q...@ FXVXwXbXbXbXbXbXbXbXbXbXbXbXbXbX0X0X0X0X0X",
": & & : : & % & + & & & & & & : & > & & : : : v /.^._.`.^.^.m m x c c c c c c c z z z c z z c z z z z z z z z z z z z z z k z z c c c z c z c z x x c k c c c x z z z z z z z z k k z z z z z z z k z z z z k z z k z z z z z z z z z z z z z z z z z z c z z z z z z z z z z z z z z c c c z z k z z z z z z z z z z k z z k z c c z z z k z z m _._._.*X*X*X*X;X;X*XzXzX;XzXzXzXnXnXnXGXnXGXGXnXGXnXGXGXGXHX}.2.t.q.w._ ) ..` 1.) ) i ,X#XA.%X%XA.A.%X&XA.A.%X&XA.%X&XA.A.,X7 1.)  . . . .` ` ..` _ ~ y.w.e.e.e.e.e.y.y.e.e.y.y.+.y.y.y.y.D.y.y.D.y.D.D.D.D.D.D.D.J.D.D.J.J.D.P.J.J.J.J.J.D.J.J.J.J.J.J.J.J.J.J.J.J.J.J.J.J.J.J.J.D.J.J.J.J.J.J.D.J.J.G.G.J.J.G.J.J.J.K.G.J.K.K.U.K.U.F.kXDXFXFXKXKXFXFXKXKXFXFXKXKXFXFXKXFXKXFXKXFXKXFXJXFXFXDXSXDXJXSXDXSXDXJXMXqXHXVXnXVXVXbXpXnXpX8XSXSXNXCXNXP.t.P.y.y.e.y.t.~ eXqX0X0XwX0XgXZ.  iXT.m.m.m.n.n.n.n.v.n.n.n.T.Q.o o   X X       . . 3.E.m.n.n.n.N.n.N.N.N.N.M.M.N.n.N.n.N.N.N.c.n.m.~.o X   .             X - !.m.n.n.N.N.B.M.M.N.N.N.M.N.M.B.M.B.M.B.B.B.B.B.B.B.B.B.B.B.B.B.V.N.B.B.V.M.B.V.B.V.V.T.W.~.iXlXlXlXlXjXtXyXiXX lXdXdXdXdXrXdXdXhXdXhXdXdXhXhXdXdXhXrXfXhXdXhXhXhXhXhXhXrXhXhXhXhXhXfXuXhXuXhXhXO.y.y.y.y.+.y.y.+.y.[ +.G.D.D.k.D.G.D.k.G.G.D.z.G.k.J.~ U.rXrXrXuXrXrXlXdX3 # 2. Xy.q.w.:.w.w.:.r.r.r.i.a.y.P.>X .@ sXKXKXKXKXFXFXFXFXFXFXKXKXDXKXDXLXJX@ 4.q.:.} :.{ :.{ { [ { { { :.{ *.[ :.{ } *.{ q.p.@ 0XVXVXbXwXbXbXbXbXbXbX0XbXbXbX0X0XbXbX0XbX0X",
"S A S A A A Z Z S S A Z A A A A Z y y u 2 A : < Y ).(._._.'.m m m c c c c c c z c z z k z z z z z z z z z z z z z z z z k k k z c c z z c z z z z z z z z z z z z z z z z k k k k z k k k z k z z z k z z z z z z z z z z z z z z z z z z z z c z c c z z z z z c z z z z z z z z z z z z c z z z z z z z z z z z z z z k z k k z c z z z z z m ^._._.zX).*X;X*X*XzX;X;XzXzXzXzXnXzXzXbXzXGXzXGXGXnXGXnXGXBXHX#X2.q.q.q._ ` $.` ` ) ) i &XA.&XA.A.&X&XA.&X%XA.&X#X&XA.Z.A.&XA.5 ) 2.1.i i  .2.` ` ..` ~ y.+.e.e.y.e.y.e.e.e.y.y.y.y.y.y.y.y.o.D.D.o.D.D.y.D.D.G.D.D.D.D.J.D.D.J.J.J.D.D.J.J.J.J.D.J.J.J.D.J.J.J.J.J.D.J.J.J.J.J.D.J.J.J.U.J.J.J.J.J.J.J.G.J.K.J.J.J.K.J.G.K.J.K.K.U.R.!.F.kXDXFXKXFXFXFXKXFXKXKXKXKXFXKXKXFXKXKXKXKXKXKXFXJXDXFXJXDXSXSXDXSXDXSXDXMXpXVXVXbXbXVXnXqXpX-XpXSXNXNXNXNXS.e.D.y.e.y.e.y. .,XqXqX0XqXqXVX= j.~.W.v.v.m.n.n.n.n.n.m.n.c.W.C.. o O X X       . . j.~.c.N.n.N.n.N.n.M.n.M.N.N.n.N.N.N.N.N.N.N.n.b.~.o o .       X       X - E.m.n.N.n.N.M.B.M.M.N.N.M.n.M.B.B.B.V.B.B.B.B.B.B.B.B.B.B.B.B.B.M.B.B.V.M.V.B.m.B.V.b.V.W.E.~.jXlXZXZXlXiXyXjX- C.fXdXhXdXhXhXhXfXrXdXdXhXfXrXhXfXrXhXdXhXhXdXhXrXhXhXhXhXfXhXhXhXuXhXhXhXhXrXfXX.+.y.y.y.y.+.y.y.y.X.+.G.D.G.D.G.G.G.G.G.G.G.D.z.D.G.~ 1XrXhXhXrXhXZX .@ ..u.r.%.:.:.} } :.:.:.[ :.:.:.w.r.r.a.P.>X# 1.KXKXJXKXKXKXKXFXFXFXFXKXKXKXDX@ 1.u.*.{ } *.{ { { { { :.{ { { { { { *.{ { *.:.u.3 A.DXVXwXbXbXbXbXVXbXbXbXbXbXbX0XbXbX0X0XbX0X0X",
"u S u S S S S y A y u u A u S u y S 1 u u A 1 < T Y oX(.^.'.'.^.m m c m c m z z k z z z z z z z z k z z z z z k z z z z z z z c z z z z z z z z z z c z c c c c z z z z z z z z z z z z z z z z z z z z c z z c z z z z z z z z z k k k k z k z z k k z c k c x z z c z c k x c z z z c z z z z z z z z z z z z c z z k z z k z z z x z z z c ^.`.`.`.zX'.*X;X;X;X;XzX;XzXzXzXbXnXzXGXzXzXGXnXGXnXGXnXGXGXzXGX}.2.q.q.r.` ` ) @...) 1.i &X&XA.&X&XA.A.&X%XA.%X&XA.&XA.&XA.Z.:X7 1.1.i @ @ 1.4.1.` 2._ ~ y.e.e.r.e.e.y.y.e.y.y.+.y.y.y.y.y.y.D.y.D.D.D.o.D.D.D.D.G.D.D.G.J.D.J.J.D.D.G.J.J.J.D.J.J.J.J.J.J.J.J.D.J.J.J.J.J.J.J.J.J.J.J.J.J.J.G.J.J.J.J.J.J.K.J.J.J.J.K.J.K.J.K.K.K.R.U.!.S.kXDXFXFXFXFXKXKXFXKXKXKXKXFXKXKXFXKXFXDXKXKXDXFXFXDXSXCXDXDXCXSXSXCXSXAXMXpXnXVXnXVXnXqXpXpX&X<XCXNXNXNXNXt.t.a.y.e.y.e.a.~ 1X&XqX0X0XqXgX. Q.E.m.v.m.n.n.n.n.n.n.v.n.c.W.| . X     X     X X . C.E.m.n.N.N.n.N.N.N.n.N.n.N.M.N.n.n.N.N.N.n.M.m.Q.. .     X   X       . $ T.m.m.N.n.N.M.M.M.M.B.M.M.B.B.B.B.N.B.B.B.B.B.B.B.B.B.B.B.B.B.M.M.M.M.M.M.m.B.B.M.B.V.T.V.E.~.jXjXlXZXlXjXyXiXj.g ZXdXdXrXdXdXrXrXdXdXhXrXdXhXrXfXdXhXrXdXhXfXrXhXrXuXhXhXrXhXhXhXuXrXhXrXhXuXdX+.+.y.y.y.+.y.+.y.y.] y.D.G.D.G.G.G.D.D.G.k.G.G.D.G.D.~ 1XrXrXrXuXZX .3 q.%.%.} *.} :.{ :.{ :.} :.:.:.[ :.:.r.r.a. Xp.4 3.LXLXKXDXFXAXAXFXFXDXDXJXLX8.4 2.%.*.:.{ { { { [ [ { { { { *.[ { { { { { :.q.#.4 KXAXVXgXbXbXbXVXbXbXbXbXbXbX0XbX0XbX0XbX0X0X0X",
"S S S S S u S S S S S S S S u S S P u u 2 y 1 1 E Y ).XX)._.`.`.`.^.m m m m c c c c c c c z z k z z z k x c z c z c z c c c z c z z z z z z z z z z z z z z z z c c z z z z z z z z z c c z c c z z z c c z c z c c z z z z z z z z z z z c x z z z c z z z z c c c c c x c z c z z k c z z z z z z z z z z z z z z c z z k z c z z z m c z ^.`._.`.*X*X*X=X;X*X;X;XzXzXzXqXnXzXzXnXzXnXGXzXGXnXzXGXGXGXGXGXHX=X2.q.e.t._ _ ..$.@. ...( ,XC.&XA.I.%X&X&XA.&X&XA.&X%X0XA.A.&X#X7 8.1.o #XP . i 4...2.( ` t.w.y.y.y.e.e.e.e.y.y.y.y.+.y.y.D.y.y.D.y.D.D.D.y.k.D.D.D.G.J.D.D.G.D.G.J.J.D.J.J.J.J.J.J.J.J.D.J.J.J.J.J.J.J.J.J.J.J.J.J.J.J.J.J.J.H.J.J.G.J.J.J.J.H.J.K.J.J.K.G.K.K.K.U.K.U.!.F.jXDXFXFXKXKXFXFXKXKXFXFXKXKXFXFXKXFXKXLXKXFXLXKXCXFXSXDXSXFXSXJXSXJXSXJXMXaXLXMXSXaXpXaXaXmX7X9XSXSXSXBXNXp.t.P.a.e.r.r.a.( rXsXgXpXpXpXZ.o iXT.m.n.c.n.n.n.c.n.m.n.n.v.~.g   X . X X     . o o C.W.m.n.n.n.N.n.N.N.N.N.n.N.N.N.N.N.n.N.N.n.n.T.Q.. o X     X         . $ Q.B.m.M.B.N.N.M.N.N.B.B.B.M.M.B.M.B.B.B.B.B.B.B.B.B.B.B.B.N.V.V.M.V.V.V.M.W.M.V.M.M.B.V.B.W.W.~.jXlXlXZXjXjXiXyXo CXhXrXdXdXdXfXfXhXdXdXfXkXdXhXfXhXfXfXhXhXhXhXfXhXdXdXhXhXdXuXhXhXkXhXuXhXrXhXO.y.y.y.y.y.y.+.y.y.X.o.D.D.D.D.D.k.k.G.G.D.D.z.G.G.D.~ U.rXrXrXkX4 8 p.' } { } } { { { } { { *.{ :.:.:.:.:.:.r.r.a.P.L.5 3.JXFXDXFXFXKXFXFXDXKXJXSX@ 2.q.%.} } :.{ *.{ { *.{ { { *.{ { :.{ { *.*.;.q.3 A.<XAXAXVXVXbXwXwXbXbX0XbXbXbXbX0X0X0X0X0X0X0XbX",
"y y > > > y 0 > y 0 2 0 0 > 0 > > 0 1 1 1 1 1 > I P +X+X).l (.(._.`.`.(.^.m m m m m k c m c k k z m m k m c c c z z c z c c c z c c c c c c c c z z z z z z z c c c m c z z c z z c c c c c c c x z z z c c c c z z c z z z z z c z c z x z z z z k z z z z k z z z z z z c k z c k z k z k z c z z z z z z z z z k z z c z z k k z z z m ^.'.`._.'.zX*X*X*XzX*X;XzX;XzXzXzXnXnXGXzXzXGXGXzXnXGXGXnXGXGXGXBXHX X2.u.q.t.` ` $. ...@. .i &XA.&X%X%X&X&XA.A.&XZ.&XA.A.A.&X&XA.&Xu 3.@ P PXLXU . i 1... .~ y.y.r.e.y.e.e.y.y.e.y.y.o.y.y.y.D.y.y.D.D.D.D.D.D.D.D.D.D.G.D.G.J.D.D.H.D.J.J.G.J.D.D.J.D.J.J.J.J.J.J.J.P.J.J.J.J.J.J.J.J.J.J.J.G.G.G.J.G.H.H.H.J.G.K.J.J.H.H.K.G.K.J.K.U.R.K.!.S.kXDXDXFXFXFXKXKXFXKXFXKXFXKXFXKXFXFXKXLXAXDXDXSXJXDXDXFXNX,X0.0.A.0.0.0.4.3.6.1.3.1.1. .1.1.1.1.6.4.6.0.0.` ` .._ _ _ _ ~ 8 2.0.8.A.&XpX- j ~.m.c.v.n.n.n.n.n.m.n.v.n.v.~.$ X . . X         . . F.W.c.N.n.n.n.n.N.n.N.N.M.N.N.M.N.N.N.n.N.N.n.W.F.. X         X     . $ = Q.T.n.n.n.N.M.M.M.N.B.N.M.B.B.B.B.B.B.B.B.B.B.B.B.B.B.B.B.m.m.V.B.B.m.W.V.m.M.V.M.W.B.T.B.W.Q.~.iXlXlXZXZXlX~.jX@ :XkXdXkXdXdXdXdXdXdXdXdXdXdXdXdXfXfXdXdXdXfXdXhXdXhXdXhXdXhXhXrXhXhXhXhXhXhXhXO.t.+.y.y.+.+.y.e.+.] +.D.D.D.k.D.G.D.z.D.G.G.D.G.G.D.~ U.rXrXrXrXo  .2.' { :.{ { } *.{ { [ { } { { [ :.{ :.:.:.:.:.i.a.P.6 3.KXKXFXDXZXFXDXDXAXKXI r q.$.*.{ :.{ { [ { { { *.{ { [ :.[ [ { { } } i.6 i 7X}.8.<XVXVXVXbXbXbX0XbX0XbXbX0X0XwX0X0XbX0X0X0X",
"G 7.{.8.{.8.8.{.8.7.8.8.9.9.9.8.8.8.7.7.W 9.R & U T ).$X[.; M ^.^.(._.'.`._._._.^.^.^.^.^.^.^.^.^.m ^.^.^.m m ^.^.m m ^.m m m m m m m m m m m c c m c c c c c c c m m m m m m m c c c c c m c z c x c x c x c z c z c c z z k z z z z z z z z z z z z k k z k z z z z z c k c k z z x k k z k z z z z z z z z z z z c z z z c x k z c m ^._.'.(.'.zX*X=X+X=XzX;X;XzXzXzXzXzXzXnXzXGXGXzXGXGXGXnXGXGXGXnXGXGXHX}.4.q.q.q._ ) @...2. . .i ,X&XA.%X%XA.A.%X%X%XA.&XA.&X%XA.A.A.&Xf u o JXIXIXLX&X  * 4. ...a.r.e.e.e.e.y.e.e.y.y.+.y.y.y.D.y.y.D.o.D.y.D.D.D.D.G.D.G.D.G.D.J.D.G.D.G.G.D.J.J.J.H.J.J.J.J.J.J.J.D.J.J.J.J.J.J.J.J.J.J.G.J.K.J.H.J.H.J.J.J.G.G.K.J.G.J.J.K.J.K.K.K.K.K.K.U.!.F.kXZXJXFXKXFXFXFXKXFXKXKXKXFXKXFXKXFXFXKXKXSXDXDXDXZXCX:X3.1.2. .2.u.p.4.u.6.4.2.6.6.4.6.6.u.2.2.u.2.2.$.2.2.q.2.' 2.' ' $.2.$.( i i j 7 o F.T.m.n.n.n.n.c.n.n.m.m.n.n.m.!.o o . .           .   Q.T.b.n.N.N.N.N.n.M.N.N.n.M.N.N.n.n.N.n.N.N.b.T.F.o X .             . X X T.m.M.n.c.V.M.M.N.M.B.M.B.M.M.B.M.B.B.B.B.B.B.B.B.B.B.B.B.V.B.B.B.M.M.M.B.B.V.M.M.M.B.M.V.M.b.W.yXjXlXlXlXlX~.iXj.j kXdXfXCXfXkXfXCXfXkXfXkXCXCXCXCXkXCXkXNXkXfXkXfXfXfXfXfXdXhXfXkXhXrXhXdXuXhX| y.D.y.+.y.e.e.y.D.] y.D.D.D.D.D.D.D.D.D.D.G.D.D.G.D.~ U.rXrXrXfXI.# 2.%.} } { } / { { { { { { { { { { :.{ :.:.:.r.r.y.a.p.# sXKXKXDXDXDXFXSXKXSX@ u.q.} } } { } { :.{ { [ [ { { { { { { :.:.} q.^ 3 3X:X:X2X#XZ.0XVXVXwXVXbXbXbXbX0XwX0XbX0XbX0X0X0XbX",
"5.$X=X$X=X#X#X=X#X$X=X#X#X#X$X#X@XOXOXOXOX@XW : W T [.+X+XO n M /.'.)././.`.`.`.`.`.`.`._.`.`._.`.`.`._._._.`._.`.`._._._._._._.^._.^.^.^.^.^.^.^.^.m ^.^.m m ^.m m m m m m m m m m m m c m c k c c m m c m m c c c c m m c c m c m c c m c c z z k k k z z z z c c c z c c c c x c c z z c z x c c c c z z z z c z z c c m x c x k m ^.'.'.^.'.*X*X;X*X+X;X;X;X;XzXzXcXnXzXzXnXGXnXzXGXnXGXnXGXnXGXGXGXnXGXBX}.2.q.q.i._ ` @.) ` @...i <XA.%XA.&XA.&X&XA.Z.&X&X&XZ.A.A.&X&X7X= . $XUXUXHXKXKX&X$ @  . .a.t.r.y.e.y.e.y.y.y.y.y.y.y.o.y.D.y.y.D.y.D.D.D.D.D.D.G.D.D.D.H.D.G.J.J.J.D.G.J.G.J.D.H.J.J.J.G.J.G.J.G.J.J.J.J.J.J.J.J.J.G.J.G.J.G.G.J.G.J.J.H.G.J.G.H.J.K.H.K.K.J.K.K.K.R.U.!.F.kXZXDXKXFXFXKXFXKXFXKXFXFXFXKXFXFXFXFXFXFXDXSXCXCXDX3.1.4.4.2.2.) ( p.u.u.2.u.6.2.u.6.2.u.u.2.u.2.6.q.$.u.2.2.$.2.$.2.2.2.q.2.2.6.4.2.3.o ~.m.m.n.n.n.n.n.n.v.v.n.n.m.v.Q.. o .           X . o Q.T.n.N.n.n.N.n.M.n.N.n.N.N.n.N.n.n.N.n.n.N.n.E.F.  O         X     . o o T.m.n.N.n.N.B.M.N.M.B.B.M.B.M.B.M.B.B.B.B.B.M.B.B.B.B.B.B.B.B.B.B.B.B.V.B.B.M.M.M.M.V.B.V.V.V.T.~.iXjXjXlXjXyXyXtX$ SXdX9X1X1X,X:XL.L.p.A.0.A.4.4.0.A.L.L.:X1X1X9X9XfXfXNXNXCXkXkXCXfXfXfXkXhXdXO.y.y.y.y.y.y.y.r.y.} y.J.D.D.D.D.D.D.G.D.D.D.D.D.D.D.~ P.1X1XdXdXNX4.3 2._ / { { } { / } { { { { { { { :.{ [ :.:.:.:.:.y.a.L.@ KXFXDXKXAXFXDXKXI i q.{ *.{ { :.*.{ { { { *.{ { { { { :.{ { { -.$.3 p.2X:X3X:X2X:X0.Z.qXHXwXbXbXbXbXwX0X0X0X0XbX0X0XbX0X",
"7.R R R R R R R E R R R R R R R E U I R R U I : R W [.$XW E *X=XXX*X).'.'.'.'.`.`.`.(.`._._.(._._._._._.^._.`._._.`._._._._._.(.`.`.`.`.`.'._.`._.`.`.'._._._._.'.(.`._.(._.(.(.^.^.^.^.^.^.^.^.^.m ^.^.m m m m m ^.m m m m m m m c m m m m c m m m c c c m c m m m m m m m c c c c c c c c x c c c c c c z z z c c c m m m m m m ^.(.`.`.`.XXzXzX*X=X=X=X;XzXzXzX;XzXqXzXzXnXzXzXnXnXnXnXnXGXnXGXnXGXGXGXGXPX}.2.t.q.t.` ` ....2. .2.i &XA.A.&XA.%XA.A.&X&XA.%X&X%XA.%XA.A.;XX A IXPXGXVXHXFXKXFX- X  .P.a.w.y.y.y.y.y.y.+.y.y.y.D.D.y.y.D.D.D.D.D.D.G.G.D.G.D.D.G.G.D.S.G.D.H.G.G.D.J.J.J.J.J.J.J.H.D.J.G.J.J.J.J.J.J.H.J.J.J.J.J.J.J.G.J.J.G.H.J.J.J.J.G.J.K.J.H.J.K.K.K.K.K.K.U.R.U.F.hXDXJXFXFXFXFXFXFXFXKXFXKXFXKXFXKXJXFXFXDXSXCXCXKX4.1.4.2.2. .) 2.) Q 4.6.u.2.q.2.u.2.2.2.$.2.2.$.$.$.2.2.$.$.$.' $.%.$.$.$.2.$.$.2.2.8 7 uXz.v.n.n.n.n.m.n.n.n.n.n.m.m.F.. O X     X     X . $ E.m.n.n.N.n.n.N.N.n.N.M.N.N.M.N.N.N.N.N.n.n.n.E.j.. o . .       X   . $ . Q.N.n.N.N.N.M.M.M.N.B.M.M.M.B.B.B.B.B.B.B.B.V.B.B.B.B.B.B.B.B.B.B.B.B.B.B.B.V.M.V.V.V.B.M.M.V.V.b.~.iXjXjXiX~.~.iX- h j 1.4.0.A.:X:X,X,X1X9X9X9XdXdX9X,X9X,X,X,XA.A.3.3. .j j i 3.4.A.,XdXfXZXkXO.y.a.y.r.:.r.:.} [ ! [ ! ! ! ! ! ! ! ! ! ! ~ ! ! ~ ] ! ! ~ ~ Q ~ Q ..6 6 %.%._ / { { { { { { { { { { { { *.{ :.:.[ :.r.r.a.P. .i KXDXDXFXDXKXDX@ 2.;.:.:.{ { { [ { { { { [ { [ { { { [ [ *.*.i.3 4.>X3X6X:X2X2X2X2X7X9.&XVXbXbX0XwXwXwX0X0X0X0X0X0X0X0X",
"7.W E 7.7.W 7.7.W 7.7.W 7.7.7.W E 7.7.U 5.E R > E R [.*XE [.=X=X=X*X{.).}.=X*X*XXX*XXX*X|.*X*X).'.XXXX*X*X).^./.'.).(.'.(.(.'.(.'.'._.(.(.(.(.(.^.^._._.(.`.^._.`._._.(._._._._._._.`.`.`.`.`.'._.`.`.`.`.`.`.'.`.`._._._._._._._._.^.^.^.^.^.^.^.^.^.^.^.^.^.m m m m m m m m m m m m c c c c k m c c c c c c c c c c c c m m ^.`.'._.^._.'.*X*X*X=X*X-X=X;XzX;X;XnXzXnXnXnXnXnXnXnXGXnXGXGXGXGXGXGXGXGXGXGXPX}.2.u.q.r.` ` 2.1.2.2.1. .,X#XA.%X%XA.&X%X%X&X&X%X%XA.A.%XZ.pX1 X GXPXHX0XqXVXAXDXFXKX3.o i P.y.e.y.r.y.e.y.y.y.y.y.D.y.y.D.y.D.y.D.k.y.D.D.D.D.D.G.G.D.G.G.D.G.D.J.J.G.G.J.G.D.G.G.G.J.G.G.J.G.G.G.J.G.G.J.J.H.J.J.J.J.J.J.J.G.J.G.J.J.H.H.H.G.G.J.K.J.H.H.G.K.K.K.K.U.!.S.kXDXDXFXJXFXFXFXFXKXKXKXFXFXFXFXFXFXFXDXSXSXDXJXA. .0.3... . .1. .i ( Q 6.$.2.$.6.$.2.$.2.$.6.$.$.$.$.$.$.$.q.$.&.q.u.%.$.>.$.$.q.` 2.4 | ~.z.c.n.c.M.m.m.m.m.n.n.n.m.T.l.. O . .       X   . - Q.m.n.n.N.n.N.n.N.N.N.M.M.M.M.N.n.M.n.n.N.n.n.E.j.. o             X . . o F.m.n.M.N.B.N.M.N.M.B.B.B.M.M.B.M.B.B.B.B.B.B.B.B.B.B.B.B.B.B.N.B.B.V.N.M.B.M.B.M.B.V.B.W.M.B.B.T.W.~.yXtXyX~.W.iX7 eXDXJXFXFXFXJXKXKXKXLXKXJXKXLXKXKXKXKXLXKXKXKXKXKXKXKXJXJXSXNXsX1XA.3.i i 4.q.y.} ! } } [ :.r.r.a.i.y.a.y.a.y.a.a.a.a.a.a.y.y.a.D.a.a.a.a.a.a.a.a.>XQ 6 ' _ / { } { ! { { { { { { { { { { :.:.[ :.:.:.i.a.>X# sXKXKXFXFXKXA.3 u.%.{ { [ { { { { { { :.{ *.{ { { { { *.{ i.6 Q >X X2X X3X>X6X2X2X2X:X#XOX0XbXbXwX0XwX0X0X0X0X0XbX0X0X",
"7.7.7.W 7.7.7.7.7.9.7.7.7.7.7.W [.9.7.7.7.E R < E W [.$XY }.*X].W T S 2 9 Z y u u 9 y 2 n Z A P A P n Y M M oX).).oX).).*X).'.oX).).'.).'.*X'.'.*X'.*X'.'.).'.'.).'.'.'.'.(.(.'.'.'.'.`.'.`._._._._._._.`._._._._._._._._._._._._.`.`.`._._._.`._.^._._.^.`.`._.`._.`._.(._.(._.^._.^.^.^.^.^.^.^.^.m ^.^.m ^.m m m ^.^.^.(.`.`.'.`.'.'.zX*X*X*X=X*X;X=X=X*X=X*X;X*X;X;X*X;X;XzXzXzXzXzXzXcXzXcXvXcXvXnXnXnXSX}.2.p.p.p.` 1.2. .1. .1.i <XA.%XA.&X&XA.&XA.A.%XA.&XA.%XA.;XI   pXPXGX;XbXbXwXgXDXVXKXFXpX# 3 L.t.e.y.y.y.e.y.y.y.y.y.y.D.y.D.D.D.D.D.D.D.D.G.G.G.D.G.G.D.J.J.J.G.D.G.D.F.D.H.H.G.J.G.G.H.G.F.G.J.J.G.H.J.J.G.J.J.H.J.H.H.K.J.J.H.J.H.G.G.G.J.K.G.H.J.K.H.K.K.K.K.K.!.R.!.F.kXZXDXFXDXFXJXKXFXFXFXFXKXKXFXFXKXFXFXJXDXCXSX1Xi 4.2. . .1.( i ( i i e ( 2.$.2.$.$.$.2.$.2.@.2.6.2.u.u.u.u.q.u.u.u.u.i.u.a.a.a.u.a.4.# I.T.v.v.v.n.n.m.m.m.n.c.c.n.m.E.j.o o X .     X     . g !.T.c.n.n.M.n.N.N.n.M.M.M.N.N.N.N.M.N.n.B.n.m.E.j.. X .           . . . g W.m.M.M.N.n.n.M.M.N.B.B.B.B.M.B.B.B.B.B.B.B.B.B.B.B.B.B.B.B.B.N.B.N.b.B.B.B.B.B.M.V.M.B.B.M.B.M.V.W.W.~.~.~.W.~.yXj.3.KXDXJXFXFXFXDXJXJXFXKXFXFXJXKXKXKXKXKXJXKXJXKXJXFXJXJXFXJXKXLXLXKXKXFXCX9X:X2...r.i.i.:.r.i.i.i.i.i.r.a.r.a.r.a.i.y.a.i.a.y.a.i.a.a.a.a.i.r.a.r.r. XQ 6 _ } / ! { { { { { { { { { { { { { [ *.[ :.:.w.a.a.4.# KXJXFXFXKX@ 2.%.} *.{ { [ *.{ { { { { { [ { :.[ { { { *.^ 3  X X>X2X:X3X2X>X:X4X3X2X:X#XoXoXbXbXwX0XwX0X0X0X0X0X0X0X",
"2 y y 2 y 2 y 1 1 u u 1 y u 2 y 1 y y 1 u y y & R I +X+XE 2 2 : : > : 1 * I  . . .( I 1.u 3.3.3.3.3.C.3.1 *XoX).).Z.).).+XoX).oX).).oX).oXoX).oX).oX).*X).oX).).oXoX).*X).).).*X).oX'.).XX*X).XXoX'.'.*X'.).'.'.).'.'.'.).'.(.(.'.'.'.'.'.(.'.`.(.'.'.(.(.(.(.'.(.`._.`.'.(._.(.`._._.`.`.`.`.`._._.`.'.`.`.'.`.`.`.`.`.`.`./.(./.).*X*XzX*X;X%X$X;X=X;X=XzX;XcXnX2 O aXGXpXnXGXGXGXnXnX8X$XOX8.E U R I P P P 0 0 i i  .i I 1.3.1.6.6.I ,X#X%X#X&X#X&XA.%XA.&XZ.A.A.%X;X&X  1 KXAXqX0XzX0XbXVXVXAXLXFXFXeXo 7 L.a.t.y.y.y.y.y.+.y.y.y.y.y.D.D.D.D.U.U.U.K.U.!.K.U.U.K.U.R.U.U.U.U.!.U.U.U.R.R.U.K.K.K.K.K.K.K.H.H.J.H.H.J.J.J.J.G.G.G.G.G.G.G.H.H.G.G.K.J.H.G.K.G.K.H.K.K.K.U.K.!.K.K.rXF.hXZXDXFXFXSXDXFXDXDXKXJXJXFXDXFXFXFXDXZXSXDXDXI 4.2. .1.( ( ( ( i i i r 5 6.2.@.$.2.$.@.2.2.#.2.$.6.$.u.$.q.6.q.u.q.>.u.u.>.u.2.q.q.) # !.T.b.c.n.n.c.m.n.n.n.c.c.n.m.m.E.|     O X X   X X . - !.b.m.c.c.M.M.m.n.B.n.M.B.B.N.n.B.M.V.M.m.M.n.E.j.X X . O   O . . . $ h E.W.V.B.n.N.N.N.N.N.N.B.B.M.B.B.B.B.B.B.B.M.V.B.B.B.B.B.B.B.V.M.N.B.B.B.B.B.B.N.B.B.B.V.B.B.B.B.V.M.T.W.W.W.W.~.W.~.Y.g KXFXSXKXKXFXKXKXKXLXKXLXKXKXLXLXLXLXLXLXLXLXKXLXKXKXLXKXLXLXKXKXKXLXLXLXDXJXNX3X2._ i.r.<.:.i.i.i.i.r.a.r.a.a.a.a.a.a.y.a.y.r.a.a.a.a.r.y.i.a.a.r.a.a.6 6 _ { { { { / { ] { { { { { { { { { { *.:.*.:.<.i.P.# NXKXDXDXSX@ 2.&.} { { [ { { { { { { { { { { { { { { } _ 3 6.>X>X>X:X1X:X:X>X:X:X6X:X2X:X:X3.Z.VXwXwXwX0XwXY.0X0X0XgX",
"< y > > > 2 1 0 1 > 1 > & > u 1 y 1 1 & 2 1 > 1 [.E {.-XI : > y y y 2 y * i  .) )  . .| 8 C.3.j.j.| j.C.7 +XW oX).f.oX[.f.).).f.oXoX).Z.).*XoX+XoXoX*X*XOX+X*X+XoXoX[.+X*XoXoX*X+X*X*X+X|.oX*X).*XoX).*X).oX*X*X*X*X*X*X).*XXX*X'.*X*X).*X).*X'.).'.'.).XX'.).'.'.).'.'.'.'.'.'.(.`.(.'.'._.'._._._._._._._.`.'._._._._.'.'.'.XXzXzX*X=XXX*X$X=X;X*X;X;XzX;X;X8XOX  P   &XnX;XU I 0 & o o o @ 7 7 5 i U W U U 7.9.P P y > @ o @ @ * 0 j &X7XqX&X&X%X%X&XZ.&XA.A.Z.&X&XpX- X IXnXpX%X%X0XbXoXW VXAXDXAXFXFXSX7 @ 2.P.y.y.y.y.y.y.D.o.D.D.D.y.D.o.D.U.J.D.J.G.D.D.H.H.J.J.J.G.H.J.J.J.H.H.K.K.U.K.K.U.!.U.K.U.!.!.!.!.!.U.!.!.!.!.!.!.!.!.!.!.!.!.!.K.G.G.H.K.J.K.K.J.H.K.K.K.K.K.J.K.K.!.S.hXCXSXDXFXFXKXKXKXKXFXKXFXFXJXFXSXDXDXSXCXDX,X .2.1.1.i  .G i i i i i e e ^ $.$.$.2.$.$.$.#.2.$.$.#.2.$.$.$.$.#.$.$.$.$.$.$.%.%.$.6.8 3 !.m.v.z.n.n.m.n.m.n.c.n.n.v.n.m.m.~.!.g   o X   X     g ~.T.N.m.B.m.m.m.E.N.m.V.V.n.n.n.c.M.M.M.M.n.m.E.j.. X X X X X   . j uX~.W.m.m.n.n.n.n.N.N.N.N.m.V.B.B.B.B.B.B.B.B.M.M.B.B.B.B.B.B.B.B.M.B.B.B.B.B.B.B.B.B.B.V.B.B.B.B.B.V.M.V.V.W.W.W.W.W.~.E.7 FXKXFXKXKXKXKXKXKXLXKXKXLXLXLXLXLXLXLXLXLXLXLXLXLXLXLXLXLXLXLXLXLXLXLXLXLXLXJXJXDX>X^ r.i.:.r.i.i.i.a.i.a.a.a.a.a.a.D. XP.a.a.a.r.r.a.a.r.a.r.i.a.a.i.a.6 6 } ' { { / { { { { { / { { { { { { [ :.[ :.:.:.a.) i KXAXJX<X# u.*.{ *.{ { { { { ! { { { { { { { { { %.%.6 ) >X>X X>X3XL.A.I.0.:X2X:X2X2X X}.:X3.3.gXwX0XwXwXwXwX0XgXf.",
"Z Z P > : Z Z S S S S S S P $ u u S S P y S A : y R ).S : S S y S u y 1 # I  . . . . .4.8 C.| | 3.j.C.Z.- +XoX+X+XOX).f.+X).+X+X+X).Z.).+X+X+X*X*XE P 1 & 1 I OX*X+X[.+X[.+X*X*X+X).*X+X*X+XoXoXoX+X*XoX+X+X+X*X*XoXoX).*XoXoXoXoX).oXoX*X).*X).*X).*X*XoX).).[.oX).+X).*X).oXXX*X).*XXX'.oX*X'.).*XXX'.'.'.).'.*X'.XX*X'.*X*X*X*XzX*XXX*X=X;X%X;XzX*X;XcXzXnX+X  +XIXf.  O . 1 - I  .0.:X1X3X9X5X9X9XNXLXUXIXPXUXUXIXJXHXSXSX7X&X7.u > . X f W Z.7X-X&X&X+X&X%X&XZ.;XU . 7XAXnX&X0X0XqX%X    = P qXJXFXFXFXFX7 @ 1.L.y.y.D.y.y.y.y.D.y.y.D.D.D.D.U.J.S.D.J.J.J.J.J.D.H.J.J.H.J.J.H.H.J.J.J.H.D.J.J.H.F.J.J.G.G.J.J.H.G.G.G.G.H.G.H.H.F.H.J.G.G.G.J.J.G.G.G.J.K.G.K.K.K.K.K.K.K.K.R.K.!.F.CXDXZXDXDXFXDXDXSXFXDXFXFXFXFXDXSXFXSXCXCXDXi 3.2. .)  .i i t i t e e e r 6 2.@.$.$.) $.@.$.$.#.$.$.$.$.$.$.@.$.$.$.$.q.$.>.$.$.2.6.8 7 ~.z.m.n.c.n.n.n.n.m.v.n.n.n.m.v.v.T.T.uX|   X .   o . g E.T.m.V.v.W.E.~.~.~.W.W.b.V.M.B.n.n.N.n.M.n.M.W.j.. X     . . - F.~.m.m.b.n.n.n.M.M.M.N.N.N.N.B.B.N.N.B.B.B.B.B.B.B.B.B.B.B.B.B.B.B.B.B.B.B.B.B.B.B.B.B.B.B.B.B.B.B.B.V.m.B.m.V.W.W.W.W.~.~.~.- hXKXKXKXFXKXFXKXKXKXLXLXKXLXLXKXLXLXLXLXLXLXLXJXLXLXLXLXLXLXLXLXLXLXLXLXLXKXJXSXJXJX>X' i.i.:.r.i.i.i.a.a.a.a.a.a.a.P.P.a.a.P.a.a.y.a.a.r.a.y.a.r.a.i.a.>XQ 3 $.{ { { { { { { { { { { { { { *.[ *.[ :.:.r.r.a.@ CXKXAX3.5 %.{ } { [ { &.%.Q ! *.[ *.[ { { { :.*.q.( 6 >X X5X:X>XL.4.lXuXI.A.L.:X2X:X X X X}.0.U gXqXwX0X0X0XVXI 3 ",
"Z S + R =X: S 2 y S A y u * &X7 u u S u S 2 P y y : : u A S S y y y 2 > * i  . ... ...4.i S.C.4.j.S.C.C.1 +XOX).+X+X+X+X+XOXoXoXoXoX+X+X*X+X;XY 1 . o $ u 0 o . S =X*X*X*X+X*X+X+X+X+X+X*X*X*X+X+X+X+X*X+X+X+X+X*X+X+X*X+X*X+X*X+XoX*X+X*X*XoX*XoXoX[.[.).+X*X).[.W +XOX).oX+X*XoX*X).*X*X*XoX*X*X*X*X+X*X*X*X*X*X|.*X*X*X*X*X+X*X*X=XzX=X;X=X;X;X=X;XcXvXnX*X+ 1 HXVXPX;X  u 8X7X3X,X>X>X XL.a.P.p. X X0.9XHXPXPXUXJXPXUXHXPXUXUXIXIXIXAX&XP +     P Z.qXpX&X&XZ.qX@X. W IXAX&X%X;X*XnXo o 8.7 o o f qXKXFXFXFX&Xo 8 L.y.D.y.y.y.D.y.D.o.D.D.D.D.K.H.D.D.J.D.J.J.J.J.F.J.J.J.J.J.J.J.J.H.J.J.G.J.J.J.J.J.J.J.J.J.G.J.J.J.J.K.J.J.H.H.J.J.H.H.J.k.G.K.G.G.G.G.K.G.H.K.K.K.K.K.K.K.K.K.!.S.hXZXDXDXFXFXFXFXKXKXFXFXFXDXJXDXDXSXDXCXSX,Xi 2.1.1.) ( i i i e i i 5 i e 4 $.$.@.#.#.$.$.$.@.$.$.#.$.$.$.$.$.$.$.%.$.$.$.$.q.u.$.u.3 | ~.v.v.c.c.v.m.m.n.n.n.c.v.n.n.c.c.c.m.v.~.<Xo . .   . h ~.T.m.~.W.F.g.h g h j.F.~.E.V.V.n.n.n.n.N.n.m.E.j.. X     o 3.~.E.b.v.N.N.c.M.M.n.M.M.M.N.N.n.B.B.N.N.B.B.M.B.B.B.B.B.B.B.B.B.B.B.B.B.B.B.B.B.N.N.V.B.B.B.B.B.V.B.V.B.B.M.V.V.V.V.V.W.W.W.W.yXg &XFXFXKXKXKXKXKXKXLXKXKXKXLXKXLXLXLXLXLXLXLXLXLXLXLXLXLXLXLXLXLXLXLXLXJXLXFXLXLXFXJXSX6.q.i.i.w.i.a.i.r.i.i.a.a.a.a.a.a.a.a.a.a.r.i.i.i.a.i.i.r.a.r.r.a.>X1X6 6 $./ / ! { { { ] / / { { { { { { :.:.:.[ :.r.a.6 A.KXSXu ( %.{ [ *.{ &.{ 6 / *.{ { { [ [ { { { ;./ 3 >X Xa.>X>XL.A.jXiXuXjXjXC.0.:X:Xp. Xp. X}.A.j VXgX0XwXhXj 4 ( ",
"S & A -XcXmXo Z F Z F u i - eX1X4 u I S S S y A y A S 2 A A y S S u y y 4 I  .`  .....4.8 C.4.j.j.S.F.Y.1 =X+X+X*X{.+X+X+X+X+X+X+X+X+X*X+X;XS o @ I U I 1.1.1.u o * 7X*X*X+X*X+X*X%X*X*X$X*X*X+X*X%X$X+X%X+X+X+X*X+X*X%X*X+X*X+X+X+X+X+X*X%X$X+XOX+XOX+X[.+X{.+X+X+X+X[.+X+X+X+X+X+X*X+X*X*X*X*X+X*X+X+X{.+XOX+X+X*X$X*X+X+X*X$X*X$X=X=X-X=X;X=X-XnXmX=XA o   O %XVXGXGXHXnX. @ 1.:XL.u.a.t.u.a.p.a.a.p. X6.p.NXJXPXJXUXHXUXPXUXPXHXUXIXPXUXIXUXHX-X-     f +XaXqX-X  1 LXnXVX%X%X%XgXA . 3.2.1.4.i O o $ &XKXKXFX<Xo # L.P.t.y.y.y.y.D.y.D.D.D.D.K.J.G.D.J.J.J.J.G.J.J.J.J.J.J.J.G.J.J.J.J.J.J.J.J.J.J.J.G.J.J.J.D.G.G.G.J.J.J.J.J.H.J.J.J.H.K.+.G.J.G.G.K.K.G.K.K.K.K.K.K.K.K.K.K.K.!.F.uXfXhXhXgXdXsXpXfXSXFXDXDXFXDXSXDXSXSXSXSX1.2.1.2.) i i i t i e e u e e e 6 ^ $.@.$.` @.$.@.$.$.$.#.$.$.$.$.$.$.$.$.u.$.$.%.$.$.u.4.3 | !.v.m.v.n.v.n.n.n.n.n.c.c.n.n.n.v.v.v.b.F.iXeXo X . . h ~.T.~.F.$ o - h g.h - o $ F.~.m.M.n.c.n.N.n.M.T.j.. O     3.ZXuXl.l.b.m.n.c.n.n.n.B.B.M.B.M.T.B.B.B.N.B.M.B.M.B.B.B.B.B.B.B.M.B.B.B.B.B.B.B.B.B.B.B.B.B.B.M.V.M.V.M.M.B.B.B.V.V.V.V.W.W.V.W.iXj C.DXCXFXKXKXFXKXKXLXKXLXKXLXLXLXJXPXJXLXLXLXLXLXLXLXLXLXLXLXLXLXLXLXLXLXLXLXFXKXKXKXJXfX` i.w.r.;.a.a.i.r.i.r.a.r.a.y.r.r.y.r.a.a.a.i.a.i.a.r.i.y.r.a.r.a.a.5X3 6 _ { / { { { { { { { { { { { { { :.{ [ :.r.r...7 IXBX# 2.' { { { %._ 6 / $./ [ { { { { *.[ { *.6 ^ 5X:X5X>X>XC.rXiX~.~.~.uXjXrX| :Xp.p. Xp. X0.8.P gXwXgXU # 1.r ",
"y > O =XcXE : A A S 0 # 7 S.S.I.A.o @ u S A y y A y A S y Z S u A u 1 0 %  . .......| 4.8 4.S.j.j.C.C.C.- ;X+X+X+X*X*X$X+X+X*X*X*X+X*X+XnXy o u I i 7 i i I 1.1.1.@ 1 -X$X=X+X*X*X%X=X;X=X=X%X$X$X*X*X*X$X*X*X%X%X=X$X*X*X*X%X*X%X*X$X$X$X$X+X+X+X[.+XOXOXOX+XOX[.OX{.+X+X+X*X$X*X*X$X*X%X*X$X+X$X$X+XOX+XOX$X+X+X+X*X$X$X$X&X=X-X%X-X$X-XcXvXnX7XI o o 1 1   oXzXqX;XVXVXPXSX$ @ 1.:Xp.u.a.u.i.i.i.a.i.i.a.i.6. XSXPXPXUXUXPXUXHXPXPXUXUXIXPXUXUXUXUXUX;X-     3.f   BXAXSX+X;X%X0X+Xo i 0.) 2...4.4.i # o o pXKXLXSXo @ 4.P.D.y.D.y.D.D.D.k.y.D.H.G.D.J.D.D.J.D.J.G.D.J.G.J.D.J.J.J.J.J.J.G.J.K.J.J.J.J.J.J.J.J.J.J.J.J.J.G.G.J.H.J.J.K.G.G.G.k.D.J.G.G.K.K.K.G.K.H.K.K.K.K.K.R.K.!.!.S.rXeXpXsXVXCXkXCXCXCXDXAXDXDXSXDXSXSXSXNXSXI 2.1.( ( i ( i i q e e e e e 5 e e 1.$.@.$.$.@.$.$.#.$.6.#.#.$.6.$.$.$.$.$.$.>.>.$.%.$.2.3 C.E.v.v.v.n.m.v.m.v.c.c.n.c.c.n.n.v.m.T.W.yX| o . X O . j uXyX$ o j.~.yX~.~.~.yXuXj.o g ~.W.M.M.n.N.n.m.W.C.. O .   . o j.uX~.T.W.m.n.n.c.M.M.B.B.B.M.B.B.B.N.N.B.B.B.B.B.B.B.B.B.B.B.V.B.B.B.M.N.B.B.B.B.B.B.B.B.B.M.M.M.B.M.V.B.V.V.B.V.V.V.W.W.W.W.yXj.U ZXAXKXFXKXKXKXKXKXLXKXKXLXLXLXLXLXLXJXLXLXLXLXLXJXLXJXLXLXLXLXLXLXLXDXLXLXHXFXKXAXFXSX2.u.r.r.:.i.i.a.i.a.a.i.a.r.i.a.a.i.a.r.r.a.i.a.i.a.i.i.i.i.y.r.r.a.t.a.3 6 $.' { { / { / { { ! Q } { { { { :.:.[ *.:.q.# JXaX# 2./ } } { _ 3 ! } / { *.{ [ { { [ { :.:.%.3 @.5X>X1X4.I.iX~.~.~.~.~.~.yXuX .L.p.p. X6. X0.1.Z.VXC.3 ( r ( ",
"y A 2 . : & P S S % 3.,XI.S.l.| C.rX:X# F S y y y P 2 y A S y y u u 2 > % i ..........4.8 S.j.S.4.C.F.Q.g ;X$X*X*X$X*X+X+XZ.W W W oXoX;XU   u I 7 i i u 8 i i  .1.1.o U ;X$X&X*X;X*X=X*X;X%X=X;X;X*X;X%X;X;X=X*X;X*X$X*X%X$X=X;X=X%X$X%X=X=X$X+X+X$X$X@X+XOX+XOX+X+X$X%X*X*X*X%X*X=X*X*X*X*X*X$X&X*X$X+X$X$X$X$X*X*X$X*X$X=X;X=X&X;X=X;XnXnX[.@ @ @ i 8.#Xo 1 wX;X%X0XoX;XnXAXBX8.o G  Xa.u.i.u.i.i.a.i.i.i.i.a.p.6.BXJXPXPXUXUXUXPXIXUXHXUXIXUXUXLXHXIXIXIXAXP + X ;XDXAX;X;X%X;XnXo * 0. .2._ ..` ..2.1Xt.5 @ o 8.KXKXI @ 2.P.D.y.D.y.D.D.D.D.D.K.J.J.G.G.G.G.G.D.J.J.J.D.J.G.J.G.G.J.J.J.J.J.J.G.J.J.G.J.K.J.J.J.J.G.J.G.J.G.J.G.G.H.J.H.J.G.k.G.J.G.G.K.J.K.H.K.K.K.K.K.K.R.K.K.K.U.F.hXkXZXAXSXCXZXDXAXCXZXDXDXSXDXSXSXSXDXSXsXi 2.) @.( i e i e q e q w q e q e 6 @.$.) #.#.$.@.$.$.#.#.$.$.&.&.$.&.$.&.$.$.$.$.%.$.6.2.3 S.T.v.v.c.c.z.c.m.n.n.n.c.n.n.n.m.m.~.uXj.X . X X   . . U jXo g !.~.W.b.m.b.V.T.T.~.~.| $ yXW.b.N.n.n.n.T.C.o o . O o . . X j.rX~.W.m.M.N.N.n.b.B.M.B.M.B.N.N.N.B.B.B.B.B.B.B.B.B.B.B.B.B.B.V.M.B.N.B.B.B.B.B.B.B.B.M.M.B.M.M.B.B.B.N.V.V.V.V.W.V.W.W.yXj.j ZXCXFXKXKXKXKXKXLXKXKXLXJXKXLXLXJXLXLXLXLXJXJXLXLXLXLXLXLXJXLXLXLXLXLXJXFXLXPXKXKXDXJXL.%.i.:.:.i.i.i.i.a.i.a.i.i.a.a.r.y.r.i.a.a.a.i.i.a.r.a.a.r.r.a.r.e.i.a.a.6 6 / / { { / { { / { { 6 Q %.{ } } :.{ { r.a.3 sXBX# 2.$./ _ $.6 / =.{ { { { { { [ [ *.{ :.{ i.q.6 ( NXA.S.iX~.~.~.~.~.~.~.~.uXiXj 4.4. Xp. X6.0.1.0.3 i ( ^ ^ ",
"A A P 1 2 2 u u y u @ 4.C.S.S.F.S.C.7 u u S S A u y u y y S y 0 S Z y 2 4  . .......4.t.h S.S.S.j.l.F.I.- ;X+X=X$X+XOXZ.Z.@X%X%X;X%X;X$X  & u u u 5 7 i 5 i i  .1.0.i o OX;X-X;X*X;X;X;X=X;X=X;X=X;X=X;X;X*X;X;X=X;X;X*X;X;X*X;X;X*X=X;X*X;X*X$X+X$X+X$X$X$X$X$X$X*X$X=X-X=X$X*X;X*X;X=X%X=X%X;X*X*X$X$X$X=X$X$X$X=X=X=X;X=X-X-X;X;X7X-XP o o G 1.0.3.4.# $ ;X*X0X*X*X0X%X%XnXAXJX-X@ 3 6.a.u.i.r.i.r.i.r.i.i.i.i.a.u.2XSXPXHXUXIXIXUXUXUXIXIXUXPXIXPXPXJXPXIXMXo U KXAXpX%X0XqXnXf o 1.2.2.` ' ...._ ~ a.a.a.t. .@ @ I JX7X@ ( t.D.y.D.D.S.D.D.G.U.J.S.D.G.D.G.G.J.J.J.J.J.J.J.J.J.D.J.J.J.J.H.G.J.J.J.J.J.G.G.J.J.H.J.G.G.K.J.J.J.J.J.G.H.J.G.+.G.K.G.G.K.K.K.K.G.K.K.K.K.K.K.K.R.K.!.S.hXZXCXZXZXCXZXDXhXdXDXSXSXDXSXJXSXSXSXSX,X( 1.@.( i e i i e q q q q 9 q e w 3 $.@.#.#.` @.$.$.$.#.&.#.$.$.$.$.$.$.>.$.$.u.&.%.$.u.) 4 l.l.m.v.n.n.n.n.n.v.v.v.n.c.n.n.V.E.| $ . X o O . X O   U - h yXT.m.m.m.N.b.m.b.V.b.W.~.j.7 ~.b.N.n.N.n.V.F.. o X o   $ X o   $ h F.E.M.N.n.B.n.B.B.B.M.N.N.N.N.N.M.M.B.B.M.B.B.B.B.B.B.B.B.B.B.N.B.B.B.B.B.B.B.B.B.V.B.B.M.V.B.V.V.N.V.V.V.V.W.W.V.W.~.C.g ZXhXFXKXKXKXKXKXKXLXKXKXLXLXLXLXLXLXLXLXLXLXLXLXLXLXLXLXLXLXLXLXLXKXKXLXPXLXKXKXKXKXJX9X' i.i.:.i.i.i.a.i.r.i.r.a.i.i.i.i.a.i.i.r.i.i.a.r.a.y.i.r.a.y.r.a.i.w.r.a.6 6 / / { / / { { ! { ' Q 6 / &.{ *.<.} %.) 3 # 3 3 6 ( _ _ 3 ^ $.&.{ { { [ { { { { { { [ :.:.<.<.6 i L.rXiX~.W.~.~.~.~.~.W.W.~.~.| p.6.0.u. Xp.p.r 6 ( ( ^ ^ ",
"y y y Z A A y y y S 7 # C.S.I.S.C.S.$ i u u S y A u y y B u y S u S y > 4  .1.......4.S.i S.S.j.F.j.Y.Q.d &X&X%X+X9.$X&X+X%X&X%X%X;X;X+X  u u 5 5 u 7 u 5 i 8 i i 1.1.$ P aX$X*X;X;X;X;X;X;X7X;X-XzX;X;X;X;XzX;X;X;X;XzX;X;X;X;XzX;X;X;X;X=X*X=X-X*X$X$X=X$X$X$X*X$X=X;X;X*X;X;X;X%X;X;X*X;X;X;X$X=X*X$X&X*X$X;X*X=X=X=X-X;X=X7XcX7XR * o i 1.2.2.1.2.I o W %X%XoX%X0X%X;X%X%XnXAXSX=X@ # 4.p.i.i.i.r.i.r.i.i.i.i.i.i.u.>XSXPXSXPXJXJXUXIXPXPXIXUXUXHXHXPXIXIXP & JXBXVX;X;X%XbX0X  I 1...) ` ' ....' ' y.y.y.y.a.t. .3 * A.8.3 8 L.L.D.D.S.D.k.J.U.J.D.G.J.J.D.J.D.J.J.G.G.J.J.J.J.G.G.J.H.J.G.J.H.G.F.J.J.J.J.J.K.G.K.G.J.K.G.G.H.G.G.J.G.K.G.+.G.K.J.H.K.H.H.K.K.H.K.K.K.K.K.K.R.K.U.S.jXkXZXkXCXCXZXDXgXfXZXCXCXDXCXSXLXsX#X&X#XI ( i i t i e e q q q q q w q q e 4 ^ @.#.#.` #.$.#.$.$.$.&.&.$.&.$.$.$.&.>.$.$.>.$.q.6.@.4 H.H.v.c.c.v.v.n.v.n.m.v.n.v.v.m.W.h o o o X         O X $ = Q.E.m.m.M.M.n.N.n.n.N.N.N.M.~.| l.V.B.M.M.v.V.F.X $ o             o $ $ F.m.m.b.N.M.N.N.N.n.N.n.B.B.B.B.M.B.B.B.B.B.B.B.B.B.B.B.B.B.B.B.V.B.B.B.B.B.B.B.M.M.M.M.M.V.B.V.M.V.V.V.V.W.W.W.W.~.F.a CXkXDXFXKXKXKXKXKXKXLXKXLXLXLXLXJXJXKXLXLXJXLXKXLXJXLXKXLXLXLXJXLXLXLXKXLXKXKXJXKXJXJXNX` i.:.r.i.a.i.i.i.a.i.r.i.r.i.a.r.a.r.i.i.a.a.i.i.i.a.i.y.i.i.i.i.r.a.a.y.q.6 6 { { { / / { { { { _ ! 6 / %.%.%.' 6 6 ! _ ^ ^ 6 3 _ 6 Q / { { { { { { { [ { { { :.{ :.:.:.:.i.4 8 lXiX~.~.W.~.~.~.~.W.W.W.~.!.| S.0.p. Xu.6.6 ^ t ^ ^ r ",
": u A Z 2 A A y Z u u i ,XL. .| L.I.u u S y y S S y S y u y S 9 u Z 2 0 * i ........| t.h S.C.l.C.F.Q.Q.g pX$XZ.Z.;X&X%X&XA.C.A.&X&XnX$ X u u 5 u 5 5 5 u e i i i ( 6. .o @X8X;XzXzXzXzXzXzXzXzXzX;XzXzXzXzX;X;XzX;X;X;X;X;X;XzX;X;X;X;XzX=X=X=X-X=X=X$X=X=X=X$X=X-X;X;X;X;X;X;X;X;X;X;X;X;X;X$X;X=X=X-X;X&X$X;X=X;X=X-X;X=XnX7XE o o 0 0.0.1.1.1.1.3.o P qX%X%X%X0X%XqX%X%X%X%XqXMXJXMXu @  . Xu.r.i.r.r.i.r.i.i.i.a.a.u. XSXSXBXIXJXAXPXPXIXPXIXIXLXLXHXIX$X. -XHXAXqX%X%XbXVX= & 3. .2...` ........_ y.y.r.y.e.y.P.L.| 3 @ # @ 3 L.U.y.D.D.D.D.K.J.J.J.J.J.D.J.G.J.J.J.J.G.J.J.J.J.J.J.J.G.G.J.J.G.J.J.G.J.G.J.G.J.G.H.J.J.G.J.G.K.G.K.G.G.G.k.G.K.G.K.G.K.H.K.G.K.K.K.K.R.K.K.R.R.!.S.hXkXkXZXkXCXCXCXpXdXSXCXSXAXSXIXZ.o o o @ i I ( i i e i q e q q q q e q q w 4 ^ #.$.#.#.#.#.$.#.$.$.$.$.&.$.&.>.$.>.$.>.>.$.u.$.u.) 7 F.m.v.c.v.c.n.v.n.v.n.n.m.n.m.m.W.- . O .         . X O   F.~.m.M.M.n.n.N.n.N.N.N.N.N.N.W.W.h W.V.n.n.M.T.Q.  o   . .     X X . o o F.W.v.B.B.V.N.n.N.N.N.M.M.N.B.M.B.B.B.B.B.B.B.B.B.B.B.B.B.B.B.M.M.B.B.B.B.B.B.B.M.V.V.M.M.M.M.V.M.B.V.B.V.V.V.W.W.~.Q.7 kXgXDXKXKXKXKXKXLXKXKXLXKXLXLXLXLXLXLXLXLXLXLXLXLXLXLXLXJXKXLXKXLXLXJXJXKXLXKXKXKXKXJXJX$.u.i.:.:.i.i.a.i.r.a.i.i.a.i.i.i.i.a.i.a.i.i.y.a.y.r.a.i.r.i.a.i.a.r.>Xr.p.p.6 Q / { { { { { { / / } Q 6 Q } _ 3 / %.q.} { %.q._ 3 6 $./ { { { { { { { { { { [ [ :.*.[ :.:.i.i.6 8 jXyX~.~.~.~.~.W.~.W.W.Q.iXQ. .0.6.u. X^ r ^ i ^ ^ 6 ",
"I > S S A y y S u A u I 3.# $ $ $ A.I 0 P S y y y A y S Z S y y y A 2 0 *  .4.......O.S.~ F.S.j.k.F.Q.Q.g -XU &X<X&XA.&X0XC.0X0X%X;X$X. u u 0 u 5 5 u 5 5 i i e i i 1.4.@ u cX;X;XzX;XzXzX;XnXzX;XcX;XzX7XzX;XzX;X;XzX;XzX;X;XzXzX;X;XzX;X=X=X-X;X=X=X-X;X&X-X-X=X;X;X;X;XzX;XzX;XzX;X;X;X;X;X=X=X=X-X-X-X$X;X-X;X&X;X-XcXmXU o o i 0.4.2.) ` #.@.1.@ . qX+X%X%XzXf.X P nXqX%X%X+XqXAXJXJX3.o i p.u.i.i.q.r.i.i.i.i.i.i.a.2.p.SXJXJXJXJXHXJXPXJXJXHXPXHXIXAX  $XLXMXqX;X%XqXHXP . o 1.4.2.2...' 2.} _ O.a.e.y.y.y.y.y.+.D.P.t.5 3 @ # ..U.J.D.D.D.K.J.G.D.J.J.J.J.G.J.J.J.G.J.J.G.G.G.J.G.J.G.J.J.G.J.G.J.J.G.J.G.G.J.K.G.J.G.J.G.G.G.J.G.G.K.G.+.H.K.G.G.H.K.H.K.K.K.K.K.K.K.K.R.K.K.!.S.hXkXZXkXCXDXZXZXsXpXDXSXSXSXJXI o u 1.I * @ i G i e i e q w q q q e e q q e 6 6 @.) #.#.$.$.$.$.$.$.$.$.&.&.&.$.>.$.>.&.&.>.%.%.6.( 7 F.m.v.v.n.z.v.n.n.n.v.v.v.m.n.m.~.g o O O   . . X X     g yXN.b.N.n.n.M.N.n.N.N.N.b.n.V.B.V.l.m.n.M.n.m.W.Q.X o . .     . . . o $ . F.E.V.v.m.m.N.N.B.N.M.N.B.V.B.B.N.B.B.B.B.B.B.B.B.V.B.B.B.B.M.B.B.B.B.B.B.B.B.B.V.M.V.M.M.V.V.B.B.B.B.V.V.V.W.W.W.~.tX- kXdXDXKXKXKXKXKXLXKXLXKXLXLXLXLXLXLXLXJXLXKXLXKXKXLXJXLXKXLXLXLXKXJXLXKXKXKXKXLXLXLXSXJXp.q.i.:.:.i.i.i.i.a.i.i.i.i.i.i.i.i.i.a.i.r.r.a.a.i.i.i.i.a.i.r.a.i.! a.P.u.a.3 ^ _ { { { { { ! { { ! { _ 6 6 3 6 %.} { { { { / %.Q 6 } / { { [ { [ { { [ { { :.{ :.[ [ :.:.w.y.a.8 7 jXyX~.~.~.W.~.W.W.W.~.~.uXS. . Xu.u.6 r i t r Q 6 ",
"BX% Z u Z S A u S u P * $ u u P u * > S u F S A 2 P S y Z S y u u u 2 > *  .....O.....S.8 S.F.l.j.F.Q.!.7 Z.&X%X%X&X<XY.&XA.0X<X&XqXU . u 7 7 q u 5 q 7 5 u u i i 8 @.2.I o ;XcXzXcX;XzX;XzXzXzXzXcXcX;XzXcXcXqXzX8XzXaXnX;XnX;XqX;XcX;X-X;X;X-X;X-X-X-X-X;X-X-X;X7XnX;XzX;X;XzX;X;X;X;XzX7X;X-X;X-X-X-X-X=X-X-X-X;X;XmX$Xo o i 1.2.1. .) ) ` ) 2.u . OX;X*X%X;XW X - X P zXzX%X;X%X&XSXMXKX@Xo #  Xa.u.i.i.i.:.i.i.a.i.i.a.p.a.BXJXSXLXSXJXSXSXSXJXKXLXLX1 - IXAXAX;XqXqXGXnX  3.i o 4 1...2.2.` O.} ~ y.e.r.y.y.+.y.+.y.t.t.P.P. .# #  .U.D.D.D.K.J.G.G.J.G.J.G.J.J.G.J.J.J.J.J.H.J.G.J.H.J.G.J.J.J.J.J.G.J.G.J.J.G.J.J.G.J.K.G.K.K.G.K.K.J.G.k.G.G.K.K.K.H.K.G.K.K.K.K.K.K.K.K.K.K.R.S.uXkXkXZXZXfXCXZXdXsXSXSXSXIX- . I 1.I i 1.@ # i q e i q q q q 9 q q 9 q q q w 6 2.#.#.$.$.#.#.$.$.$.&.&.$.&.$.>.$.>.$.>.%.;.>.%.q.i 8 F.T.v.v.v.c.n.c.c.v.v.n.m.m.v.m.E.h . X X o . . X o X   F.W.c.c.n.n.n.n.n.N.n.N.M.N.n.M.N.b.V.M.M.n.M.m.m.~.X $ . X O .   . o o $ X C.W.W.W.W.V.v.n.B.N.n.N.B.n.M.B.B.B.B.B.B.B.B.B.M.M.B.B.B.B.B.B.B.B.B.B.B.B.B.B.M.M.M.M.M.M.B.V.B.B.V.B.V.W.W.V.W.~.Q.7 kXdXAXFXKXKXKXKXLXLXKXKXLXLXJXLXLXLXLXLXLXLXLXJXLXLXLXLXLXLXKXLXLXLXLXLXKXKXLXKXJXLXKXJX>Xq.i.<.:.i.a.i.i.i.i.a.r.i.a.i.r.a.i.i.a.a.a.r.i.y.i.a.a.i.a.i.r.a.} } >Xa.~ 3 &./ / { { ] { { { { { { / ` 6 3 } } { ] { { { { { _ 3 Q } { { { { { { [ :.{ { [ :.[ { :.:.[ :.:.r.a.8 $ jXyX~.~.~.W.W.~.W.W.W.~.uX| 4.p.( 6 ^ i ^ r r 6 ",
"#X8.& u > Z y y 1 y u u u A y y u y F S y F y S u A Z A S u Z u S A y 1 4  .......| 4.S.~ S.F.S.F.F.T.~.- eXI.0X&X0XY.I.<XZ.eX0X&XVXo o u 5 u 5 5 5 q u u 8 u i i i ( 1.4.@ U mXnX;XzXnXqXzX;X;X;X;XnXcX;XnX;XcXzXzXzXzX;X;XzXnXqXcXzX7X;X;X7X;X-X7X;X7X-X;X7X-XzX;XnX;XzXnX;XzXzXqXnXzXnX7X;X;X-X-X7X-X-X8X$X7X-XMXcXu o 3 0.6.2.) ) $.) ) ( 1.1.o 1 nX*X%XqX- X i 0.I . X ;XnX*X0X%X%XAXnXIX7X* @ 6.>Xi.i.i.r.r.r.r.i.i.r.a.u.p.JXJXSXJXSXJXHXJXSXJXIXf.  AXAXJXpX0XzXbXUX  u 1XNXp.# # i t.2.q._ ' _ a.y.e.y.y.y.y.y.y.P.D.D.P.U.P...3 8 U.D.D.K.K.S.D.G.G.G.J.J.J.J.J.J.J.G.G.G.J.J.J.G.G.G.J.J.J.J.G.G.J.G.G.J.G.G.G.K.G.G.G.K.G.J.J.J.K.G.+.K.K.G.G.K.H.K.H.K.K.H.K.K.K.K.K.R.K.U.S.hXkXkXZXAXCXDXAXaXsXSXCXLX& o I 3.i 1.I i u @ q i e 9 q q q q 4 q w q q q q w 4 #.#.$.#.$.#.$.$.$.$.&.$.>.$.>.&.>.>.&.$.>.;.%.%.u.( 7 H.m.v.v.v.c.v.z.n.v.m.z.E.V.W.E.yXj $ $ o . o O . . . o !.T.b.n.N.N.N.n.N.c.N.N.M.V.M.m.M.V.n.n.n.M.M.m.m.~.o o o . . O . o o . $ o uXQ.g.| | h.k.v.b.n.M.V.V.B.B.M.M.B.B.B.B.B.B.B.B.B.B.B.M.M.B.B.B.B.B.B.B.B.B.B.B.B.M.M.M.M.B.B.B.B.V.V.V.V.V.V.W.~.tX- kXfXCXKXKXKXKXKXLXKXKXLXLXLXLXLXLXLXKXLXKXJXLXLXKXLXKXLXLXJXJXLXLXKXKXKXLXLXLXLXKXLXKXJX9X` u.:.r.r.i.i.i.i.i.a.a.i.i.i.i.i.a.r.a.i.i.r.i.a.i.a.r.i.a.i.i.r.a._ >X..3 _ / { { { / { { / { { { { / _ Q Q %.{ { { { { { *.{ ' Q 6 %./ / { { { { { *.[ { { { *.[ :.[ :.[ :.w.r.y...@ jXiX~.E.~.~.W.W.~.~.E.~.U. .p.6 ^ ^ ^ r r Q w ",
"u I R I T T T T I I I T R I R E T T R R I y P N o P y y S y S y A u 2 0 4 G ......O.+.t.h S.G.S.F.F.Q.Q.g eX&XI.eX&X&X&XC.qXeX0XnXZ.. 7 S q 5 5 5 7 5 5 q 5 e q i 8 i  .2.i @ nXnX;X;XpX;X7X;X;XnXnXnXzXnXzXnXzXnXnXnXnXnXnXnXzXzXaXnX;XcX7XzX;X7X;XcX;X;X;XcXzXnXcXnXzXnXzXzXqXcXnXzXnXnX-X=X7X;X7XcX-X-X-X7X7XBXR o @ 1.0.1.( 1.$.` ` ( ) 1.1.@ o nX%X;XqXX o i 0.1.6.1.o . %XbX%X;X;X%XnXAXJXIXG @ )  Xi.r.i.r.i.r.i.a.i.i.a.u.>XSXJXJXSXJXSXSXSXIXpX  $XLXMXnX%XqXqXVXW . :X:X>XdXdX( # # 4.2.2...O.y.e.y.y.y.y.+._ ~ _ ..O.....P.U.t.P.D.D.G.U.U.G.G.J.G.G.G.J.G.J.H.J.J.J.J.K.K.G.G.J.K.G.J.G.J.J.J.G.J.J.G.G.J.J.G.J.G.G.G.G.G.K.G.G.G.G.k.G.K.G.K.H.K.H.H.K.K.K.K.K.R.K.K.K.K.!.S.hXkXCXhXhXkXdXSXpXpXDXJXu o 3.1.i G i ( i i @ @ i q q w 9 q 9 q 9 9 q q 0 q q 4 #.$.#.$.$.$.$.$.$.&.$.&.$.&.&.>.$.$.>.>.%.;.;.%.q.( 4 F.v.v.c.c.v.n.n.c.m.m.k.| | h | j.h o @ . o . . o .   7 ~.T.m.n.N.c.n.M.N.N.c.N.M.M.M.V.M.n.V.n.M.M.n.n.c.~.7 X . . . o . . o o $ X o h k.~.W.W.V.V.B.N.M.M.n.N.B.N.B.B.B.B.B.B.B.B.B.B.B.B.M.V.B.B.B.B.B.B.B.B.B.B.B.M.M.V.M.V.B.B.B.B.V.V.V.V.W.W.W.~.Q.- fXkXAXKXKXKXKXKXKXLXLXKXKXLXLXLXLXLXLXLXLXLXLXLXJXLXLXLXLXKXLXLXLXLXKXLXLXJXJXLXLXLXJXSXNX( i.r.;.i.i.i.i.r.i.r.r.i.i.r.i.a.i.i.i.r.i.a.i.r.i.i.a.r.a.r.i.r.r.r.>X6 Q $.{ { ! { { { ] { { { { { { / 3 / _ / / } } _ } / _ ' ( 3 $.2.q.} $./ { { { { { { { [ { { :.[ :.:.:.r.r.a.4.# I.iX~.W.W.W.W.W.W.W.E.uX|  .6 ( ^ ^ ^ r w w ",
"BXHXBXGXBXGXGXHXHXBXPXHXBXHXHXBXHXHXGXPXnX$XPXPX=XO S S u F y S u u y y *  . ...O...t.S.8 S.F.F.F.l.~.~.- tXI.&XQ.0XA.0X&XpX&XVX&X  @ j u i 5 u 5 5 5 5 u 5 q 7 i i 8 ( 2.2.o ;X;XnX;X;XpXzX;XnXnXnXGXnXnXnXcXzXnXnXnXzXnXzXnXnXzXnXcXcX7XzX7XcX7X7X7XcX7XcXzXcXnXnXcXzXzXzXzXzXzXzXzX;X;XcXcX;X;XcX;X-X7X;XmX=X1 . i 5.6.) #.` ) #.` ` 2.@.1.4 o $X%XqX+XX o 1.2.` 2.@.2.4.# . U HX*X0X;X;XpXHXMXIX#Xo 5 L.u.i.i.:.i.r.i.i.i.i.a.6.5XSXSXJXSXSXHXSXJXo U LXMXVX;X0XqXbXnX  $XBX0.:XP.>X1X>X3 @ 8 4..._ a.y.y.+.y.O.~ t.P.L.L.a.P.a.O.t.J.D.D.D.D.K.J.G.J.J.J.J.G.J.J.G.G.J.J.G.J.J.J.G.G.K.K.G.J.G.J.H.G.J.G.J.H.J.G.J.G.J.G.J.G.J.G.G.G.G.J.G.+.G.G.G.G.H.H.H.K.K.K.K.K.K.K.K.K.K.J.!.S.rXkXkXhXMXAXdXAXpXmXLXI o I 1.i @.t ( i i i @ @ u e e q 6 q 9 q 9 q q q 4 6 w 6 ( $.#.&.#.$.$.$.&.&.&.&.$.>.&.%.$.>.&.%.%.=.%.>.u. .7 F.v.v.v.c.v.m.c.n.m.m.m.W.W.V.l.| g o O o X . X O o o g !.m.m.M.n.N.n.M.N.c.N.N.n.M.M.n.M.n.N.B.N.V.n.c.n.~.j . o o . . O O   . $ C.~.~.T.n.n.m.M.M.M.N.N.M.N.n.B.B.M.B.B.B.B.B.B.B.B.B.B.B.V.M.B.B.B.B.B.B.B.B.B.B.B.B.M.M.M.M.B.V.B.B.N.V.V.W.V.W.W.~.I.a CXkXkXKXKXKXKXKXKXKXKXLXLXLXLXLXKXLXLXJXLXLXJXLXLXKXLXJXLXLXLXJXLXKXKXKXKXLXLXKXLXKXJXJXSX@.u.i.%.i.i.i.i.a.i.i.a.i.a.y.i.i.i.i.i.i.i.i.i.a.i.y.i.r.r.r.w.i.i.a._ 6 $.{ { / { { ] { { / ] { { { } ` 3 #.' %.2._ ` $.( ) ) ~ ( # # 3 4 Q _ _ _ { { { { { { { { :.[ *.[ :.:.:.w.r.a.O.# F.yX~.~.W.W.W.T.W.W.~.U.8 6 ^ Q ^ r r 6 w ",
"[.[.+XOX*X{.{.[.[.OX{.{.*X{.{.+X@X+X}.{.{.$X@XcXBXy 2 u S y y y S Z y 0 4  .2...O...t.S.~ F.F.F.F.Q.T.~.s eXC.&XY.A.C.0XeXqXpXP . $ u u 5 5 5 q 5 5 5 7 8 5 5 i i 8 e i 1.0.@ U pXpX;XqXqXpXpX;X$X9.U 7.=XnXnXnXnXnXnXnXnXnXnXnXnXnX8X;X7XcXcX;XcXcXcX;XzX7XnXnXnXzXzXnXnXnXbXVXnXnXnXcX;X;XzXcXcX;XcXcX7XnX7.o # 1.6.2.@.) ` ) ` ) ) #.( 2.i o P qX;XP . @ 6.1.$.$.` ` @.2.4.5 o A qX;X0X%X;XqXgXnXIXMX4 # 6.i.i.i.i.i.i.r.i.i.i.a.4.9XSXSXJXJXJXIXU o LXJXAX;X0X;XqXnXX P UXJXNXp.P.P.>X1XdX1.3 5 ....y.e.e.y.t.~ u.P.p.a.:XL.L.L.P.' D.D.D.D.D.U.U.D.J.D.J.J.J.J.J.G.G.H.J.J.G.G.K.G.J.G.G.G.G.J.J.J.H.J.H.G.J.G.J.K.G.K.K.G.K.G.G.J.K.G.J.K.k.G.K.G.K.K.K.H.H.H.K.K.K.K.K.K.K.K.K.K.S.hXkXCXCXgXhXAXCXpXaX1 o I I  .@.i ( i i e i # @ G q e w q q 9 4 w q q q 9 q q q t $.$.$.$.$.$.$.&.$.&.$.>.&.%.&.>.>.%.>.;.=.;.%.u.@.7 F.m.z.v.m.v.c.v.c.c.v.m.v.m.m.m.T.~.!.| - . X . O o o g !.m.V.B.N.n.M.M.N.N.N.N.M.n.B.B.M.N.N.n.N.N.c.n.c.W.C.o o . X X o   g C.~.E.v.m.m.n.N.c.M.N.N.n.N.m.B.V.B.B.B.B.B.B.B.B.B.B.B.B.B.B.M.M.B.B.M.B.B.B.B.B.M.B.B.M.M.M.W.M.B.B.B.B.B.N.V.V.W.W.~.~.Q.7 kXsXMXKXKXFXKXKXLXLXLXKXKXLXLXLXLXLXLXLXKXLXKXLXLXLXLXLXLXKXLXLXLXLXKXLXJXLXLXLXKXJXJXSXJX4.q.i.w.i.a.r.i.i.i.i.r.i.i.i.i.i.a.r.i.a.i.i.a.r.i.r.a.i.y.i.a.i.a.q.3 _ / { / { { { { { { { { / / _ ' Q 3 ( 8 6 3 6 # 3 # # 4 * - $ o o o @ # 6 ( %.&.{ { *.{ { { [ :.[ :.[ :.:.[ r.w.y.L.# | yX~.~.~.~.~.W.~.uX1X3 ( Q r Q r r e e ",
"W E W E ).R 7.W E W W W [.).[.W [.9.9.9.7.[.[.$X;XY > A F u y y y S u > *  .2...O...t.S.~ S.G.F.l.F.Q.~.g eXC.A.&X0XI.%XgXVXI . * 7 i i 7 q 5 5 5 u 5 5 5 q 5 5 6 i 8 (  .6.5 u ;XnXpXpXVXMXE 7 @ @ 4 @ @ P BXnXnXnXnXnXnXGXnXnXnXcXcXaX;XcX8X8X7X8XnXnX7XnXnXcXqXnXzXnXGXzXGXzXzXGXnXnXGXzX+XcX;XcX;XnXBXI o i 2.1.$.` ` ` ' ` ` ) $.2.1.1.@ & +XqXW o 3 1.1.` ` ' ` ' 2.` $.1.5 @ P aXqX;X0X*XzXAXAXPX8X* @ 0.a.u.r.i.i.i.i.i.i.i.i.p.NXJXNXSXSXLXqXX aXJXAX%X;X;XVXoX  nXPXJXJX2Xp.a.>XP.1X1X4.3 # 2.P.t.y.y.q...t.p.0.L.p.L.L.P.P...D.y.+.t.t.+.t.D.J.G.G.G.J.J.J.J.J.G.K.G.J.J.J.G.G.K.G.G.H.H.J.G.K.G.J.G.J.K.K.G.J.G.H.G.G.G.J.G.J.K.K.G.k.G.K.K.K.G.K.K.m.H.K.K.K.K.K.K.K.K.U.U.S.rXfXfXsXAXdXsXLXaX- o 5 i 1.i i ( i i i i u @ @ u q q w q q q w q w 9 9 w 9 5 6 w $.#.$.$.$.$.$.>.&.&.&.&.&.&.>.%.;.%.%.;.;.*.;.q.2.4 S.H.v.v.c.c.v.v.c.c.v.m.v.v.n.v.m.m.R.E.F.| $ X X $ . g ~.b.N.n.N.n.N.n.N.n.M.M.B.B.N.B.M.N.N.B.N.n.N.n.b.W.F.. - o $ . . h Q.E.W.m.M.m.B.M.N.M.N.c.N.N.N.n.B.B.B.B.B.B.N.M.N.N.N.M.B.B.M.M.N.n.B.M.T.B.M.M.M.N.M.N.m.V.B.M.V.M.N.B.B.V.B.M.V.V.W.W.W.~.F.- DXdXfXKXFXKXKXKXKXJXLXLXLXLXLXLXLXJXLXKXLXLXLXKXLXJXLXLXLXLXLXJXLXKXLXLXLXKXKXLXKXLXJXDXJX0.%.i.q.:.i.i.i.i.i.i.i.i.i.r.i.i.i.i.i.i.i.r.i.i.r.i.r.a.r.r.i.r.5XQ 6 } } { { { { { { { { { { ' %.#.8 # o . - g h j j j.j.j.j.j.C.s.s.s.j g 7 - $ # 8 ( ` ' } } { { { [ :.:.{ :.:.:.r.r.y.t.4 | uXI.F.Y.Y.C.C.C.I.6 Q ^ r r r w 6 w ",
"E E E E 7.R T E E T W T W E ].E 7.W 9.).W [.7.[.cXOX: P S Z S y A y y > 4  .....O...e.S.h S.F.G.F.T.~.~.g eXI.Y.Y.I.&XaXqX$ o u u e 5 5 u 5 5 7 5 5 5 5 8 5 e 5 5 i i i ( 2. .$ &XqXnXnXU . o u i 0.0.0.1.o $ AXnXnXnXnXnXGXnXnXnXcXnXaXnXcXaXcXcXaX8XzXzXnXnXzXnXnXGXnXnXnXbXGXnXnXnXzXzXzXnX$XcX;XBXcX@ @ 1.1.1.) ) @.$.` ` $.#.( ) Q i 4 . ;XqXP o * 6.@._ ' ' ` ' $.' ' 2.2.0.i @ * aXqX;X0X%X0XAXAXJXJX1.@ ^ u.i.r.:.r.r.i.i.i.i.p. XJXSXJXSXJXIX2 f LX;X;X;XqXqXX +XIXSXJXJXPX:Xp.a.P.a.1X9X>X8 3 ..U.p.r.q...p.L.L.p.:Xp.p.L.P.O.O...S.J.U.P.D.+.O.D.J.G.J.J.J.J.G.G.J.G.K.H.G.K.K.G.G.G.J.H.H.J.G.G.G.G.J.J.G.G.K.G.z.H.G.J.K.G.G.G.G.H.+.G.K.G.K.K.H.K.G.K.H.G.H.K.H.K.K.K.K.K.S.rXdXhXsXAXLXAXU X o S i I  .i ( i i i e 5 0 o 0 B e e q q q q q q q q q q q w w w $.$.$.$.$.>.&.$.$.>.&.%.>.%.&.*.;.*.>.;.%.%.;.%.2.4 F.T.z.v.v.c.c.c.v.c.m.n.n.n.c.n.c.c.n.m.T.~.Q.h $ . $ $ !.W.m.b.N.N.N.N.N.M.N.M.N.B.N.B.n.B.B.n.N.V.N.c.B.E.uXo $ o   g Q.yXE.B.M.M.M.M.M.M.N.n.N.N.N.N.N.N.N.N.M.M.M.B.M.M.N.N.N.M.B.M.B.N.N.N.B.M.B.B.B.M.N.M.B.M.B.B.B.B.M.M.N.B.V.m.B.B.B.W.W.W.W.~.C.j CXfXsXFXKXFXLXKXKXKXKXLXKXLXLXLXLXJXLXLXJXKXLXLXLXLXJXLXLXKXLXLXLXLXLXLXLXLXKXKXLXKXKXLXIX:X$.i.:.<.i.i.i.i.i.i.i.i.i.a.i.i.i.r.a.i.i.a.y.i.a.i.i.i.i.i.i.' p.3 $./ / { / { { ! { { / ' } ( 3 o $ 7 U C.j.j.Y.j.x.j.j.h.s.h.s.d.C.j.x.C.x.C.C.| 7 @ @ 8 ( ' $.} } { [ } :.[ :.[ [ r.r.p.:X$ f Y.Y.C.Y.%XC.<X( 6 ^ ^ 8 r r 6 w 6 ",
"P H Y I P S S P T P P S P T T P Y I T I T Y I {.=X: S A S u S A u S y 0 *  ...O.....q.S.~ F.H.F.l.T.~.~.7 Q.C.Q.&X&XtXgX. . u i i 7 5 5 5 5 5 5 5 5 5 5 e 5 q 8 e i i 8 ( 2.6.o Z.LXZ.. . u 3.4.3.1.2.4.p.0.o I BXnXmXnXnXGXvXGXcX8XcXcXcX8XzXnX8XnXaXnXnXBXnXGXGXGXGXGXGXGXGXGXGXnXnXnXnXnXnXzX;XGX7Xo @ 1.1.2.@...` ) ) $.) Q Q Q 6 r 5 o U aXP . 0 1.( ) $.` ' ' ` ' $...' 2.) 6.1.o o *XbX%X0X;X&XGXMXSXIX8.# u.u.i.i.i.i.i.i.i.i.a.2.5XPXBXSXBXIXpXX ;XpXqXqXbX: 1 IXHXHXBXJXPXJX Xp. Xa.>XP.1XdX .# 8 P.L.2...t.L.0.p.L.L.p.1X2...t.P.P.p.L.P.1X>XP.t.+.J.J.J.G.G.G.G.G.H.J.H.J.H.G.G.K.J.G.H.J.G.K.G.G.G.G.G.J.J.K.J.J.G.G.G.G.H.G.K.G.G.k.G.H.G.K.G.H.K.H.K.H.K.K.K.K.H.z.H.G.U.4.hXdXZXJXMXU o . 7 I 1.i @.i i i r 8 r q i * @ 9 e 9 9 6 q 9 q 0 w 9 w q q q w w w #.$.$.$.$.&.$.>.&.&.>.&.&.>.%.>.*.;.=.;.=.;.;.u.2.3 j.R.z.v.c.c.m.n.c.c.v.v.v.v.n.c.c.n.c.z.b.m.T.~.~.g o o Q.W.V.n.n.N.N.n.n.N.M.N.B.N.N.n.B.n.B.n.N.c.N.N.b.m.uX7 o @ j.yXE.m.m.n.M.n.n.n.n.N.N.n.N.N.n.M.N.M.N.N.M.M.M.B.M.B.B.M.N.M.N.N.B.M.N.N.N.B.B.V.B.B.N.B.B.M.B.B.B.B.V.M.N.V.B.V.B.B.V.W.W.W.W.~.j.j ZXMXMXFXFXKXKXKXLXJXLXLXLXJXKXLXLXKXLXLXKXLXJXKXLXKXLXKXJXKXKXLXKXLXLXLXLXLXLXKXKXLXJXLXJX9X) i.;.r.a.i.i.i.i.i.i.i.i.i.r.i.i.i.i.i.i.i.i.i.i.r.a.r.r.r.a.e.3 Q / } { ! { { { { { ' ' ( 3 @ & j.j.F.j.x.j.h.g.h.g.g.s.h.g.j.h.h.h.h.g.h.h.j.j.j.x.C.j.- @ # Q 2.%.} { { } :.[ [ :.:.u.P.i - gXjXtXtXgXtXgXZXi 8 ( r r r r r 6 w ",
"O X . O X : < O X . ; & O & . A A S Z A y P F T [.: : P S B S y Z Z y > # 1.......O.t.S.h S.F.H.F.Q.~.yXg tX0X0X0X&XAX. o j i u u 5 0 5 5 5 5 i 5 5 5 e 5 5 5 5 u 8 5 i ( @.4.@ I U o - 1.I I i ( i 2.2.6.p.1.o 7XGXGXGXGXGXGXcXmXcXnXnXnXnXnXnXnXnXBXzXnXnXnXGXnXbXnXGXzXGXzXGXGXbXnXnXnXzXzXnX8X@Xo 0 0.@.2.@.) $.$.' ( 6 6 Q 6 ^ r i o 1 nXo o 5 i 6 r Q ^ _ ' $.' ` ' $.' 2.$.2.2.3.@   +XbX%X0X;X%XnXAXIX8.3 p.u.r.:.i.:.i.i.r.i.i.a.t.BXSXSXJXSXIX1 + VX%XVXY   VXIXHXJXBXSXSXLXPXp.u.a.a.a.1X>XdX4.@ 6 P.t...4.p.L.L.p.:X>X....p.4.L.>X>XP.>X>XP.>XP.y.t.D.J.J.G.G.G.G.H.H.J.K.G.G.K.G.G.K.J.G.K.G.G.K.G.K.J.J.K.J.J.J.K.H.J.H.H.K.G.H.H.+.z.K.H.K.G.K.G.H.H.K.G.G.K.H.H.G.G.K.K.| kXDXA.j . o 7 I I i  .i i i i i e q i i 5 @ % y e w e q q 4 q q 4 q 9 q q q q 6 6 $.#.$.$.&.$.&.$.>.&.%.>.=.%.=.=.=.=.%.;.%.;.;.%.u.4 4.E.z.v.c.z.c.c.c.n.v.m.n.c.n.n.v.n.n.v.m.m.c.b.T.yXI.o | uXm.v.n.N.N.n.N.N.B.M.n.n.N.n.M.N.b.B.N.N.n.c.B.W.iX$ 7 uX~.m.B.v.b.n.n.n.M.M.n.N.n.N.c.N.N.n.M.N.N.N.N.N.B.M.B.M.M.B.N.N.N.M.N.N.N.N.N.N.M.M.B.B.N.N.N.B.B.B.B.M.V.B.n.V.B.B.B.B.V.W.W.W.W.yXh C.SXsXsXFXKXFXLXKXLXKXKXLXLXKXLXLXLXLXJXLXLXLXLXLXLXLXLXLXLXLXLXLXJXLXLXLXLXLXKXLXKXKXLXLXJXBX( i.w.<.i.i.i.i.i.i.i.i.i.i.a.i.i.r.i.i.i.a.i.i.a.r.r.i.i.i. X_ 6 ' _ { { { / { / / %.( 3 @ g C.Y.j.h.g.g.g.h.g.h.h.h.h.h.h.h.h.h.h.h.g.g.h.g.h.h.j.g.s.j.Y.C.g @ @ ( q.} } } } :.:.w.w.p.# 7 ZXgXwXwXwXwXgXgXtX3 8 i i r r 6 e w 6 ",
": + +   E *X& + O & : & : O [.OXzXzX=XzXzX=X-XPXPXPXJ : S Z Z S y A y 0 *  .....O...t.S.~ F.F.H.l.T.~.yXg eX&XI.C.AX$ o P i 5 i e 5 u 8 5 5 5 5 5 5 5 5 e 5 e 5 5 5 i i Q ( 0.5 o o i I u 5 i i  .i i  .2.4.:X@ E JXGXGXGXGXmXnXnXnXzXnXnXnXnXBXnXnXnXGXGXGXGXGXGXGXbXGXGXGXGXGXVXnXnXzXnXcXnXGX8.o u 0.1.2.$.) $.) ^ Q r Q ( 6 Q 6 i % o -Xo o 5 i r ^ ( Q ^ 6 ( ' q.` _ ' ' $.' $.q.2.4.* o Z.gX;X%X;X%XnXLXi 3 a.q.i.i.i.i.r.i.i.i.i.a.u.p.JXHXSXBXUX%X  ;XnXpX  f.IXSXSXAXSXAXBXDXSXSX6.a.a.a.a.P.>X9X9X3 3 2.2.S.p.p.:Xp.I.4.| 4.4.4.1X:XP.>XP.>XP.P.>XU.y.D.J.G.J.G.G.J.K.J.K.J.H.G.K.K.J.J.G.G.G.K.G.J.H.K.G.J.J.J.J.J.J.J.J.K.K.G.K.G.K.k.D.G.K.G.G.K.K.H.K.K.G.H.G.G.H.G.J.H.rXI.4.@ o @ 5 I 1.G G ( i i i i e 5 5 5 u u o @ q q e 9 e q q q 4 q q q w q w 9 w w 6 $.$.&.$.$.&.&.&.&.=.&.>.>.&.=.;.=.;.,.;.;.;.;.q.u.4 | E.z.c.c.v.v.c.c.c.c.v.n.v.c.n.M.m.v.n.v.c.n.n.m.T.~.j.@ uXm.V.n.n.M.M.M.M.M.n.B.n.n.N.N.N.B.B.M.B.n.V.W.~.o F.~.T.m.n.n.N.N.N.N.c.c.n.N.M.n.n.M.n.n.M.M.N.N.N.N.N.M.M.B.B.B.B.N.N.n.N.N.M.N.N.N.N.N.N.N.N.B.N.N.N.B.B.m.B.B.N.N.N.V.B.N.N.V.W.V.W.W.yXg A.CXdXsXDXKXJXKXKXLXKXKXLXLXLXKXLXLXLXLXLXJXKXLXLXKXJXLXLXLXLXJXKXLXKXLXLXLXLXLXKXKXLXLXLXLXSX( i.q.<.i.i.i.i.i.i.i.i.i.i.i.i.i.i.r.i.a.i.i.i.r.a.a.r.i.a.q.3 _ / { { { { { / %.' 4 o 7 C.Y.j.s.j.g.h.h.g.g.g.h.h.h.h.h.h.g.h.h.g.h.h.h.h.h.g.g.h.h.h.s.s.h.C.Q.h o # ) 2.' $.} q.p.( @ 3.ZXgXtXgXwXwXwXwXgXI.$ i r r r e w w 6 6 ",
"+ :   E [.O ; O + + O ; O + A I ].*X}.$X@X*X$X|.cXnXUX, S y y y u S y > %  .2.....O.t.t.h S.J.H.T.T.~.yXg Q.Y.&XgXU o j u 5 i 8 5 5 5 5 5 e 5 5 5 5 5 5 6 5 6 5 6 e i i i i 1.4 # u i 5 i q i i i i ( ( ( 2.0.4 I UXGXBXmXBXnXnX;XzXzXzX;X;X;XzXzXzX;XzXzXzXGXbXbXzXGXbXbXzXbXzXnX*XzXzX;X;XBX> o 1.4.2.2.$.) $.) ( Q 6 Q Q r Q r ( 5 o P . o 5 i Q Q Q Q Q Q ^ Q Q _ 2._ ` $.' ' $.$.2.2.6.5 o P VXqX%X;X%XnXu 6  Xi.;.:.r.r.r.r.r.i.i.i.i.u.dXJXSXSXJXUX& 1 IX1 + IXSXSXCXCXSXSXSXNXJXJXBX6.p.i.a.y.a.P.5XdX3 # 3.A.:X2.1.4.2. .t.2.4.L.P.P.L.L.P.>X>XP.P.P.1Xt.G.J.J.K.G.G.K.J.K.H.H.K.G.J.K.J.K.K.J.G.K.G.H.J.G.K.J.J.K.J.K.J.K.K.G.G.G.K.G.k.G.J.G.K.J.G.K.H.K.K.J.K.G.G.G.G.J.hX4.# @ 7 1.I  .i i ( ( i e i t i q 5 u 5 u o @ q u 9 9 e 9 q 9 q 9 4 q q 4 q q w q w w $.$.$.&.&.$.$.&.%.&.>.&.%.>.*.-.;.=.;.;.;.;.;.>.u.5 8 !.k.c.c.v.m.c.c.v.n.n.v.n.v.n.c.n.n.n.n.n.m.n.c.n.m.~.$ | yXV.n.M.n.M.M.M.n.M.N.B.V.n.B.B.n.B.n.M.V.W.W.O W.~.B.n.M.M.c.N.c.N.N.N.N.N.M.n.M.N.M.M.M.M.M.N.N.N.N.M.M.N.B.B.M.B.M.N.N.N.N.N.N.n.M.N.N.N.M.N.M.M.N.N.M.B.V.B.N.N.N.B.B.B.N.V.V.V.V.V.W.~.- ,XCXsXkXDXKXFXKXLXKXLXLXKXLXLXKXLXLXLXKXLXLXLXLXLXLXLXJXLXKXLXLXLXLXLXLXLXLXLXKXLXKXLXJXLXJXJX) u.;.w.i.i.i.i.i.i.i.i.r.i.i.i.r.i.i.i.i.i.i.i.r.r.r.i.i.a.3 Q } { { { { / ' %.8 # - C.C.h.s.h.j.d.j.g.h.h.g.h.h.h.h.h.g.h.h.h.h.h.h.h.h.h.d.h.h.h.h.h.x.h.h.g.s.Y.C.7 @ 6 u.q.4.( @ - 0XAXwXtXgXwXwXwXwXwXgXA.4  .r t e e 6 6 q w ",
"+   R cX> O & O O ; : O ; > P A T =X=X*X}.*X$X*X=XGXGX=X> B S Z y S y > %  .........+.S.h P.H.H.F.T.~.yXg Q.0XeXkX. 7 S 5 u 5 6 5 5 5 5 5 i e 5 8 5 e 6 5 5 6 5 8 i 8 i e 8 7 # i 5 i i i i e i 8 i i  . . .A.@ 9.HXGXGXGXGXnXGX;XGXGXGXGXGXGXnXGXGXbXGXGXGXbXGXGXGXGXGXGXGXGXGXnXGXnXnXGXPXy o i 0.1.@.$.$.2.Q Q Q ^ 8 Q ^ i 6 8 e @ o . @ i i Q Q Q Q Q 6 ( ^ ( 6 Q ` $.' $.' $.O.%.' ' 2.4.r o u VXzX%XqX7Xo ^ p.i.r.i.i.i.i.i.r.i.i.i.a.p.p.SXSXBXSXIX$XX P   HXJXNXCXSXAXDXSXNXAXBXSXJX9Xu.a.i.a.i.a.P.1X1Xi @ 0.0.2.L.:X2.1.4.A.4.L.:XL.:XL.P.>XP.P.P.>XP.D.t.J.J.J.G.G.G.K.H.G.G.G.G.K.J.K.J.G.G.G.K.J.G.G.H.J.K.J.J.J.J.G.G.G.G.G.K.K.G.+.G.G.G.G.G.K.K.G.K.G.K.G.G.G.J.U.I.7 @ 5 I 1.i i i ( ( i i r 6 4 # @ @ $ @ @ o o * u 9 e q 9 q 9 q q 6 q q q 9 q w q q w 6 $.#.&.$.&.&.>.&.&.>.=.&.=.>.;.;.;.*.*.;.;.;.-.%.u.( 7 ~.l.c.k.k.c.v.v.c.c.v.c.n.n.v.v.v.v.n.c.n.m.n.c.c.B.W.F.. F.~.B.B.n.M.M.M.M.m.M.N.m.M.W.g.W.m.M.M.V.V.g ~.T.V.N.M.N.c.N.N.c.N.c.N.n.N.n.M.n.N.V.B.M.M.M.N.N.N.m.M.M.B.B.M.M.B.N.M.N.M.B.B.N.N.N.N.M.N.M.M.V.B.N.N.B.M.M.M.M.M.N.B.B.B.V.N.V.W.W.V.W.~.$ ,XMXdXdXSXFXFXKXKXKXLXLXLXJXLXKXLXLXJXLXJXLXLXLXJXLXLXKXLXLXJXLXLXLXLXLXJXKXLXKXKXLXLXKXLXJXJXp.%.q.;.i.i.i.i.i.i.r.i.i.i.i.r.i.i.r.i.i.i.i.i.i.r.i.i.a.^ 6 %./ { { { { / ' 4 @ j C.j.h.j.x.j.h.s.h.x.h.h.j.h.h.h.h.h.h.g.h.h.h.h.j.h.j.s.h.h.h.x.C.Y.h.h.h.h.h.j.h.Y.j.o * 8 @ * Z.DXgXgXwXwXwXwXwXtXwXwXVXj i ( i 6 r e q q q 6 ",
". Y ;X< X O O O O O O & O 1 P A T =X|.*X=X{.=X=X|.=XBX=X% S y S y y y 0 *  .....O...t.t.8 F.H.H.z.E.~.~.g eXeXtXZ.. S u i 8 6 5 i 8 5 5 5 5 5 5 5 5 5 5 5 5 e 5 5 5 e 5 6 i # i i 5 i e i 5 8 8 j i ( i i 1.I @ 8XJXAXGXGXmXnXBX;XnXGXbXzXnXnXbXbXGXGXGXbXGXGXGXbXGXGXbXGXbXGXGXzXGXVXGXHX& o 0.2.$.$.) 2.` ( Q ^ Q Q Q Q r Q r e @ @ o 4 i r Q ^ Q Q r Q Q 6 Q Q ^ Q Q ` $.' ..' $...' $.$.2.2.1.o X %X;XqX%Xo ) i.r.<.r.:.:.i.r.r.i.r.i.i.i.q.5XSXBXSXSXIX=   Z.IXAXSXMXMXSXSXSXSXAXAXBXSXSX Xp.p.p.i.t.L.P.>X9X7 @ i L.4.4. . .2. .2.4.0.L.L.:X:XP.>X>XP.>XP.P.+.U.J.G.K.G.K.G.K.H.K.K.H.J.K.G.K.K.G.K.J.J.K.G.G.G.G.J.K.J.J.J.G.K.K.G.J.G.G.k.D.G.G.G.G.K.H.K.G.K.J.G.G.K.U.S.# # i 1.i 8 i i i i i i Q i e i 5 q 0 0 * * # @ o @ 4 0 q q q q q w q w q q 4 q q w w w 6 $.$.$.&.&.&.&.>.&.>.=.=.=.=.*.-.;.;.=.=.;.=.%.%.u.) # !.z.v.c.c.v.n.v.v.n.c.v.c.v.n.c.n.n.c.n.n.c.c.c.n.n.m.~.l.X j.E.T.M.M.M.M.M.V.B.T.E.W.| l.V.V.n.n.N.k.T.T.V.b.N.n.c.N.N.c.N.N.M.N.M.M.M.M.M.N.m.T.N.M.N.M.N.N.B.B.B.B.M.B.B.B.M.M.M.N.B.B.B.N.N.N.N.n.M.B.M.M.M.M.M.B.M.B.B.B.N.B.B.B.N.N.V.V.V.W.~.Q.@ L.NXdXsXSXJXFXKXLXKXKXKXLXJXLXLXLXLXKXLXLXKXLXLXLXLXKXLXLXLXKXLXLXLXJXLXLXLXLXLXLXKXLXLXJXDXJX:X$.i.;.i.i.i. Xi.i.i.i.i.i.i.i.i.i.i.i.i.i.i.i.i.i.a.r.2.3 _ _ *.{ / ! _ _ 3 # o 1 C.j.C.s.j s.s.C.j.j.j.h.h.h.h.h.h.h.h.h.h.x.x.j.Y.x.Y.j.Y.j.j.j.s p g.j.g.g.h.h.g.j.Y.C.g . 3.FXVXwXwXwXtXwXtXwXwXwXwXY.gX7 i ( ^ r r e w 6 q q ",
": ;XP   + O O O X : O O O > S A J $X}.*X{.*X}.|.=X}.cX=X: y y y y S 0 > * G ....O...t.S.~ S.F.K.z.E.~.yXg tXeXpXI o i u 8 5 8 q 5 6 e 5 5 5 5 5 5 6 6 5 6 q 5 6 5 5 6 e 6 6 5 i 5 i 5 5 8 e i e 5 i i ) I 3.% u AXBXGXHXGXBXnXGXzXGXnXVXbXnXGXzXbXGXGXbXGXGXGXGXGXbXPXGXbXPXGXGXzXbXGXPXU o I 1.2.2.` $.2.( Q r Q Q Q 8 6 Q r i q @ o 3 i r 6 Q Q ^ Q Q Q Q i Q Q ( ^ Q Q ' ' $.' ..2.' $.2.%.2.2.1.@ $ &XVX+Xo 2.i.i.r.i.:.:.r.r.i.i.r.r.i.r.u.p.SXCXSXSXUXU & nXGXBXSXJXAXJXLXIXJXJXJXSXSXBX9X6.1.@.1.i i h i i $ @ # 3 3 3 3 # # 3 # 3 3 4 i i :X9X>XP.P.P.P.P.t.J.J.J.K.K.G.K.G.H.K.K.G.G.G.G.K.G.K.K.J.K.J.K.G.G.H.G.z.G.G.G.G.J.G.G.G.G.K.o.G.G.D.G.J.H.G.G.G.J.l.G.J.rXS.4 # i  .i i 6 i i i r r 6 r 5 6 i e u 5 q 0 i 5 0 4 # @ o # q q q w q 9 e q 0 q 4 w w q w 6 $.$.$.&.$.%.>.&.=.=.=.=.=.=.=.>.=.-.*.;.<.<.;.u.u.@.# I.v.k.k.z.v.c.n.c.n.v.c.n.v.n.v.n.n.v.c.n.c.n.c.M.n.m.W.~.| $ | yX~.W.m.m.W.T.W.~.E.g g.E.m.n.n.n.n.V.B.m.m.M.B.M.M.M.n.c.N.N.n.n.n.n.V.m.b.W.~.E.N.b.b.c.B.B.V.N.N.N.M.N.N.M.M.B.V.B.V.n.N.N.n.M.N.n.M.B.m.M.M.V.M.n.n.n.B.B.M.B.N.N.B.B.V.W.V.W.~.j.# p.NXdXMXCXKXFXKXLXJXKXLXLXLXJXLXLXLXLXLXLXLXJXLXLXKXLXLXLXLXJXLXLXKXLXLXLXJXLXLXKXLXKXLXLXLXIX3X` q.w.i.i.i.i.i.i.i.i.i.<.i.i.:.i.i.i.i.i.i.r.i.i.i.i.^ 6 $./ { { #.%...# 7 Z.    f.f.p X X X X p Z.Y.h.h.h.g.h.h.h.h.h.h.j.C.Y.j.j g j g C.Y.0Xs.X X j h.g.g.h.g.h.h.h.x.C.s X 0XAXgXtXwXwXwXwXwXwXwXwXgXeX7 i ( r ^ r e e q 5 q ",
"*XE   + &   ; O O O O O O > T S T =X}.=X=X2XzX2X=X=XcX].0 Z y Z y y y 2 * ) ........O.S.8 F.H.K.H.W.~.~.7 uXpXpX- * i u 7 i 5 5 5 q 5 5 5 5 6 5 5 5 5 6 5 6 5 5 5 q 5 5 i 5 5 5 5 e e i 5 i 5 i i i ( i 1.G o aXHXAXSXSXMXnXBXGXqXGXGXbXGXbXbXGXGXbXGXGXbXGXbXGXGXGXbXGXGXGXGXbXzXGXUXY o 5.2.$.2.$.2.' Q ^ Q Q Q i Q ^ Q ^ Q 5 @ @ 5 i r Q Q Q Q Q Q r ^ Q Q Q Q Q Q Q ^ ( 2.` ` ' ' ....' $.} $.6.6.@ . $XZ.@ 6.u.:.i.:.:.i.i.i.:.i.i.i.i.i.a.2.9XJXSXJXJXIXIXPXIXPXSXMX7X7X8.8.U S u * @ @ # # @ # 3 # 3 4 5 5 1.2.1.1.4.p.4.p.p.p.t.4.4. .8 4 @ 1.dXL.>X>XP.U.X.U.G.G.G.J.G.G.K.K.G.K.K.K.K.K.G.K.J.J.K.U.J.K.K.H.G.G.K.G.G.G.G.J.G.G.K.G.J.k.G.G.z.G.z.H.G.G.D.J.D.J.U.P.@ @ i i e 6 8 r 8 5 8 8 5 6 8 e 8 5 5 8 5 5 5 6 5 5 0 i u 4 @ @ 4 9 4 e q e 9 4 q 9 w e w w 6 #.$.$.&.&.&.&.&.&.&.=.=.=.=.>.=.-.-.;.<.<.*.*.;.>.$.3 C.T.z.c.c.z.m.c.z.c.c.c.v.n.v.c.c.m.n.n.c.c.c.B.v.B.m.m.b.~.S.$ o j.T.!.W.~.T.F.h O l.~.M.V.b.M.B.N.n.n.n.V.M.M.M.M.M.n.N.c.N.c.n.B.m.l.W.yXj.g | ~.T.V.c.M.T.m.N.N.n.N.n.B.B.V.n.M.T.N.B.N.b.b.V.n.V.m.M.T.M.V.m.M.M.n.b.n.B.N.B.N.N.B.V.V.V.V.W.iXh i 4.mXdXdXAXKXFXKXKXKXKXKXJXLXLXLXKXLXLXLXKXLXLXLXLXJXLXLXKXLXLXLXKXJXLXJXJXJXLXKXLXLXLXLXLXKXJX5X` u.;.<.i.i.i.i.i.i.<.i.i.i.i.i.i.i.i.i.i.i.r.i.i.a.^ 6 ' / &./ _ _ 6 % 7 I.C.Z.=     P pXAXAXnXj   s.Y.j.h.h.h.h.h.x.h.g.Y.Y.p O = - a =   - f.  X j j.x.d.x.j.h.g.h.h.h.x.W.j.X Z.DXwXwXwXY.wXbXwXwX0XgX&X5 ( ^ r r e e 6 q q 5 ",
"OX. O O O & O O + ; O O 2 O & : 9 Z V D Z S B u 9 u B 9 9 P u y u Z y 0 *  .2.....O.q.S.h F.J.H.H.E.~.yX- iXhX%Xo u i e 7 i 5 5 5 8 6 5 8 6 q 6 5 6 5 5 5 5 6 5 5 5 e 5 5 5 8 5 5 5 8 5 i 5 8 8 e ( @.i 3.o u IXaXnXnX<XaXJXnXGXzXGXGXnXbXGXGXbXbXGXGXGXGXGXGXGXbXGXPXGXGXPXnXnXzXUXU . 1.6.2.$.` ' $.( Q Q Q ^ r Q Q Q 6 Q r 3 # 5 i ^ r Q Q Q r Q Q r Q Q Q Q ^ Q ~ ^ ~ Q ' ' ' ' ' ' $.' } $.2.$.2.6.0 o $ * q.u.q.<.i.r.r.r.i.i.i.i.u.a.a.p.:X0.PXBX8X;X@XW U u > o @ @ @ @ @ # 3 4 u i ( @.)  .2.2.6.u.p.p.a.a.P. Xa.a.a.a.a.a.a.P.P.a.P.5X1X .#  .dXP.P.P.P.+.U.J.G.G.J.J.K.K.K.H.G.K.K.K.K.G.K.G.J.K.J.K.J.K.K.G.G.H.G.G.J.J.K.K.J.G.J.G.+.D.G.G.G.G.G.H.G.G.G.G.S.U.3 # i i e 8 i 6 5 8 8 u 8 5 5 8 5 6 5 5 5 e 8 5 6 5 e 5 5 4 7 i 5 @ # 0 q q q q w q q q w e w 6 $.$.&.&.&.&.%.>.=.=.=.>.=.=.-.-.-.-.*.*.<.*.;.;.q.q.6 h ~.k.v.v.z.v.z.c.v.c.c.v.v.c.c.c.c.c.c.n.n.n.c.M.n.v.n.B.m.W.yXj.$ o @ $ o o @ | ~.~.m.W.v.N.c.n.n.n.n.M.n.n.n.n.m.n.n.c.n.B.n.B.T.W.yXF.- X $ O h yXm.n.M.m.N.N.n.N.M.M.M.B.n.B.N.N.N.n.c.N.V.v.T.E.~.~.~.~.~.W.v.b.N.b.N.N.N.B.N.N.B.V.V.W.W.W.yX3 4.1.NXdXfXCXKXKXKXLXKXKXLXLXJXLXLXKXLXLXJXKXKXLXJXLXLXKXJXKXLXKXLXLXKXLXLXLXLXJXLXKXLXLXLXLXJXJXNX^ u.=.i.i.i.i.i.i.i.i.i.i.<.i.i.<.i.i.r.:.i.i.i.i.u.4 Q $.' / / ' 4 o o - C.C.0X-   HXIXLXPXPXPXPXqXX s.C.h.h.x.h.h.h.h.Y.Y.X d VXKXLXKXKXgX$     s.Y.j.x.Y.j.Y.h.h.h.x.x.x.b.yXY.X 0XgXwXwXwXwXwXwXwXwXgXZ.5 i ^ r r e e e q 6 q ",
"  O ; + O ; O O & O O O [.o y 2 F I G J G T G K 5.].}.5.y Z 9 y Z u 0 > * i ........4.S.8 S.H.H.T.T.W.yX7 hXhXZ.o u 5 8 5 5 8 5 5 5 5 5 5 5 5 5 5 5 e 5 5 6 5 5 q 5 i 3 5 5 i 5 i 5 e e 5 i i e i e i 3.0 X VXAXAXAXSXpX-X;XSXAXzXnXGXGXGXGXbXGXGXGXGXGXGXGXGXGXPXGXGXGXHXnXGXGXHX+Xo i 0.2.) 2.$.$._ Q ^ Q ^ Q Q Q ^ ^ Q Q 6 3 5 i Q 6 Q Q Q Q Q Q Q ( Q ( Q Q Q Q Q ^ ^ Q _ $.$.$...$.' ..%.2.$.$.2.2.0.5 o 4 2.u.i.u.i.i.a.a. Xa.u.u.6.2.( 5 5 @ o       . .   o u i @.1.1.6.2.0.6.4.2.4.2...$.) ..$.2.$.$.q.q.%.w.w.q.q.O.w.w.O.q.e.u.t.t.a.P.1X2.@ 4.9XP.P.S.+.J.J.J.G.G.G.K.G.H.G.K.H.G.K.H.H.K.J.U.J.K.J.K.G.G.G.G.K.J.K.J.J.J.K.J.J.J.J.y.z.G.G.D.G.G.G.G.G.D.J.rX7 $ i i 8 8 i 6 i 8 5 5 e e q e 5 5 5 8 6 5 e 6 5 e 5 e 5 5 0 5 8  .i 5 # # q e q 9 e e q e e w w #.&.$.&.$.&.>.$.&.=.>.=.=.=.=.-.-.-.*.<.*.;.;.;.>.u.@.# ~.l.k.v.v.v.c.v.c.z.v.c.n.v.c.n.n.v.n.n.v.n.n.c.c.n.c.M.n.M.m.~.~.!.F.j.F.!.~.~.M.m.V.v.N.n.N.n.n.M.n.n.n.M.n.c.n.n.n.m.m.m.W.~.~.C.$ o @ 7 u 7 O !.E.m.n.M.N.N.N.N.M.M.M.B.n.M.N.V.B.N.N.V.W.yX~.j.- $ @ 7 h T.~.W.N.N.N.N.N.B.B.b.b.V.V.W.W.~.rXo L.) NX9XsXNXKXFXKXKXKXLXLXLXJXLXLXKXLXLXLXLXLXLXKXLXLXLXLXLXLXLXJXLXLXLXJXJXLXLXKXKXLXKXLXLXLXJXSXr i.%.<.i.i.i.i.i.i.<.:.i.i.i.i.i.i.:.i.i.i.i.i.i.a.^ 3 6 _ ' q.2.@ o     X f.C.  IXUXLXKXFXPXJXHXKXf.- Y.h.h.h.h.h.j.C.Y.  Z.IXIXJXKXPXFXLXLX= - tXj.Y.f.=   = C.h.x.x.x.x.b.b.yXY.X Y.gXwXwXwXwXwXwXwXVXI 8 i i t 6 e 5 5 q q 4 ",
"O + & : X O O O O O   [.T O y 9 u C F G G J G G C 6.6.K 9 y u Z y A 1 > % i 2.......O.S.8 S.J.T.T.T.~.yXa hXkXU o u 5 5 8 q i 5 5 6 5 5 5 5 5 5 5 5 5 6 5 5 5 5 5 i # 4 6 5 5 5 e 8 e e 5 i i 5 i i I I o 8.KXMXAXAXgXpXgXsXA.AXnXGXGXbXGXGXbXGXPXGXGXGXGXGXGXGXGXGXGXGXPXbXGXJX;Xo i 0.$.2.2.$.2.' Q ^ Q ( Q Q Q Q Q 6 Q ^ Q i 8 r Q Q Q Q Q r Q i Q Q Q ^ ^ Q ^ Q ^ Q Q ^ Q ' ..' $.$.2.' $.$.2.$.$.2.2.6.I 1.6.p. Xp.6.1.( 4 3 # @ @ # @ @ u i U 7XpXAXJXIXIXLXJX0.1.4.2.2.2.2.$.2.2.$...' 2.2.' _ ' $.$.$.} _ ' %.} ' q...' %.%.O.q.%.q.w.r.y.P.1X..@ :X1XP.t.G.G.J.J.K.J.J.K.J.K.H.G.K.K.K.H.H.K.K.K.J.K.K.G.J.G.H.H.U.U.H.U.H.U.F.J.U.J.J.X.P.J.J.D.J.D.J.D.G.S.U. .o 7 i 6 6 5 i 6 i 8 5 5 6 5 6 5 6 6 6 5 5 5 6 5 5 q 5 5 4 0 7 u 5 8 2.u.) # @ 4 u q q e q w w w w #.$.&.&.%.$.$.>.>.=.=.>.=.>.-.-.-.*.;.-.*.-.;.=.-.u.2.# U.l.v.k.c.c.c.z.z.v.c.c.v.v.c.c.v.v.m.v.v.c.n.n.c.v.n.n.M.n.V.m.m.E.W.W.E.E.m.m.W.n.c.n.N.N.N.N.n.n.n.n.M.M.c.n.b.m.m.T.~.~.Q.h o o @ 7 u u - u o h ~.W.M.B.c.N.N.N.M.M.M.M.n.n.N.c.n.b.T.E.yX| o - j.l.l.j.h @ | yXW.V.V.b.N.M.B.V.V.V.V.W.V.~.Q.7 :X( dXdXsXfXKXFXKXKXKXLXLXKXJXJXKXLXKXLXLXLXLXLXKXLXLXLXLXLXLXLXKXLXLXLXPXLXJXLXKXKXLXLXLXJXLXJXSXr a.>.<.i.i.i.<.<.i.i.i.<.i.i.i.i.i.i.r.i.i.i.i.i.a.a.a.$.3 3 4 # 7 U =         VXIXIXHXKXHXHXIXJXPXAX- C.j.h.h.h.h.x.Y.X f.PXHXIXJXLXLXJXIXIXAXX C.f.p X X X   j.x.x.h.x.x.x.x.V.yXd.X lXgXwXwXwXwXwXwXgXg ( ( e r e e w q q 4 q ",
"o ; O o : O + O O   =XW . & > y F G G G G G G C G }.6.K y y y u y u 0 0 * ( ....' ..O.S.h S.F.H.T.T.~.yX- hXAXU o j i 8 5 8 5 7 5 5 5 6 6 5 6 5 6 5 5 5 6 5 6 5 u 4 # e 5 e 5 i 5 e e 8 i 5 8 i ( i 1.$ $ KXVXVXDXgXpXeXpXhXAX&XzXVXGXGXbXGXGXGXGXGXGXPXGXPXGXGXGXGXGXGXGXGXUXnX$ 0 }.1.2.2...$.2.^ Q Q ^ Q Q Q Q ^ Q 6 Q 6 Q ( Q ^ Q ^ Q ^ Q Q Q ^ Q Q ( Q Q Q / Q Q ( ~ ^ Q ` %.$.....' 2.2.2.2.2.6.2.1.1.i 0 5 3 # # @ @ @ u j 8.#X7XBXJXLXLXIXJXKXJXJXSXSXDXJXSX2.` 2.$.` ' $.' ' $.` ` ` ` ` ` ` ' _ ' ..$.' $.` $.' _ ` ' ' ' ' $.q.q.q.e.r.a.P.1X6 # 9XP.+.J.J.J.J.K.J.K.J.K.G.K.H.H.H.G.H.H.K.G.K.G.G.G.J.z.H.K.F.D.rXU.U.!.I.1XI.U.1XU.S.U.1XU.U.U.U.U.U.U.rXL.o 4 i i 8 i 8 5 5 5 i 6 e 6 e 8 8 5 e 6 5 6 5 4 5 q 4 @ o @ o @ 4 5 ^ (  .p.2.# @ 4 q q q e q w w 6 #.$.$.&.&.&.>.&.%.=.=.=.=.=.-.-.;.-.;.-.*.<.;.;.;.u.u.# j.Q.l.v.v.z.z.c.c.c.v.c.c.v.v.v.v.v.v.m.m.n.c.n.n.n.M.c.c.M.n.n.n.c.n.m.n.B.n.n.c.v.N.N.c.n.N.c.N.b.n.n.m.m.v.m.W.~.yXQ.| $ o . - u 0 - - 1 1 - 7 o !.m.B.n.N.N.n.N.M.B.M.M.N.N.N.N.m.W.~.l.$ 7 Q.yX~.T.W.~.yXQ.o h ~.T.N.b.N.B.m.N.V.V.V.V.W.yXg  . X) 9XdXfXMXFXKXKXKXLXKXLXLXJXLXLXLXLXLXKXLXJXLXLXLXJXLXKXLXJXLXLXLXJXLXLXJXJXLXKXLXLXKXLXLXLXJXSX^ i.q.<.i.i.i.i.i.i.<.i.<.i.<.<.i.:.i.i.:.i.i.i.i.r.i.u.i.P.p.@ $ I.C.Y.Z.f X W IXLXFXKXJXLXLXLXIXLXLXf.f.x.x.x.h.j.j.C.X FXAXIXIXLXSXKXLXHXJXUXP = X X X X X j Y.x.h.b.x.x.h.x.x.W.W.Y.  lXVXwXwXwXY.wXwX7 i i e r i q q 6 q q q ",
": O O ; X ; & O   ).-XO O % Z > S C G G G G t G t 6.5.@.9 y y y y u y > * i 2.........S.~ S.H.H.z.E.~.yX- hXAX3.. u i 5 8 5 5 5 5 5 5 5 4 5 6 5 5 6 6 5 5 5 5 5 4 @ i 5 5 5 5 i 8 e e i 8 e 8 r i  .j o &XFXgXsXhXeXpXpXpXgXdXsXqXGXHXGXGXGXbXGXGXGXGXGXGXGXPXGXPXPXGXGXGXGXPX& * 8.2.2.$.2.' } _ Q ^ ^ ^ Q ^ ^ Q Q Q ( Q r Q Q Q ^ Q Q ^ Q Q Q Q Q Q Q Q Q Q ^ Q Q Q ^ Q ( Q ( 2.2.2.2.2.2.1.i i 7 # # @ o o $ y 1.0.&XmXSXJXJXPXLXJXJXJXSXSXSXSXSXSXJXSXSXNX2Xp.2.` 2.' ..%.' ....' ` ` ' ` ` $.$.` ` ' ..` .. .2.2.$.2.2.1.$.2.2.2.2.2.q.q.q.q.t.y.1X1X# 4.t.t.G.J.G.G.J.J.J.J.K.K.G.H.H.H.G.H.G.K.G.K.G.K.G.G.K.K.D.U.rX .# $ * $ $ @ # 7 7 3 7 8 8 8 8 8 8 8 8 I 3 @ i i 8 e 8 5 8 5 5 e 5 5 5 5 5 q 5 q 5 6 5 5 5 q 7 @ @ * 4 4 % @ @ 4 ( ( _ t.u.4 @ 4 e q w q w r 6 ^ &.&.$.&.%.&.>.=.&.=.>.=.>.-.-.;.=.-.-.-.-.;.;.;.%.u.6 6 !.z.z.z.v.c.c.c.v.c.c.v.v.W.E.W.T.T.m.m.v.m.c.n.c.m.n.m.m.n.v.M.n.n.v.B.n.n.n.M.M.n.n.B.n.c.m.n.N.m.m.T.W.~.~.Q.| - . . $ & - * - - $ - * - - u o Q.W.v.b.N.N.M.n.M.M.M.M.N.N.N.V.T.~.F.o g.~.E.m.b.W.V.m.N.~.~.@ S.W.W.n.B.m.N.V.V.V.V.W.W.~.@ p.p.$.5XdXsXMXKXFXKXKXLXKXLXJXJXLXLXLXLXLXLXLXLXLXKXLXLXKXLXLXLXLXLXLXLXKXLXJXLXKXKXKXLXLXIXLXLXJXJX( u.;.i.i.<.i.i.i.i.<.:.i.i.<.i.i.:.i.i.i.r.r.r.i.r.i.r.u.p. .X Z.C.f.f.C.gX  KXKXAXAXLXIXLXIXIXPXPXFXI.s Y.j.h.h.x.Y.p VXLXHXLXJXIXIXLXIXJXLXPXgXX X = s j Y.C.g.h.h.h.x.x.x.x.b.V.W.~.s s VXgXwXwXwXwXpX5 ( i e 6 w w 6 q 4 6 q ",
"{.  O O O O . O P ;X: . O % y 9 G G G C K G G G @.6.6.K 0 y y y y y 1 0 * i  .......4.t.h S.H.R.H.W.~.yXa lXgXZ.o 7 i e 5 8 6 5 5 5 6 5 5 6 5 5 5 5 5 5 5 5 5 5 @ 4 5 5 6 5 6 5 e 6 5 5 e 8 i 8 i I . S KXVXkXgXgXgXhXhXhXhXtXCXqXGXnXVXGXbXGXGXGXGXGXGXGXGXGXGXGXGXGXGXGXPXY X 1.6.2.$.' ' $...Q ( Q Q ~ Q Q Q ( Q ^ Q Q Q Q Q Q Q Q ( Q Q ^ ( Q ( Q Q ( Q 8 ( r ( ( r ( i i 8 i i e 5 # # # $ & 7 I 8.-XaXSXJXJXPXJXJXSXSXSXSXSXNXNXSXNXSXNX9XNX:X:XA.6.1.( ( ) @.$.2.2.' ` ..` $.2.2.$.1.@.$.1.@.( @.( i 8 e i 5 5 5 4 4 4 q 5 4 e ( 1.$.2.q.q.r.e.a.1X..@ S.U.D.D.J.H.D.J.J.K.K.G.K.K.G.K.K.K.K.K.K.G.K.G.K.G.G.G.J.U.F.3 A.&XZ.#XA.&X8.o - i i e 8 8 8 6 7 7 3 @ # i i e 5 e 5 8 5 8 5 3 3 5 5 5 5 5 5 5 5 5 5 4 5 * @ @ u 5 u 5 0 0 @ @ 5 8 ~ _ q.t.r # 5 q w q w ^ w #.$.$.&.&.$.&.&.=.=.=.=.=.=.-.-.=.;.<.-.-.,.>.q.;.&.u.2.@ !.z.z.c.z.c.k.z.c.v.v.z.m.| h j.F.F.F.T.T.R.R.m.T.m.m.T.m.m.m.m.m.n.M.m.M.m.m.m.m.M.M.m.m.V.W.T.T.E.E.F.j.h 7 X o $ - 1 1 & - : & - $ * - - > > $ g ~.m.b.c.N.M.M.n.M.M.N.B.N.n.m.~.j.@ Q.E.m.V.n.m.b.b.N.m.v.~.F.o !.m.N.M.M.N.B.N.V.W.W.~.F.@ :Xp._ 9XmXsXfXFXFXJXKXLXLXLXLXLXLXKXKXLXLXJXLXKXLXJXLXLXLXJXLXLXKXKXJXLXLXLXLXLXKXLXLXLXLXLXLXPXDXJX@.u.w.<. Xi.i.<.i.<.i.i.i.<.i.i.:.i.i.<.i.i.:.:.i.r.i.i.i.2.o C.Y.p =   X . Z.LXLXDXHXJXHXVXAXHXIXLXKXZX= Y.h.j.j.C.s.j LXHXLXHXLXJXIXJXJXLXHXLXPX= &X&XY.Y.C.h.g.h.h.x.x.x.x.x.x.x.V.W.~.= f.gXwXwXwXwX&X7 i ( e w q e q w 4 9 4 ",
"=X&   : : O   1 =XP o O O : y > B G G G G C C @.G 6.6.G 0 y 9 y y y 0 > * G ........+.S.8 S.J.H.H.E.~.yXp jXgXA.X u i i 7 5 8 5 5 5 5 6 7 6 6 4 5 5 5 6 5 5 u @ # 5 6 5 e 6 5 i e i 5 5 i 8 i i  .U o &XDXVXgXhXeXhXhXhXpXtXgXhXaXbXGXGXbXGXGXGXGXGXPXGXGXGXGXPXPXPXPXGXUXGXo I 2.2.2.` ..$.$._ Q Q Q Q Q Q ^ Q Q Q 8 Q Q Q Q Q Q 6 r ( Q Q ^ Q ^ ( Q ( i ^ ( i @.( i u 5 4 @ o @ $ 0 u P 7.#XpXaXnXAXSXJXSXBXSXSXSXSXSXSXSXSXSXNXfX9X,XL.0.2.1.2.1. .1.2.) 2.2.@.2.1.2.2.1.1.1.1.( i i u 5 0 0 > % @ @ @ @ o o o o o o @ o o o o o o # i 6.2.2.q.q.r.p.P.>X# | 1XD.G.G.D.H.J.K.J.H.G.H.G.H.K.K.K.K.K.K.K.G.H.K.G.G.G.J.U.S.7 KXMXKXFXAXPXPXP = 4.4.2.2.........( 8 5 5 7 e 8 e 6 5 5 5 5 5 6 5 3 # 4 5 5 5 5 4 6 4 5 u o o 0 5 5 6 5 4 5 5 @ # 8 8 ) ' q.t.3 # 5 q q e t w ^ $.&.&.$.$.>.&.=.=.=.=.=.=.-.=.-.;.-.;.;.-.;.;.<.;.u.u.@ I.m.z.v.k.c.k.c.c.c.l.c.l.= - o $ $ g h j.4.C.Q.Q.Q.T.!.~.~.E.E.R.T.T.E.T.V.T.T.E.E.!.E.~.!.Q.I.j.j g $ o $ $ $ - & - & & & $ $ & * $ & $ - & - - o iXT.b.N.N.n.M.n.N.N.N.n.b.V.W.rXo j.E.V.n.n.n.B.m.M.m.M.m.V.~.@ F.W.m.n.n.n.B.B.V.W.W.yX| 7 p.a._ >XvXfXsXJXKXKXLXLXLXKXJXLXJXKXLXKXLXKXLXLXKXJXKXLXLXJXKXLXKXJXLXLXLXLXLXLXLXLXLXLXLXLXLXKXJXIX1.u.;.-.i.<.i.i.i.<.i.<.i.<.i.<.<.i.<.:.i.i.r.:.i.i.i.i.p.3 - C.Y.- X = =   VXLXJXPXIXnXP - f $XIXLXAXFX= Y.h.x.h.C.j Z.IXIXHXnXnXLXKXLXHXPXJXIXIXP j j f j j d.h.h.h.h.h.x.x.x.x.b.b.b.W.x.X AXgXwXwXwX&X3 i r i e 5 e e 5 q 9 4 ",
"W *XX + + :   ;XW   X ; X % y 0 u G C G G G G C @.5.6.@.0 Z 2 y y Z > > # i  .........S.8 S.F.H.H.W.~.yX- jXpXeX- - S 5 5 6 5 5 5 5 5 5 6 4 5 4 6 4 5 5 5 0 4 @ 4 5 5 5 5 5 6 6 8 e 6 5 i 6 i i 1.o u KXgXkXAXgXpXhXpXtXhXhXhXpXgXwXGXbXGXGXGXGXGXGXGXGXGXGXPXGXGXGXGXGXUX. 4 0.2.$.2.' 2.` $._ Q Q ( ( ( ^ Q ( ^ ^ Q ^ Q Q ( Q Q Q Q Q ( Q 8 ^ t ( ( i i i q 3 * @ @ @ @ * I =X7XMXJXPXKXLXJXJXSXSXSXJXSXHXHXSXSXBX9X3X:XA.6.1.( ( i  .) 1.1.2.1.2.2.6.6.2.2.@.1.i 5 4 4 3 # o o o o o o o . . o . o o     o O     O X       X X . o . . # 2.2.u.q.q.r.a.U.4.# 2.rXD.S.J.G.K.U.K.K.H.K.H.K.K.K.G.K.H.G.K.H.H.H.K.G.J.J.!.4.X VXZ.W IXVXVXVXHX  * 1.1.)  .~ ( ~ Q i 5 8 i 5 5 5 6 5 8 5 5 6 e 5 u 4 @ * u 4 6 4 6 5 5 * o 4 5 5 3 6 7 4 0 5 0 @ % i 6 ( ' q.2.3 @ i 9 e w w ^ $.&.&.=.&.$.>.>.&.=.>.=.=.-.-.-.*.-.-.<.-.;.-.;.;.>.u.3 8 !.l.l.c.v.v.l.c.c.c.l.l.7 - f 7 - $ @ . . . o o - 7 g g j | j.j.j.C.j.F.C.l.C.j.j.h g 7 O .   o o $ $ - & & & & & $ $ $ $ + $ $ & & & & 0 $ * 7 . uXT.b.c.N.M.M.n.n.n.N.v.B.W.~.X | ~.m.m.n.n.V.M.m.M.m.V.m.b.W.j.7 W.m.n.n.V.N.N.W.W.W.yX@ 4.u. X) :XNXNXsXDXKXLXLXKXLXLXLXLXLXLXKXLXKXJXLXLXLXLXLXLXLXLXLXLXLXLXKXLXLXLXKXLXKXLXLXKXLXLXLXJXLXIX1.q.q.:.i.i.i.<.i.i.<.<.i.i.i.i.i.i.i.i.:.i.i.i.i.w.i.a.( o Y.j.d.j.s.C.C.f.KXVXPXUXU     = X   1 IXAXFXp Q.h.h.j.Y.j FXVX1       f nXIXLXIXJXJXIXf.  X   X X s Y.h.h.h.h.h.x.x.x.x.x.b.b.yXs s FXwX0XwX0X* ( 8 r e 5 5 q q 4 4 9 ",
"X cXF   + . +X[.X O O O O % 9 9 G G G C G C G G C 6.6.K > Z y y y y 9 > * i  .....~ ..t.8 S.F.K.H.W.W.iX- hXeXpXS o u 5 8 4 8 5 5 6 4 6 4 6 7 6 5 4 5 5 5 5 @ # 5 5 5 5 5 5 5 6 8 5 q 8 6 r i i I . pXAXAXgXlXpXtXhXdXpXgXhXhXgXVX;XGXGXGXGXGXPXGXPXGXGXGXPXPXGXPXGXnXUXE o 0.2.2.q.' q.' ' 2.Q ( Q Q Q Q Q Q Q Q / Q ^ ( Q ~ ^ ( Q ^ ( ( ( ( i i 5 # @ o o o @ * U 7XnXSXIXLXJXJXSXSXNXSXSXSXSXJXSXBXsX3X:X0.4. . .( (  .) 1.2.6.2.4.6.6.1.1.1.i i q # @ o o o o o o o . @ o .   . o . o   . o .   O O     X o o     . O     O +     + o . # 6.2.q.q.q.a.P.1XQ # U.U.G.D.J.J.J.J.K.H.G.K.K.G.K.G.K.K.H.H.G.K.H.J.K.J.G.U.3.$ gXJX  ;XpXqXqXVXZ.. u  .( ( 8 r Q 8 8 5 5 i 5 5 8 5 6 8 5 7 5 5 5 8 q # @ 5 5 6 5 4 0 * o * q 5 5 6 6 4 6 4 0 u # @ u 8 r _ ' t.( # 4 e q w w ^ $.$.&.&.=.>.&.>.>.=.>.=.=.-.=.-.-.-.-.-.*.-.,.;.;.,.u.2.# !.l.v.k.l.c.c.c.k.c.v.T.3.. 7 - > 7 * - 7 - - - - $ @ o o o o . o o . . . o o . o o o $ $ $ - - - - & & - & & & $ $ $ O & $ $ & & $ $ $ - $ & u . C.E.b.N.N.n.n.n.n.N.N.n.m.~.h o yXm.m.M.b.M.m.V.W.m.V.m.N.b.T.!.o !.m.W.v.V.N.V.V.W.~.I.@ p.u.i.$.p.vXdXsXSXKXLXKXLXLXLXJXLXJXLXLXKXLXLXLXJXLXLXLXKXJXLXLXJXLXLXLXKXJXKXLXLXLXLXLXLXLXLXLXJXJXJX6.2.;.-.i.<.i.i.<.<.i.i.<.i.<.:.i.<.i.<.i.i.i.i.<.i.i.p.# | C.s.j.j.Y.Y.C.tXDXLXIX;X  X X   O +   W LXFXj C.x.h.Y.s.&XDX    O = + X   ;XIXIXHXKXKXC.C.j.j a = x.j.h.x.h.h.h.x.x.x.x.x.x.b.W.~.X 0XwXwXgXZ.4 i r 6 e e q q w 4 9 4 ",
"X T HX+   R cX  X O O O X , y , y G G C G G G G @.6.6.G 0 y > y y y > > * i  .......4.4.h S.D.H.z.E.~.iX- ZXtXVXZ.o i i 5 5 8 5 7 5 6 5 6 4 6 4 5 5 6 4 5 4 @ * u 5 5 6 5 5 e 8 6 e 5 5 i i i  .7   KXAXgXAXgXpXtXpXhXtXpXtXtXpXgXpXbXGXPXGXGXGXGXGXGXPXGXGXGXPXGXGXUXGXo i 6.2.2.$.' %...$.` Q ^ ^ ^ Q ^ Q Q ^ Q Q ~ ^ Q i Q i ( ) ( i q # @ o o o * I A.8XSXPXLXLXSXSXSXSXSXSXSXSXNXNX9X1XA.6.1.) ( i ( ( 2.1.1.1.6.0.6.2.1.( i u 0 # @ @ @ @ o o o o . o o o .   o .     X X +     + O   X O . . . . O O .   O O     X   X   . . & X . $ . 4 6.2.q.q.r.a.P.>X3 8 rXD.J.G.D.G.J.J.J.H.G.G.K.K.G.K.K.H.K.G.G.K.J.J.K.J.rX| @ ;XqXwXX wXqX%X%XgXj X i i 8 e i 8 e 8 e 4 4 i 5 e 5 6 5 5 5 6 6 5 5 5 0 @ $ q 5 5 5 4 @ @ 7 4 5 5 4 6 4 4 5 q 5 7 @ 0 8 6 Q _ ` u.r # i e w t w $.&.$.&.&.%.=.=.&.=.=.=.=.-.=.;.-.-.-.-.<.-.;.;.;.>.$.p.# | ~.l.z.c.k.c.l.c.l.v.l.!.X 7 * - * - & & & * * $ $ * 1 & 1 - 1 u - - & - - - 1 1 - > - $ = - $ $ * $ & & $ $ $ + $ $ $ $ + $ O & * & $ $ & - - $ h E.m.N.N.N.n.M.n.M.N.b.W.~.X ~.T.W.b.b.V.~.~.Q.l.~.W.m.m.N.m.!.$ T.E.M.B.M.b.V.V.W.~.| ~ >Xu.a.' p.NXvXfXDXKXKXLXKXLXLXLXJXKXLXKXLXKXLXLXLXLXKXLXLXLXLXLXLXLXKXLXLXLXLXKXLXKXLXLXLXLXLXLXLXJXJXA.$.u.-. X<.i.<.i.i.<.<.i.<.i.i.<.i.<.i.<.i.i.<.i.i.a.( # Y.j.j.g.d.h.j.j.ZXAXKXFX&   X X $ X X X   VXDXjXs.j.h.j.d gX= X X O X X = X   IXLXIXAXDXVXC.C.Y.Y.Q.h.g.h.h.x.h.h.h.x.h.b.x.x.b.b.~.Y.X gXwXwXA.# ( r r 5 e 6 q w 4 4 0 ",
"+ X cX).1 cX2 . :   O O O , 9 9 B F G G G C G C C 6.5.C % Z y y y y > > # i ..........S.8 S.S.H.T.E.W.iX- lXpXaXpXX 7 u 7 5 7 5 7 6 5 5 6 7 4 4 6 5 5 4 5 7 @ 5 q 5 5 6 6 5 6 6 e 6 e i 6 i ( j . E FXAXgXgXtXpXpXtXpXhXtXpXtXpXpXqXVXPXGXGXGXGXGXGXGXPXGXGXPXGXbXGXPX+ % }.2.q.2...%.' $.q.Q ^ Q / ^ ~ Q Q Q Q ( ( ^ ( ( i i e u # o @ o * 8.-XaXJXJXPXPXSXBXSXSXJXSXNXNX9X:X0.4. . .( ( (  .1.1.2.2.4.4.1.1.I i i 0 * # @ o o o o o . o o o &   X + O .     X O O   X : X   X O   . X X X O     O o   X O .       o O     + X     X   O   X o e 4.q.q.q.r.a.>XP.# t.U.J.G.G.G.J.K.K.G.K.K.K.G.H.K.G.G.K.H.K.G.K.K.G.G.U.| $ 7X%XqXU = nX%X%X%XqX  > i 5 e i 5 5 8 5 5 # 5 5 5 5 5 5 5 5 5 5 5 q 5 q * @ 0 0 0 q @ o * 5 4 4 6 5 5 5 4 e 6 4 q @ # u 8 r Q ` q.2.# 9 e w r 6 $.$.%.>.&.&.*.>.&.=.=.=.-.-.=.-.-.;.;.-.-.;.,.-.;.;.%.u.6 4 !.v.k.c.k.k.c.l.c.c.l.~.7 $ - > $ - $ - * $ - $ * * * & * $ $ $ $ & * & * & & * & & & $ & $ & & + & & O $ & o $ o $ $ O $ O $ & @ + & $ & > $ $ - ~.m.n.M.M.M.M.M.N.n.m.~.h 7 yXm.V.m.W.yXj.o o o X j.~.m.b.V.!.o l.W.M.M.m.n.V.W.W.Q.@ p. Xa.i.%.p.9XmXsXDXKXLXKXLXLXLXLXLXLXKXLXJXKXKXLXLXLXJXLXLXLXKXLXLXLXJXLXLXLXKXLXLXKXKXLXLXLXLXLXKXJXLX:X` ,.-.i.u.i.<.i.<.i.<.i.<.i.i.<.<.i.i.<.i.<.i.i.q.u.@ j.j.h.j.h.h.j.s.C.DXDXKX%X  = X   O   X O   %XKXtXj.h.x.s.tXf.    O   O O = O   ;XIXLXFXDXZXj.j.h.x.h.h.h.h.h.h.h.h.x.h.x.x.x.x.x.b.V.yXX Z.gXVXf.7 r r e w q q 4 6 4 9 4 ",
":   I nX$XW   O   : + X O & > y e G G C G C G G @.6.6.@.0 y y y y y > > * i .. .......S.8 S.k.T.T.E.~.iX7 kXgXpXAX1 o i 5 i 8 5 5 6 5 6 4 6 5 8 5 4 5 3 5 3 @ u 5 5 5 5 5 5 5 e 8 5 8 5 i i 1.u . VXAXgXlX0XeXtXtXeXeXtXpXhXhXpXgX;XPXPXGXGXPXGXGXPXGXGXPXGXGXPXGXPX[.O 0.2.$.2.} $.%.' ' 2.Q Q Q ^ ^ ^ ^ Q ( i ( i i i 5 # o o o u 8.7XSXIXJXLXSXJXSXJXBXNXsX,X:X0.1. .@.( ) 1.@.2.1.6.2.2.2.1.1.i i 4 # # # @ o o . o O o . & +     : X   . X X O .   + :     O     X     + X   O +     O X   .   X O X   . + X   X +   X     X O     :   X X @ 1.u.2.q.i.y.P.1X8 # rXD.G.J.G.G.J.J.K.K.G.H.H.K.H.K.K.K.G.K.H.K.G.G.U.U.3.- qX;X%XbX  oXqX%X%XqXP . u u 7 5 5 5 5 i i 3 # e 5 6 5 6 5 5 6 5 6 5 5 5 0 @ * 7 0 * @ # 7 5 4 4 5 5 6 5 5 5 5 5 5 * @ i i 8 Q _ ' 6.4 3 t e r 6 $.$.&.&.&.=.&.>.=.>.=.=.=.-.-.=.-.-.-.-.;.-.;.,.;.;.;.u.u.# C.T.l.c.k.c.l.l.c.c.k.l.F.o 7 - - $ $ & $ $ @ $ $ $ $ $ * $ $ $ & $ * & * @ & $ $ $ & $ + & & o o o * & $ $ O O @ O $ $ O O $ $ & $ @ $ $ > - - $ ~.m.M.n.n.M.n.n.N.N.W.T.X !.E.V.m.V.~.- @ I.!.uX!.7 h ~.m.b.Q.$ l.W.W.m.m.V.V.W.~.| 4 :Xa. Xi.%.p.9XfXsXDXKXKXLXLXKXLXLXLXLXKXLXLXKXLXJXKXLXLXLXLXKXLXJXLXKXLXLXKXLXLXKXJXLXLXLXLXLXLXLXKXJXKX3X( u.>.i.i.<.i.<.<.i.i.<.i.<.:.i.i.<.i.:.i.<.i.u.a.8 7 C.h.h.h.h.h.h.j.tXZXAXLX- X $ X X X   X     T KXtXs.g.h.j.tX    X . X   X X O X A IXJXJXAXgXC.h.h.j.x.h.x.h.h.h.h.h.x.x.h.x.x.b.x.x.V.~.d.= AXgXZ.3 i r e 6 4 q q q q 4 4 ",
"+ : X ;XzX. & : + + X : O & Z > e G C G G G G C C 6.6.J 0 y 2 y y y > * * i  .` _ ~ ..t.8 S.S.H.H.T.~.iX7 kXsXMXVX#Xo u i 5 e 5 5 5 5 5 6 6 5 4 5 4 5 6 q # * q 5 5 e 6 6 5 6 8 e 5 e 8 i i I 3 o KXpXgXeXeXeXtXtXeXtXtXhXhXhXgXgXbXPXGXGXGXGXPXPXGXGXGXGXPXPXGXGXHX. u p.2...$.2.' ' ' $.' Q Q ( Q Q Q ^ ( ( i i 4 @ o o u {.8XAXJXJXJXSXHXJXNXNX9XL.0.2.1. .( ( @.2.1.2.6.2.2.6.1.i i 0 % $ @ o o o . o o o . & O   X O O   X   O O     + +   X + X         X   X + X     +     X   X O     + +     X X       X X     X +     O         X + X o 5 6.q.u.q.e.a.P.P.#  .U.J.J.D.H.G.K.G.G.G.K.G.G.K.K.K.G.G.G.H.K.H.G.J.1X| O &X%X%XqXU X qX&X%X%X;X  * i 8 5 5 5 5 7 5 i # 4 5 5 5 4 6 6 4 5 4 4 5 4 q # @ u 4 @ # 5 4 5 4 6 4 4 7 4 6 4 4 e 0 * @ i e i r Q ) 2.e 3 e w w 6 $.$.&.&.&.&.=.&.>.=.=.=.=.-.-.-.-.-.-.-.-.-.;.-.;.<.=.,.u.6 8 T.l.l.c.k.c.c.c.k.l.v.~.7 $ * * - $ $ $ $ $ $ $ & & $ $ & $ & o & + & $ O & $ o $ $ * O $ O & & + $ & @ o O o O + % o & $ o o $ $ O & $ * - - o !.m.M.n.n.M.M.M.n.N.E.j.- uXT.b.v.E.h h ~.E.E.T.W.E.h T.m.T.Q.o F.W.m.B.V.V.W.W.~.* ..p.a.i.i.2.4.BXfX9XSXKXKXLXKXLXKXLXKXLXLXLXKXLXLXKXLXLXLXKXJXKXLXLXLXLXLXKXJXLXLXLXLXLXKXLXKXLXLXLXKXJXLX9X^ u.>.i.u.i.<.i.<.<.:.<.i.:.i.:.:.i.i.i.:.i.;.r.t.3 j x.s.h.h.h.h.j.d.gXZXKXnX  X + . X       X   f VXY.j.j.g.C.C.            X X X = X IXLXAXFXlXY.h.x.h.h.h.h.h.x.h.h.h.h.h.c.h.h.x.h.h.x.W.yXX 0XgX3.5 r r 5 w 4 q 4 6 4 9 0 ",
": O P +XcX+ O & O o ; X X % u 9 B G C G C G G C t 6.6.G , y y y 9 y > > * i  ... ...4.4.h L.S.K.T.T.~.iX- tX&X<X;XaX@ * P 7 5 5 5 4 6 6 5 4 6 4 4 6 5 5 e # 3 7 5 5 5 6 5 5 5 e 8 5 e 5 ( i 1.# j KXpXhXqXtXeXeXtXeXtXhXgXtXdXpXqXVXGXGXGXGXPXGXGXGXGXPXPXPXHXHXUXP o p.2.q.2._ } ..} $.' ` Q ^ Q Q ^ ( ( 8 4 @ o > 3.-XSXPXJXSXBXSXBXNX9X:X4.@.1.( ( ) 1.2.2.1.2.2.@.@.i i 0 * @ o o o o o o o O + . . & +   X O X O X .   ; X   O O   X     X X   X + X     +     X   O O   X O .   X X X       X X     + +     O   X       + X   O +     + . @ o  .6.t.q.q.y.a.1X4.# U.D.J.J.J.G.G.G.K.K.H.K.K.K.G.K.G.K.K.K.G.G.G.K.!.4.$ qX%X%X0XqX= P ;X%X%XqXW . u 7 i 5 e 6 5 5 5 q # 5 5 5 6 7 5 6 6 4 5 5 5 4 0 @ > @ @ 0 5 4 4 6 5 5 4 4 5 5 4 6 5 5 # @ 5 e r 8 8 ( 2.5 # e r w 6 &.%.$.&.&.*.*.=.=.=.=.=.>.=.-.-.-.;.-.-.-.;.-.,.;.*.-.u.u.2.# S.T.l.c.c.k.k.c.c.c.k.l.Q.@ - $ $ O & @ $ @ $ $ $ O + @ o $ o & @ & o & & @ & $ O @ O & O $ & o o O o O o & O % O O O O o & $ o $ $ $ * * 1 u o Q.W.M.n.M.n.n.M.N.m.~.7 j.~.m.V.R.g.g yXE.m.M.m.b.Q.g | ~.E.I.X T.b.N.N.b.V.W.yX| 6 u.p. Xi.i.q.2.BXNXsXDXKXLXKXLXKXLXLXLXLXLXKXLXJXLXLXLXJXLXLXLXLXLXLXJXKXLXLXLXKXLXKXLXLXLXLXLXLXLXKXKXJXLX9X^ u.%.i.i.<.i.<.<.i.<.i.<.i.<.<.i.<.:.i.<.i.q.a.( 7 j.j.j.s.h.h.j.h.j.AXDXLX$X  = & O         X   1 qXQ.d.x.j.Y.d     X       X   X -   AXPXUXAXlXj.l.h.x.h.h.h.h.h.x.h.h.h.h.h.h.x.h.x.h.h.x.yXs.f VX3.# r r q 5 q 4 q 9 4 4 4 ",
"O + -XT ;XW . & + + + :   & Z 9 S G C G G C G G C 6.6.@.9 y y > 2 y , > * i ..) ......4.8 S.S.H.H.W.~.yX7 fXaXaXaXMX5.o S i 7 e e 5 5 5 5 5 6 4 5 4 6 4 5 # % 7 5 5 6 5 5 e 5 5 6 6 e e i i 1.@ W KXAXpXeXtXeXeXtXtXpXtXhXgXpXgX;XIXHXGXPXGXPXGXPXGXGXGXPXGXGXHXHX. i 6.2.} 2.' ' ' $.' $._ Q ~ Q ( i ) i o @ P #XmXJXJXSXBXSXJXNX3Xp.1.) ) ) 1.) 2.1.1.1.1.i i u 4 # @ @ o o o o o + . X + X . X O . O .   O O   . + X   X X         X +     + O     O     X     +     O X     X   X       + X   X +     O   O       +     X X     X X   O .   & o 4 0.2.q.q.i.a.P.>X# t.U.J.G.J.G.G.G.G.J.K.G.G.K.H.K.G.K.G.H.K.H.J.J.!.3.o &X%X%X0X0XW   %X&X%X%X*X  - i 5 6 8 5 5 5 0 5 @ 5 5 5 5 5 5 6 5 6 5 5 5 5 4 @ o o 0 4 4 5 4 4 6 4 4 7 6 3 6 5 4 5 @ # e i r 8 6 i 1.4 3 e e w 6 &.$.&.&.&.*.=.=.=.>.=.-.=.-.-.-.-.-.-.-.-.-.*.;.-.;.%.:.%.u.6 8 !.l.k.c.k.c.c.l.c.v.z.E.g o * $ - O & @ & $ * & O $ o & O $ O $ O o & O + O % + @ @ O + @ O o & o $ O o & O O O O O @ @ O & @ & o o & * - 1 o F.T.m.n.M.n.N.N.N.V.~.o l.E.m.m.~.h j.W.m.M.n.m.m.T.7 S.!.~.S.@ E.N.n.M.V.W.W.~.#  .u. Xi.a.i.u.2.BX9XsXDXJXKXKXLXLXLXKXLXLXLXKXLXKXLXKXKXLXLXLXLXKXJXLXLXKXLXLXLXLXKXJXLXLXLXKXLXLXKXLXLXKXJX9X^ u.-.<.<.i.i.<.<.<.<.i.<.<.i.<.<.:.i.:.:.:.r.a.3 j j.h.d.j.g.h.j.d.C.ZXKXLXW   = 1 X +         X = tXY.j.h.d.C.=             X X X +   aXPXJXDXlXd.j.h.x.h.h.h.h.h.h.h.h.x.h.x.h.h.x.h.h.x.h.b.Y.X gXU 4 r 6 e q w 4 9 9 4 0 4 ",
"X OX*X. W GX  : & O + . 2 , 2 9 9 G G G C i G C C 6.6.C , y y y y y * > * i  ...) ..| t.8 C.l.F.H.E.~.iX7 fX8XaXaXaXSXo $ i i 5 5 5 5 8 5 5 5 5 5 5 5 4 5 4 @ 5 5 5 5 6 6 5 8 5 5 i 6 i i @.I @ 7XVX7XeXpXpXpXdXeXhXpXpXpXsXpXpXVXPXHXPXPXGXPXGXGXGXGXGXPXGXGXUXR o 0.2.2.2.' ..2.` ..' $._ ^ Q Q ^ 1.5 . I SXLXUXBXBXSXSXBX9X4.( ( )  .1.2.2.6.1.@.i 3 @ @ @ o . . o X   o +       X X O     : O     + o   . X . .     & O   X + X   X     X     X X   X O O     . X X .   O O     + X   X X   X X   X =     + O   X X   +     X +   . O O . o O . @ @.2.q.q.q.r.y.1X..# I.P.S.J.G.G.G.G.J.J.K.K.K.K.G.G.G.H.G.K.J.K.K.K.I.o &X&X%X%XqXqX  P qX%X%XqX1 X i i 5 5 5 5 e 5 5 # 5 5 5 5 5 5 5 5 5 5 4 0 q 4 @ @ * 0 5 4 6 5 4 6 4 5 4 4 4 6 5 5 5 # * 5 q e r 8  .I @ 4 u t w 6 #.&.$.&.&.&.*.&.=.=.>.=.=.=.-.=.=.-.-.-.;.-.;.;.;.;.;.,.,.u.2.@ F.l.b.k.c.c.h.c.k.v.z.l.!.$ $ 1 & & $ & & o O O O O + o O + o o + O + @ @ O O O O @ O O @ $ o @ O o + O @ % O O % @ + O O @ O & $ & $ & & 1 o F.W.m.M.n.n.c.n.M.T.F.o !.b.n.E.!.- l.E.M.N.n.b.E.l.@ F.G.!.h g E.V.B.n.V.W.~.C.# p.q.i.a. Xi.>.2.vXNX9XSXFXKXJXLXLXLXLXKXLXKXLXKXLXLXJXLXLXLXJXLXLXKXLXLXLXLXJXLXLXLXLXKXLXLXKXLXLXJXLXKXJXJXNX( ;.>.<. X<.<.<.i.i.<.<.i.:.<.i.i.i.i.:.i.i.q.u.@ C.j.g.g.g.h.h.j.x.Y.DXLXPXPXU   + X   X         - qXj.g.j.j.d.X             X X O 1   ;XIXKXFXlXj.Y.h.j.h.h.h.x.h.x.h.h.h.h.h.h.h.h.h.h.h.h.x.~.X A.3.4 i r e 4 q q 4 4 0 4 4 ",
"Z nX: X O GXE   & O X 1 {.o y > B G C C C i G G t 6.6.G 0 y 9 2 y y : > * i  .~  .....S.8 S.S.H.T.E.~.yX7 kX9XmX7XaXSX9.o u u 5 i 5 q 5 6 5 5 4 5 5 5 5 5 5 @ 5 4 5 6 q 6 5 5 6 5 6 8 i i 1.7 @ aXmX&X#X&X:X,XA.&XA.&X&X<X&XeXpXMXVXHXPXGXGXPXPXGXPXGXPXGXGXPX;X. i 0.$.$.2.' ' ' ' ..$.2./ Q ^ ( @.4 o 8.IXJXSXSXJXPXBX X2.2.2.@.2.4.2.1.i # o o o o o . . o &   . +   X X   X &     O +     O X       X + X     + X               X X   X +     X X   X     + O   X +     X     X     + =     +           O     + +     + X     X X O   . O +   . o % 6...q.q.q.a.P.>X@ S.J.H.J.J.D.G.G.K.J.K.K.G.H.H.z.H.K.K.K.U.z.J.J.I.o Z.&X%XnXZ.      qX%XY.%Xf.  0 i 5 5 q 5 5 5 i 3 5 5 5 5 6 5 6 5 6 5 7 4 # @ # 4 7 4 5 5 5 4 4 4 4 5 5 3 6 4 5 7 * o 0 7 0 5 5 i i 4 @ u e w t 6 #.&.$.&.&.&.=.=.=.=.=.=.=.-.=.-.-.-.-.-.-.=.-.;.;.;.;.;.;.&.p.3 8 Q.l.c.k.k.c.k.c.k.l.k.T.j.o * * * & $ o o & & o O $ O & @ o O o @ O O O o O @ + + O @ O @ O O o O @ $ o O + O O O + O % O $ o + & $ & * 1 o F.T.N.c.n.N.N.N.V.T.j.7 ~.b.M.W.j.- R.m.n.n.n.n.W.| # t.| k.o S.W.m.b.V.W.W.yX@ 2.a.;.i.i.i.a.u.2.BXsXsXSXFXLXKXLXLXLXLXLXLXLXLXKXLXLXLXKXLXLXLXLXKXLXLXKXLXLXLXLXJXJXJXLXLXKXKXKXJXKXLXKXLXJXvX( u.>.u.<.i.i.<.<.<.i.i.<.i.i.<.<.<.i.<.i.:.i.) # Y.d.s.h.h.h.h.h.j.I.FXFXGXIXUXW   . O     X X   = eXj.h.s.C.s.      X   X   X X X   P LXLXKXDXgXj.x.j.x.h.h.x.x.h.h.h.h.h.h.h.h.x.x.h.h.h.h.g.Y.s j 8.4 e 5 6 q e 4 q 4 4 4 0 ",
";XR   O . 7.HX. O O X ).P o 9 9 S G G G G G C G C 6.6.G > y y y y y > % $ i 2.` ......4.8 S.S.F.R.E.~.iX7 kX9XmXcXmXmXHXo @ u i 5 5 5 8 5 5 5 5 5 6 5 5 5 5 # 4 5 5 5 6 5 5 5 5 8 r i i i 1.@ 7.BX8X7X9X9X,X9XpX1X7X9XsXsX7X7XBXnXaXnXnXnXnXzXbXGXPXGXGXGXGXPXL o 0.$.2...' 2.' ' ' ' ' ' ( Q ( @.5 o 8.UXAXSXBXJXvXp.2.2.u.a.u.6.t 4 @ @ o o $ . o . O o O .   O O     + X   X X   X   . o +     + +     O       X X O     + +   X X O X X     O     X X     X X         O X   X =     X X   X     1 X   O +     X   X X     + O     :   . o   X O . o 6.2.q.q.e.e.a.1Xi # 1XD.J.J.G.G.J.G.J.G.G.K.H.K.G.K.G.K.K.H.H.H.H.rX- U pXgX- X g pXo U 0XZ.Z.0X= @ u e 5 8 8 5 5 5 # 5 7 5 5 5 6 5 5 5 5 3 # @ 4 0 5 5 5 4 4 5 5 7 4 6 4 6 4 4 4 5 4 @ @ 1 0 u i u 5 4 @ 4 G 9 w ^ Q #.$.&.$.%.&.&.=.=.=.=.-.>.-.=.-.=.-.-.-.-.;.-.-.;.;.;.,.,.;.u.6.3 | T.l.k.k.k.c.l.k.c.c.k.~.7 o - @ $ $ $ o @ O o o + @ o O $ @ O @ O O @ + @ O + @ O + o O o O $ o O o + o o @ O O @ @ O @ @ O $ & $ & $ - o F.m.M.n.N.c.n.N.m.E.h h W.b.m.W.| h !.m.N.c.M.b.W.| 8 S.k.| @ uXR.m.m.V.W.iXg 3 p.q.u.i. Xa.u.>.$.BX9XsXCXKXKXKXLXLXLXKXLXLXLXLXKXJXLXLXLXJXKXLXLXJXLXLXJXLXLXKXLXKXLXLXLXLXLXLXKXLXKXLXLXKXJXBX^ q.>.<.i.<.i.<.i.<.<.<.<.<.<.:.i.<.<.<.<.%. X3 h C.h.g.h.j.h.h.h.j.0XDXFXLXHXHXLX+X      X       - 0Xj.x.h.C.s   X   X X   + X   1 ;XIXLXHXKXZXtXd.j.h.x.h.h.h.h.h.h.h.h.h.x.h.h.h.h.h.h.h.g.h.d.j.$ U 5 6 e e q 5 q 4 0 4 4 0 ",
"=XO O + o : PXy &   [.E O & y 9 u G G C C G G S t 6.6.@.9 y y y 0 y > > # i  .` ) ....S.7 S.S.T.H.E.~.iX7 kX9XvXBX8XmXBX#Xo 0 i 5 u 5 5 5 5 4 5 5 6 5 5 4 5 4 # 5 5 6 5 5 5 5 5 q i e i ( 1.@ :XBX:X9X9X,X7X9X9X7X3X9X9X8X9X9XBXBXmXBXGXGXGXmXnXGXUXPXPXGXGXPXo e 4.2.2.q.$.' ..$...' ' _ ( Q ( i @ I JXSXSXSXvX>X$.q.u.a.6.i # @ o o . o . .     + X     & X   X X   X     + X   X +       +   X X   X O     + O     X X       O X     X X     X X X X   X X     O X   X X   X     X +     + +     +   X     + = X   O +     X   X X   X O X   X O   o 4 6.q.u.q.e.a.P.>X# S.J.J.J.G.D.J.G.G.G.K.G.K.G.G.K.K.K.K.H.G.H.U.rXj - %X  X C.~.uXj = %X%X%X%Xj X u 8 5 6 5 5 8 5 * 7 5 5 5 6 5 8 5 5 5 5 5 0 5 4 4 4 6 4 7 5 4 4 5 6 4 5 5 4 5 u @ o @ o o o @ @ @ o # e 9 t B ^ 6 / $.=.$.>.&.&.=.&.>.=.=.=.-.-.-.-.-.-.-.-.-.-.;.=.=.;.;.,.,.%.u.r # uXl.k.v.k.c.c.k.c.k.h.b.Q.o @ - $ $ & $ o $ o O $ o O O o O O O O $ O O @ + @ @ O O O $ O @ O O O @ @ O @ @ O @ + O o & $ O + $ & & > - X F.T.M.n.n.N.n.n.B.E.h g.~.m.m.~.7 | E.V.B.b.m.m.!.h ~ S.J.3 h ~.v.m.b.V.yX!.@ 4.u.q.u.i.i. Xi.6.$.vXNXsXAXKXKXJXLXLXKXLXLXLXLXLXLXKXJXLXLXLXLXLXLXLXJXLXLXLXJXLXKXLXLXLXLXLXLXKXKXLXKXLXKXLXJXNXQ u.%.,.i.,.<.<.i.<.<.i.<.i.<.:.<.<.i.<.i.i.p.@ j.j.h.h.h.h.h.h.j.d.Q.DXDXPXJXIXUXUX8X      O     = Y.j.h.j.Y.p   X X     X     Z.LXLXJXLXPXDXZXtXj.x.h.h.h.c.h.h.h.h.h.h.h.h.h.h.h.h.h.h.h.g.h.h.C.$ 7 q e w q 4 6 9 9 4 4 4 % ",
"Y   & + & X {.=X. P zX: o & 9 y B C G G G C G t C 6.5.C > y > y > y * > * i  .) _  .2.4.8 S.S.H.T.E.~.iX7 NX8XmXmX8X8XcXPXu o S 5 i 5 e 6 5 5 7 5 4 5 5 5 4 8 # 4 5 5 5 6 5 5 5 e 6 8 r ( 4 @ 8XBX8X7X2X9X2X2X9X9X9XsX9X3X8XBXmXmXGXvXvXGXBXBXnXnXUXGXGXGXUX9.o 1.2.2.$.$.' $.$...$.' ' ' _ ^ i q @ SXSXSXSX9Xq.q.q.u.p.e # @ @   X =     O &     O X X   X X X     X +     X   X X X   + X   X =     X X X X     O X   O +     X X       X X X   X X X   X X   X     X X     = O     +   X X   + +     1 X     O   +     O +   X + +     O   X     . & @ 2.2.q.u.q.a.a.1X8 8 U.P.J.D.G.J.G.G.H.H.G.G.K.H.H.K.H.H.!.H.H.H.rX3.o . h rX!.F.T.!.X f.;XZ.%Xf.X - 5 8 5 6 5 5 5 4 i 5 5 5 6 6 5 5 5 5 4 4 5 5 7 5 6 4 6 4 4 5 5 4 4 5 4 4 7 0 % o @ @ % * * % % % 0 q q 9 e w t w #.&.$.&.&.&.=.=.*.=.>.-.=.>.-.-.-.-.=.,.-.>.-.;.>.=.;.;.;.,.&.u.2.3 h !.l.k.k.l.k.c.k.c.c.l.T.C.o # * & o $ + $ $ o o O @ $ O @ o o o O o o O o O O O @ @ O o O o O @ o O @ O O o O @ O % o $ & @ O * & - - X Q.m.n.n.n.n.N.n.N.E.h h ~.m.z.~.$ C.E.m.m.m.m.m.~.4 | S.t.@ !.T.V.m.V.~.iX@ i u.u.;.q.i. Xi.i.6.2.BXvXdXNXKXKXKXLXKXLXLXLXLXLXKXJXKXLXLXKXLXLXJXLXKXLXKXLXKXLXLXLXLXLXLXLXLXLXLXLXKXKXLXLXKXJXBXr u.%.u.<.u.i.<.<.<.<.<.<.<.<.i.<.i.<.i.<.i.6.@ C.h.j.s.h.h.h.h.h.C.tXDXFXLXIXJXLXLXPXnX  X   O   - C.s.s.h.C.= X X X X     P GXPXLXLXLXJXLXJXDXQ.x.x.h.x.h.h.h.h.h.h.x.h.h.h.h.x.h.h.h.h.h.h.g.s.j.- @ e 6 4 6 q q 4 4 4 9 0 0 ",
". O O : :   P ;X+ ;XE o O % Z 9 u G C G C G G C t 6.6.G 0 y y > y y % * * i  .) ......S.7 S.S.H.T.E.~.yX7 kX8XvXmXmXvX8XmX8Xo * 7 5 5 5 5 5 5 5 6 5 6 4 5 5 5 3 5 5 5 6 4 5 5 5 5 e ( i 1.3 o * u #XsXmX8X2X8X9X9X9X9X9X9XsXBXmXBXBXBXGXBXBXBXnXGXUXHXHXGXUX  u 2.2...2.$.' } ' ' } ' ' ' ` Q 8 @ 8.JXSXNXp.' i.q.a.2.@ o o : o . X X X O .   X O     O X     +       X X o     O X     O X X       +     X +     O X   X     +   X O X     X X       X X X   X =     O X       X + X   X 1 X   O +   X   . = O     & X   X O X X     O X X X + X   X + o u 2.$.q.q.q.a.P.t.# I.J.D.D.J.J.H.G.G.H.H.K.K.K.K.K.K.K.H.H.!.uXS.o - j.uXz.z.v.v.~.g - qXf.%X0X= O i 5 6 6 5 5 5 7 5 7 5 8 5 e 5 5 e 5 5 5 5 4 4 6 4 4 6 4 5 6 4 6 5 4 4 5 5 * o % q q q q q q e e 9 e e w w w C w _ $.&.>.&.&.%.>.=.>.=.>.=.-.-.-.-.-.,.-.-.-.-.,.-.;.-.-.-.<.-.u.u.2.# I.l.l.v.k.l.c.k.k.k.c.l.!.h @ @ - o $ O X $ O & O O o O O o O o @ O @ O o O O @ o O @ O O @ O O O o O O @ O @ O + O $ o O + + & & - > o !.b.m.n.n.n.n.n.M.E.| h ~.m.T.!.. Q.E.c.c.n.b.W.T.7 | t.8 7 yXv.m.m.W.~.| @ p.u.i.=.<.<.i.i.i.>.2.vXdXfXNXKXKXKXLXLXKXLXKXLXKXLXKXLXLXLXJXLXLXLXLXLXLXLXJXKXLXKXJXLXLXJXLXLXKXLXKXLXKXLXLXKXJXBXw u.>.<.i.,.<.<.<.:.<.<.:.<.<.<.<.<.<.<.u.u.( 3 F.s.g.h.h.j.h.j.d.j.tXDXLXJXLXIXJXLXHXUX;XX X     - d.j.g.h.j.= X X     O $XUXUXAXFXFXJXIXHXLXFXY.j.j.h.x.h.h.h.h.x.h.h.x.h.h.x.h.h.h.h.h.h.h.h.s.x.j @ 5 e w 4 q 4 4 9 4 4 0 4 ",
"o & : : : +   =X;X[.  O & ; u 9 B G G G G C G G C 6.6.G > y y y y y : > * i 1...~  .| t.8 S.C.H.H.W.~.iX7 NXvXmXmXvXcX8XcXJX#Xo u i 5 e 5 7 5 5 5 3 6 4 5 5 5 5 4 5 6 4 6 5 5 5 5 5 i i i 6.1.7 4 @ * 1.0.1X8X8X7X9X8X8X9XmXmXvXBXmXBXBXmXBXBXmXGXPXGXGXPX=X. 0.2.2.$.' 2.%.$.2._ ' ' ' $.$.r 6 o SXSX>X2.} a.i.u.$.# o o X O O X       +     O O     X X X X     = X   . O . O . X X O X X + X     +   X X   X O     + X   X X . X     X X X   X X       X X     X O     + +     + X X X     : .   & 1     + O X O   X + X   X ; .   X X X       + O X . @ 2.2.q.q.q.a.a.P.3 4.J.D.G.D.J.G.H.H.G.G.G.G.K.G.K.H.H.R.K.S.7 $ | !.!.v.z.z.k.l.F.F.  &X%X%XqXA o u i 7 6 8 5 i q # 5 5 5 5 5 6 5 5 5 5 5 7 5 4 4 6 7 4 5 4 5 5 5 4 5 5 0 @ @ % B 9 e e e q q w 9 w q w e w t t w ^ &.&.$.>.>.%.&.>.=.=.-.=.-.-.-.=.-.-.-.-.>.-.=.,.-.-.,.;.-.;.,.$.p.i # U.l.l.c.c.c.c.k.c.l.l.l.T.j o $ * O $ $ o @ O @ @ O @ % O o o & o O @ O @ o O O o O o o O @ O @ O @ O O O @ O @ O O % + @ $ & & $ - o ~.v.n.n.n.n.n.M.M.T.j.7 T.z.R.k.@ ~.B.n.n.c.m.T.F.4 t.| @ !.T.W.v.W.~.F.@ 0.u.i.,.<.<.<.i. Xi.u.2.dX9XNXMXJXKXKXLXJXLXLXLXLXLXLXLXJXLXKXKXLXLXLXJXKXLXLXLXLXLXLXLXLXLXLXLXLXLXKXLXLXKXLXKXLXIXBX6 u.&.-. X<.i.<.<.<.<.i.<.i.<.i.:.<.<.r.*.a.8 7 C.g.h.h.h.s.g.d.j.j.tXDXLXIXIXLXLXHXqXW =   X X X d C.h.j.g.Y.= X X     P UXPXPXJXJXJXJXHXLXPXZXC.Y.x.j.h.h.h.x.h.h.h.h.h.h.h.h.h.h.h.x.h.h.h.h.h.h.j.# 5 6 w 4 w 4 9 4 0 0 4 % ",
"X O : : & + X [.cX< O ; % + y 9 B G G C G G G G @.5.6.C % y y y 1 y > 0 # i  .` ......4.8 S.S.K.T.E.~.iX7 kXsXvXmXmXvXmXmXMXBXy o u i u 5 5 5 4 5 6 5 5 4 6 4 5 5 4 6 4 6 5 5 5 4 i 5 i ( ..2.4.4.( 6 # @ 4 8.7XmXmX8X2XmXBX9XmXBXBXvXmXmXBXBXnXGXHXGXGXUXU o 0.2.` 2.$.$.' $.$.' ' ' ' ' ` ( 3 7 PX>Xq.q.<.r.<.u.5 @ o + + . . X O     X   X X     +     X X     X   X X   X +     + X     X X X X   X = O   X + X     X O       + X   X O       X   X     + X     + X   X   X X X   1 +     : o o . $ O 1 o   & :     + X X   X   X     O o     + O X . o i 1.2.q.q.q.a.U.8 8 U.D.D.G.G.J.G.J.G.K.K.G.H.H.R.H.!.rXC.@ * l.E.T.v.v.v.v.v.z.l.T.- 9.Y.%X%XU . u 8 5 i 7 8 u @ o o 0 i 5 5 6 5 5 5 5 4 6 5 5 5 5 4 6 5 6 5 4 5 u 5 0 @ # 0 u 9 q e e e q q w q q e e e w w w 6 #.$.&.&.%.&.>.=.=.=.=.=.=.=.=.>.=.-.-.,.-.-.-.-.>.-.-.-.-.-.;.;.%.6.u.@ | !.F.k.k.l.k.k.c.k.c.k.l.Q.  $ $ & & O o $ O $ O o O @ O o o O o o O @ O O O o o o O o o o o O o $ o @ O @ O O O % O & @ O + & - $ $ ~.m.n.n.n.n.n.n.M.R.j.@ 4.k.k.| $ !.E.n.m.v.n.E.C.7 I.# g ~.z.v.V.~.lX3 8 p.,.,.%.>.,.,.i.i.u.u.$.vXsXsXMXKXKXKXLXLXKXLXKXLXKXLXLXLXLXLXLXJXLXLXKXLXKXJXLXLXLXLXLXLXLXLXKXLXLXKXLXKXKXLXKXKXJXSX^ u.%.>.i.,.<.i.<.<.<.<.<.<.<.<.r.<.<.<.<.a.4 h C.h.g.h.g.h.h.j.j.d.tXDXVXLXIXLX;XA +     X       j j.h.h.j.C.=   X       Y VXIXIXAXKXFXHXJXAXZXC.x.h.h.h.h.h.h.h.h.h.h.h.h.h.h.h.h.h.h.h.h.h.g.h.h.j.@ q q q 5 4 4 4 9 4 9 4 0 ",
"y O , & : + X @XnX2 X & & % 9 , u G F G G C C G t 6.6.@.0 y y 2 y y > * * i  .)  ...| 4.8 C.S.H.T.E.~.iX7 NX9XmXnXmXmXvXmXvXBXvX% o u i i 5 5 4 5 7 4 7 7 5 6 3 5 6 4 6 4 5 5 5 e # i 8 i ( ` ....t.p.u.1.# o o o 8.8XSXSXBXmXvXBXmXNXsXmXBXBXnXGXGXGXGXUX. i 6.$...$.' ..$.} ..' ' ' ' $.$.( 3 ( L.$.w.r.:.i.q.$.@ o   . +   X     + X     +           O     + +     O X     X   O     + +     + X         O     X +     + X     X   X     X + X   X X         X O   X = X X X +   X X X + & . o P & . $ u o @ O o & +   X 1 X     = X       . O     + + o 0 2.6.q.q.u.y.P.p.# 4.J.D.G.z.J.G.G.G.K.K.K.H.K.U.!.rX7 o S.yXE.l.z.v.v.c.c.v.l.b.Q.C.= qXf.%X+X. u 5 i 7 i j @ @ 4.7 o 7 i i 5 u i 6 i 6 7 5 8 5 6 5 5 5 5 5 5 4 7 * o @ i i e i q e e e w w q q w e e w w r w w #.&.$.=.&.%.&.&.>.=.=.>.=.-.-.=.=.-.-.-.-.-.-.-.-.-.-.-.-.-.:.;.;.%.u.2.# S.!.l.k.h.c.k.c.k.c.v.l.Q.F.  - $ $ $ o o $ o + $ o O o $ O @ o @ @ O o @ O @ O $ + O @ @ O o $ o O @ O o o O O + @ @ $ $ $ - 1 $ h W.v.c.c.n.v.n.m.M.m.!.# | S.D.8 8 ~.V.c.n.m.z.~.| 7 7 @ iXm.v.m.W.yXj # a.2.u.;.i.;.u.<.i. X,.u.1.NX9XsXMXKXKXKXLXLXLXLXLXLXLXLXLXLXLXKXLXLXJXLXLXLXLXLXKXLXKXJXLXLXLXKXLXLXLXLXLXKXKXKXKXKXJXBXr u.$.>.u.<.<.<.<.<.<.<.<.r.<.<.<.<.:.<.u.u.# j j.g.h.g.h.g.h.h.x.d.tXFXJXVXU     X               s.h.d.h.h.Y.=   X X   O     2 qXLXLXKXHXLXKXjXj.h.x.x.h.x.h.x.h.h.x.h.x.h.x.h.h.h.h.x.h.h.h.h.g.h.j.# 5 q q e 6 4 9 4 0 0 0 % ",
"=X. & : &   [.=X$XW O : , O y 0 B G G C G G G G G #.6.C 0 2 y y y y > 0 # i  .) ..~ ..t.8 S.S.T.T.E.~.iX7 CX8XsXvXvXmXcXmXvXcXBXmXo * i u 5 8 i 5 5 6 6 5 6 5 5 6 7 4 5 6 5 5 4 i @ i i 8 i Q ( ~ ( ..2.p.:XG o I     & =XPXBXBXBXsXMXmXmXBXBXcXnXGXGXHX&Xo 5.2.2.....%.$.' ' ' ' ' ' ' ' @.1.3 r u.w.i.:.:.i.u.r o o + X   X +       X X X     + X     O           X     + X   X :       X   +     + +   X = X     X X =     + +     + +         X     + + X   X +         +     O A     y - o * - $ j - $ $ j & . 1 1 . X O   + O   X :     O X     X . o o 1.2.q.u.q.q.a.1X3  .1XG.J.G.G.G.G.G.G.G.K.H.U.uX| o 7 !.~.T.z.v.z.v.l.v.k.z.z.z.Q.lX. 0XZ.%X&X= * e 5 7 u @ o A.1XrX .@ @ 5 i i 7 i e 5 8 5 5 5 5 8 5 7 5 u 7 0 o o 4 G i t e e e e w e q w q e 9 q w e r w r w _ $.>.%.&.=.=.>.&.=.=.=.=.=.=.-.-.-.-.-.-.-.-.-.-.-.=.-.;.;.;.;.;.;.$.u.) @ I.T.l.c.k.c.k.c.h.l.l.l.T.j.  - $ $ & $ X $ o o o O O O o O o O o O o O @ O @ O @ X o + O o o o O O @ $ & O o O $ * $ $ * * * . C.E.m.n.n.n.n.n.n.n.m.W.| @ L.S.8 | T.M.n.n.v.v.~.g o o yXT.m.m.m.yXh @ p.$.u.;.,.,.u.<.<.<.i.i.>.$.BXNXdXMXKXJXKXLXKXLXLXLXLXLXLXLXLXLXJXKXLXLXLXLXJXLXLXLXLXKXLXKXJXKXLXLXLXLXLXKXKXLXFXLXKXJXSXr %.q.>.u.u.<.<.<.<.r.<.<.<.<.<.<.:.<.<.r.p.. C.j.s.g.h.g.g.h.j.h.j.tXDXIXW   O =               X C.g.h.h.h.j.-   X X X   X X     f qXIXIXJXFXtXj.x.h.h.h.h.h.x.x.h.x.h.h.h.h.h.h.h.h.h.h.h.h.g.h.h.j.7 5 q q q 5 4 4 0 4 % 0 0 ",
"=X: O + X 2 nX2 T ;X& O & & y 0 B G G G G C G C G 5.6.@.0 y y y 0 y > * * i  .`  . ...4.8 C.S.T.T.W.~.iX7 NX8XmXmXmXmXcXmXvXBXmXHX7X. # I 5 5 5 8 6 5 5 5 5 5 5 6 4 4 5 5 5 5 0 4 3 e i 8 r i Q 8 ( ( ` 2.4.- U LXJX+X$ . & SXBXmXBXmXmXmXmXBXcXzXPXGXPXP @ 6.2.$.$...' ' ' $.' ' ' ' $.' $.) # ` i.<.:.r.:.:.u.4 o X O     .   X +     X O   X     X X   X +     + +   X X X X X     : X   X : X X X   X O     + X     +     X X   O     + X     +           X     + +     + X   X $ X u o $ j j @ $ j g $ 7 - $ g o X 1 1     & X     X   O X   X +     $ o i 2.q.u.q.r.y.>X .4 1XD.G.G.G.G.G.z.H.K.U.uXI.3 @ | yXE.l.v.c.k.c.v.c.v.v.l.l.E.C.$   Z.%XZ.%X1 $ u i i # @ A.rXD.G.rXL.7 o $ 5 i i 7 q 5 q 5 i 5 0 u u u 0 @ o u L.e i e t q e e e q e w e q e w w e w w r t w ^ $.&.&.&.&.&.&.=.>.-.=.=.-.>.=.-.-.-.-.-.-.,.-.-.-.-.-.-.;.;.;.;.*.u.&.p.6 @ F.T.z.k.k.c.k.k.c.c.l.l.!.| . - $ O O $ X $ O & O @ o O O O & o o O @ O @ O @ o $ @ o @ @ O $ o o & * @ $ o @ O o & $ * > - . rXv.m.n.n.m.n.n.n.n.m.B.~.@ 8 rX# j.E.m.n.n.m.m.R.- 7 F.E.m.v.T.yXF.@  .u.u.q.*.r.,.;.,.<.<.i.;.u.2.mX9XmXsXKXKXKXLXLXLXKXKXLXLXLXLXLXLXKXLXLXKXLXLXLXLXKXJXLXLXLXLXLXKXLXKXLXLXLXLXKXLXKXJXKXJXSXr u.$.>.i.,.<.i.<.<.<.<.<.<.r.<.<.<.<.i.,.u.o C.j.h.g.g.h.h.h.h.j.j.tXFXLX+X  X O   X   X   X X s Y.s.h.g.j.Y.a           X X O X X   U UXPXLXY.j.x.h.h.x.h.h.h.h.h.h.h.h.h.h.h.h.h.h.h.h.h.h.h.g.h.j.7 5 q q 4 q 4 4 4 9 % % 0 ",
"=XT . : . =XOX. 2 ;XF O @ , 0 u S G G G G G C G C 6.6.G % B y 9 y y > % # i  . ... ...S.8 S.F.H.H.E.~.iX7 CX9XmXvXmXcXvXmXcXBXmXcXPX@Xo @ I i 5 5 5 q 5 5 5 5 5 3 5 5 4 4 5 5 5 # i 4 5 5 8 r i 8 i ( ( i 1.o +XLXPXIXLX;X  7XnXmXBXmXBXBXvXBX7XzXPXGXPXO u 1.2...$.' $...' ' ' _ ' ' ' ' $.i 3 $.i.:.r.:.r.q.$.# o =     + X     X X X     X X     O O     X X X     X +     + +     +   X X   . & X   + :     +   O     X =     O +     O X X X     + O   X +     X   X X   X 1 O . $ j $ $ 7 7 j.C.7 7 ZXhXo 7 j - @ o $ + & X   + + X   + X     X O O o o # @.2.q.q.q.u.>X..# S.J.D.G.D.z.G.G.K.U.uX| # 7 ~.W.m.z.v.z.v.k.c.l.k.b.l.E.!.j X - Z.p qXZ.qXP o j P # @ L.rXF.J.J.F.U.rX| 7 o @ 7 u i i j u u u u u 7 @ o o 8.JXBX6 ^ ^ @.t t e q w e q e q e 9 q q w w r r w / $.&.&.&.%.>.=.=.=.=.-.=.-.=.-.>.>.-.-.-.-.-.-.-.>.-.>.-.-.-.;.*.;.;.,.&.p.3 # !.l.l.k.c.c.c.k.k.h.c.k.~.j . - $ $ O $ + & $ O O O o $ o o o O o O O * @ @ @ o @ @ @ @ @ @ @ * @ @ @ $ $ $ = $ $ & & > $ - ~.v.v.v.c.n.n.c.n.n.m.m.E.E.@  .@ l.E.m.m.n.n.m.K.o Q.!.b.m.m.yXF.# 2.u.u.%.*.<.-.,.,.,.,.u.i.<.u.$.NXmXmXfXJXKXKXLXKXLXLXLXLXLXLXLXKXLXLXKXLXLXJXLXKXLXJXKXLXLXLXLXKXLXKXLXKXLXLXLXLXLXKXKXJXLXNXr u.$.>. X,.<.<.<.<.<.<.<.<.<.:.<.<.<.;.u.6.o j.j.s.g.g.g.h.h.h.h.j.Q.DXLX;X  X X O       X X X s.h.h.h.g.h.Y.f       X   X   X O     &XUXLXDXY.j.h.x.h.x.h.h.x.h.h.h.h.h.x.h.h.x.h.h.h.h.h.h.h.h.g.C.7 4 q q 9 w 4 9 4 0 % 4 % ",
"W ;X: . P cX1 & . =X{.O ; @ Z 9 C G C G C G G G C 6.5.@.% u y y 2 y > 0 * i .. .` ~ ..4.8 S.S.F.T.W.~.iX7 CX8XcXmXcXmXvXBXmXvXvX8XcXPX8.o % j q q 5 8 5 5 e 5 5 5 5 5 5 5 7 7 # # 5 5 5 5 6 6 8 8 i 8 i i i . ;XVXHXHXIXLX. -XMXmXmXmXBXvXvXvX7XzXHXHX8Xo 1.2.$...' $.} ' $.$.' ` ' ' $.` 2.r 3 %.r.:.:.:.:.i.) @ o X   X     + X     O     X X   X     + +   X + X     O   X     + +     1 X     +   O     + &     + X   X X X X     + +     + =     X   X     X + X   : =   X $ o - * $ 3.lXj.- !.jXh h F.| F.C.7 - j $ . $ 1 X X X X X X   X + .   X O   o o i u.q.u.u.q.a.P.7  .U.G.D.G.J.G.J.!.I.# . j.~.E.v.v.c.c.z.n.c.c.c.l.T.~.C.$   U &XqXX 0XZ.%Xf.X i @ o S.U.G.K.K.H.G.J.U.4.CX#X- o o @ * 7 0 7 # 4 o o 0 3.SXSX9X5X6 @.r t t e e e e e q e w e w e w e w w t w ^ $.>.&.&.&.&.&.=.=.>.=.=.-.>.=.=.-.-.-.-.-.-.-.>.-.>.-.,.,.-.;.:.;.=.;.u.>.u.3 7 Q.l.l.l.k.k.k.c.k.c.k.l.!.h o - $ & @ @ @ O $ O o o o $ & * O o @ # @ # @ @ # # 3 3 3 3 # # # @ @ # % $ o X $ $ - > & o C.E.v.c.c.n.c.m.m.n.m.n.m.m.W.!.* o Q.m.m.n.n.m.W.F.o !.T.m.l.yXQ.@ i p.q.;.;.;.<.u.,.<. X,.<.<.,.u.$.BXfXsXsXJXKXKXLXKXLXKXKXLXLXLXLXLXKXLXLXLXLXLXLXLXLXLXLXLXJXLXLXLXKXLXLXLXLXLXKXKXLXKXKXKXJXNXr u.&.=.<.,. X-.<.<.<.<.<.:.<.<.<.<.<.r.%.4.o C.j.s.g.g.h.g.g.h.h.j.C.DXLXAX  O X O     X X   = C.d.h.h.g.g.j.s.  X   X     X X X X   GXUXJXZXj.x.h.h.h.h.h.h.h.h.h.h.h.h.h.h.h.h.h.h.h.h.h.h.g.g.h.j.7 7 6 q 4 9 4 0 4 4 0 % 0 ",
"2 cXF O ;XW X : . 7.+X& , & G 0 e G G C @.C G G G 5.6.G > y y y y y > > * i  .) _ | ..S.8 S.S.T.H.E.~.iX7 CX9XmXmXmXBXBXvXmXvXmXvXvX8XPX8.o * S u u e e i 5 q 5 5 5 4 5 5 4 3 # 5 5 5 5 5 5 5 5 5 i 8 i U * o VXwXVXVXHXIX  ;XBXmXmXNXvXvXBX6XcX7XGXUXI @ 6.2.` $.2.' ' ' ' ' _ _ $.' ' _ 2.4 6 u.:.:.:.:.:.u.( # .   O +         X     X X     X +     X X       X +     X +     + X   X X X 1 =   X 1 X   O O   O X   + + X X = X     +   X     O +   X + X     X   O X   O 1 . O j 7 7 h rX| !.| | F.iXh 7 iXuX7 7 g - - * o O 1     + +     O   X     X & o 4 2.2.q.e.q.a.P.( 7 U.F.J.J.K.U.rX| @ 7 Q.~.z.v.m.v.z.z.v.v.n.v.l.~.!.j X f ;XqX&X%X%X%X%X%X+X  o o C.U.J.U.G.G.G.K.J.J.+.hXKXDXaXZ.1 - o o @ * * 3.:XmXSXsX9X9X5X6 @.@.^ t i e e e q e q q e 9 e e t w r r w ^ $.&.&.&.&.>.&.*.=.=.-.=.=.=.-.-.-.-.-.-.-.-.-.-.-.-.-.-.-.<.;.;.,.=.,.=.%.u.u.3 3 uXF.l.l.k.k.c.k.c.k.l.z.!.h O $ @ $ $ $ o o $ o o o $ & @ @ @ % 3 3 8 Q ^ / ! / ! ! Q ~ Q Q 6 3 3 # # $ - - @ * * @ # !.z.c.b.c.n.n.m.n.m.v.m.c.n.m.!.Q.o !.m.m.m.n.m.E.j.- !.b.T.~.Q.# i u.q.i.-.-.-.;.<.,.,.-.<.<.,.u.u.#.vXfXsXsXJXKXLXLXKXLXLXLXLXLXLXKXLXLXKXLXLXKXLXKXLXKXLXLXLXLXLXLXKXLXKXLXLXLXLXLXKXKXKXKXKXIXNXQ >.%.>.u.,.<.<.<.<.<.<.<.q.<.<.q.<.<.;.;.q.o C.j.s.g.g.h.h.j.s.h.j.C.ZXVXIX:   X   X   X X X j j.s.h.h.h.h.h.C.=           X     X 1 UXHXFXQ.j.h.h.h.h.h.h.h.h.h.d.h.h.x.h.h.h.h.h.h.h.h.s.h.h.h.d.j.7 4 q q 4 9 4 4 0 % % 0 % ",
"X +X=XY ).& > : O Z =X2 o % u y C J G G G G C G G 6.5.G % y y y y y > % # i  .`  . ...4.7 S.S.H.T.E.~.iX7 kXsXvXcXmXmXmXmXmXvXmX8XvXvXcXHX7X@ o u 7 7 q 7 q u 5 5 5 5 7 # # 3 u 5 5 5 e 5 i 5 5 5 5 i i i o P VXzXqXVXHXVX  8XSXBXmXvXBXvXvXcX7X7XGXPX2 0 0.2.' ' ' ' $.' $.' ' ' ' ' $.' 2.3 6 q.:.r.:.:.i.a.6 @   O     O X .     +     X   X       +     + O     + X O X X X +     + 1     O $ o o X . 1 O . + 1     +   X       + X   X +     X X X X     + +   X -     O + & - - $ I.rX7 j.~.l.h k.T.h.T.| h j.F.7 h A.$ @ o $ X +     X +     + O     X . o 1.q.q.q.q.r.P.t.@ P.F.J.J.I.S.7 $ F.~.E.z.v.c.v.m.c.v.z.m.k.R.T.| o 7 7 - &X;XC.Z.%X%X%X%X;X. o S.rXU.H.J.H.H.H.K.K.K.| hXfXAXAXJXDXSXAX-X&XNXNXSXNXsX9X8XsX9X5X6 ) ( ^ t t e e e w e e e q w e e t e w w ^ ^ $.&.&.%.&.=.=.=.-.=.=.=.=.>.-.=.-.,.-.-.-.-.-.-.-.-.-.-.-.-.;.;.>.,.,.,.%.;.u.6.5 * l.l.l.k.c.k.k.k.c.k.k.l.~.j $ $ o $ $ $ O @ @ & * o o @ 3 6 Q ! ! / ! ] ! ] ! ] ] ! ] ! ! ! / ~ 6 3 # @ # - - $ o j.~.c.v.c.c.c.n.v.c.n.n.n.c.v.b.~.| - ~.l.m.z.m.z.~.h 7 ~.T.!.S.@ ( p.u.<.*.<.-.<.<.u.,.,.-.-.,.<.i.>.1.BXvXsXsXFXKXKXLXKXKXLXKXLXLXLXLXLXLXLXJXLXLXLXJXLXLXLXLXJXKXLXLXJXKXKXLXKXLXLXKXLXJXKXLXLXJXmXw u.$.>.<.<.<.-.<.<.<.<.<.;.<.<.<.<.:.;.u.2.o j.j.g.g.g.g.s.h.h.h.h.j.tXDXPX;X    O     X X X Y.j.s.h.h.h.h.s.Y.j           X X O + qXIXAXZXC.x.h.b.h.h.x.h.x.h.h.h.h.h.h.h.h.h.h.h.h.h.h.h.h.s.j.h.j.3 4 6 q q 9 4 0 4 % 3 % 4 ",
": E A n Y {.*X@X7.& I E O > u 9 S G G C G G C @.@.5.5.G 9 y y 2 0 y * 0 * i  . . .....S.8 S.S.F.T.E.~.iXg NX8XsXmXvXnXBXvXmXmXmXvXBXvXnXcXHX;X* o - 0 i u i u q u 5 # # 5 4 7 4 5 5 4 5 5 i 8 5 5 i i i y   ).bXwXbXbXHXqX  BXBXBXmXmXmXvX6XvX7X;XHXHXo i 0...$._ ' ' ' $.' ' ' _ ' _ $.' $.# r %.r.:.:.:.:.i.6 @   +     O O         O X     + X   X +     X   X +     : +   X + X X . O + 1 o . u - o o - o O . O O +     + +     + X       X + X   + =     + X X X X X 1 X o 7 I 7 - j.H.| j.k.j.W.l.h T.~.g.h l.!.h j.7 7 7 7 X o f .   O X X X     O O     o i 2.%.%.q.r.P.p.@ S.F.U.rX .o 3 !.~.T.v.z.n.v.m.v.z.z.z.z.!.Q.j.o h rXI.$ $ &X<X%XZ.%X%XnXu X | rXI.H.!.H.R.G.K.R.K.U.S.!.dXdXsXsXaXsXaX,X&XsX8X8XpX8X9XeX7X1X:X8 @.^ ( t e e e e e e 9 e 9 e 9 w e w w t r ^ $.=.&.&.%.>.%.>.>.=.=.-.>.=.-.-.-.>.-.-.-.-.-.-.-.-.-.-.-.-.-.-.,.>.>.-.;.;.;.2.q.3 3 U.!.l.k.k.k.c.k.k.k.k.l.l.| o $ - O & * @ & & $ o o 3 6 ! ! ! ] ! ] ! ] ! ] ] ] ! ] ! ] ! ] ! ! ~ Q 3 # # u . g !.m.z.m.v.n.c.n.v.c.n.c.n.c.c.m.~.| g ~.v.n.v.z.T.~.g h !.uXF.% r p.u.>.;.;.:.,.,.,.>.,.,.,.<.,.i.u.u.$.mX9XfXsXDXJXKXLXKXLXKXLXLXJXLXLXLXLXJXLXKXLXJXLXLXKXJXLXLXLXLXKXLXLXKXLXKXLXLXLXKXLXKXKXJXLXsXt u.$.>.u.,.,.<.<.,.<.<.,.<.;.<.<.;.;.<.q.u.@ C.j.s.g.g.g.g.j.g.g.h.d.Q.KXLXPX+   + O   X   s.C.h.h.s.h.g.h.h.j.eXX X   X = X =   P HXLXFXjXj.j.h.x.h.h.x.h.x.g.h.h.h.h.h.h.h.h.h.h.h.s.h.h.s.s Y.j.j.4 4 5 q 4 4 0 % 4 4 3 % % ",
"2 X E {.$X*X}.cXvXPX9.; ; 0 Z 9 C G G G G C G C @.6.6.G > u > 9 y y > > # i  ...~ ....t.8 C.S.H.T.W.~.iX7 NX9XcXmXvXvXmXvXBXvXBXvXBXvXvXnXvXBXSX-X0 X o o o o * u 5 5 5 4 5 5 5 5 5 5 e 6 5 5 u 5 5 u j + X bX0X0XzXbXPXW : SXmXmXmXmXBX9XvXvX2X-XUX7Xo G 2.$._ $.' $.' _ ' ' ' ' _ $.` ` 2.3 i w.r.:.r.r.%.u.4 o . X   O     X +     X X         O X   X + X     X X       + X .   P X . $ u o $ $ $ - u o @ j 1 . X 1         O +     1 =     +         X +     1 =     1 o * - - h C.| 7 yXW.| j.W.k.k.g.j.k.~.j.- iXlX7 - j - $ o . X 1 X   X & .   X X X   X 0 6.q.q.q.r.a.>X3  .kXS.o o F.uXT.m.m.c.v.v.v.k.v.v.z.T.uXj.$ o 1XuXF.Q.rX7 o - &XpX%XaX- o :XrXU.K.K.K.K.H.R.H.K.K.!.t.1X,X,X<X<X<X&X,X,X#X:XL.A.:XA.A.A.A.A.p.6 $.) ( t t i e e e e w e w e e w w t w t w ^ $.&.&.&.&.*.&.=.=.=.=.-.=.-.-.-.-.-.-.-.-.-.-.-.-.-.-.-.-.-.-.,.,.-.,.-.-.<.;.;.2.p.5 @ S.!.l.l.l.k.c.k.k.c.k.l.!.C.o o - & & $ @ * @ @ 6 _ ! ! ] ! ] ] ] ] ] ] ] ] ] ] ] ] ] ] ] ] ! ! ! } i o o o !.T.z.c.v.n.v.n.v.n.n.c.c.c.c.v.z.~.7 | W.v.n.n.n.z.~.- | jX .@ 2.u.u.&.q.;.;.;.,.;.,.,.,.,.-.<.,.,.u.q.$.vX9XNXsXJXKXLXKXLXLXKXLXLXJXLXLXLXLXLXLXLXLXKXLXKXLXLXKXLXJXLXLXLXKXLXLXLXLXLXLXKXLXKXFXKXLX9X^ $.>.$.,.u.<.,.<.<.<.<.<.,.<.<.;.:.<.<.u.u.@ j.j.s.g.g.g.g.g.g.g.h.h.s.lXDXFXHX1   X   X Y.Y.h.g.h.x.g.h.h.h.s.tXC.X X O X + X + UXJXZXZXC.h.x.h.h.h.h.h.h.h.h.h.g.h.h.h.h.h.h.h.h.h.h.h.h.x.s.= Y.C.# 7 e q 9 9 4 4 0 % % % 9 ",
"o [.R @X=XOX@X{.[.{.PXcXo > u y i G G G @.@.G t C 6.6.G 0 u y y y y % > * i  .) )  . .t.8 S.S.K.H.E.~.iX8 CX9XmXmXmXvXmXvXvXvXvXBXvXvXvXvXcXmXBXBXSXcX$X0.OXR o * u 5 e 4 5 5 5 5 5 5 e 5 5 5 5 e 5 u u   f.0X*X0XbXbXPX& R HXmXvXmXmXvX8XvX7XcX-XUXW o 4.@.2.' ' ' ' $.$.' $.' ` ' ' ' ` 2.# ( <.:.:.:.:.;.q.# @ O     + o         X     + +     O +     X   + X   + 1 X   + +   X o o u - o g | - o i j o o $ @ 7 -   X n     O + X       O O     1 O   X +         + 1 X . j 7 o 4.iX| F.| h.T.E.| | ~.~.h j.~.j.l.h | C.h 7 @ A.j .   1   X       +     + + X @ 1.2.q.%.e.r.P.( 3 j o h yX~.m.z.n.z.v.z.n.v.n.v.z.~.!.* o | uXU.R.H.H.Q.uXj.- o P aX- o S.uXK.J.K.T.H.T.R.K.R.R.K.R.j.1XrXfXCXNXNXfXfXCXNXfXCXfXNXNXfXdXdX9X9XQ ( ( @.( i C B i e e e e e w e e w e w w w ^ $.&.&.&.=.&.>.>.=.=.=.>.>.-.-.-.-.-.-.-.-.-.-.-.-.:.-.-.-.,.,.,.*.<.-.-.<.;.;.;.&.u.a.^ # h ~.F.l.k.l.k.c.k.k.l.l.T.Q.- X $ & * $ $ @ 6 ~ ! ! ] ] ] ] ! ] ] ] ] ] ] ] ] ] ] ] ] ] ! [ ] { ! ..8 o I.E.l.m.v.v.v.v.n.n.z.c.n.c.c.c.m.v.~.o C.m.n.n.c.c.m.rX@ A.7 @ 4.u.u.;.;.;.;.;.;.;.;.;.;.,.,.<.<.<.,.i.u.#.NXmXfX9XSXKXLXLXKXLXLXLXLXLXLXLXJXKXLXLXLXLXLXLXLXLXKXJXLXLXLXKXJXLXKXLXKXLXLXLXKXKXLXFXKXLX9Xt u.$.&.u.<.<.,.<.<.<.<.,.<.<.;.<.;.;.;.*.u.# j x.s.g.g.g.g.g.g.g.g.s.j.C.lXZXFXLXqXZ.qXDXC.s.h.h.h.h.h.h.h.s.x.s.ZXeXX       P IXLXDXZXtXj.x.h.x.g.x.h.h.h.h.h.h.x.h.h.h.h.h.h.h.h.h.h.h.s.g.Y.a j Z.@ 5 5 q q q 0 0 % % % 0 % ",
"> [.[.*X$X=X=X=X+X{.}.cXI , y e C J G G G C K @.@.6.5.e u A u y y y , 0 # i  .) ..| ..S.8 S.j.J.T.E.~.iX7 fXsXvXmXvXmXvXmXBXBXBXBXvXBXBXvXmXmXcX8XvXmXBXBXBXSX$ o i 5 u 5 7 4 5 5 5 e 8 e 5 5 5 5 i u X 1 qX0X%XqXzXbXGX  $XHXmXmXmXBX8X9X9X8X7X-XUXu % 4.` ` ' ` ' ' ' $._ ' _ _ $._ ' ' $.# ( r.:.r.:.:.r.2.# o . X O     = X     X     X     +     + +     = X     X   +     1 u X o j 7 $ 7 7 g C.j $ rXDX- = u $ o o + X & X   + : X   O +     X   +     O 1     & - o o 7 - jXC.7 l.~.k.| z.R.g.j.| | W.T.h k.yXF.7 F.uXh 3.h - 1 -   X + O   X O   X X   X o G 2.q.%.q.r.P.t.@ o I.~.T.v.n.n.z.m.c.m.n.z.v.T.~.j.@ $ I.uXH.R.H.T.H.H.K.!.U.C.7 @ o I.uXK.K.!.K.H.R.H.K.T.R.R.K.U.S.rXfXfXkXdXfXNXfXdXfXdXdXdXdXsXsXdXdX9X9XQ 1.@.t r t e e e w e q e e e e w e w r w Q ^ $.%.&.&.&.=.&.>.=.-.=.=.-.-.>.>.>.-.-.-.-.-.-.-.-.*.-.=.>.-.-.-.-.-.-.<.*.<.;.-.;.;.u.u.) # 7 U.T.k.h.c.h.c.l.c.k.l.T.!.| o o - * # 3 _ ! ! ] ] ] ! ] ] ! ] ] ] ] ] ] ] ] ] ] ] ] ] ] ] ! O.6 # j.E.z.v.v.c.M.v.v.v.c.c.z.c.n.c.v.m.m.E.@ Q.T.c.c.c.n.m.Q.@ o 3 4.6.>.>.;.*.u.;.;.;.;.u.,.,.,.,.,.<.<.,.,.u.` vX9XNXsXFXKXLXKXLXLXKXLXLXJXLXLXLXLXLXLXJXKXLXLXJXLXLXLXLXKXLXLXLXKXKXLXLXLXLXKXLXJXKXKXLXIX9X( $.>.>.u.,.,.,.,.<.,.<.,.,.;.<.;.:.:.;.%.a.7 g j.s.g.g.j.g.g.g.g.g.h.s.s.Y.jXZXDXZXZXlXs.s.h.g.h.s.s.h.h.h.h.s.x.j.jXDXgXqXAXKXFXVXZXtXs.x.j.h.h.h.h.h.h.x.h.d.h.h.h.h.h.h.h.h.g.h.h.h.h.h.g.d.j.X j.4 5 5 4 4 4 4 0 4 4 % 0 % ",
"T 7.$X=XOXA : , ).}.*X{.I , 9 0 G G G G G G G G 5.5.6.B u 0 y y u y > 0 * i  . ... ...4.8 C.S.H.T.E.~.jX7 NXsXvXvXmXBXvXvXmXvXvXcX9X7XvXmXvXBXmXmXvXmXcXnXvXBX7.o 0 u i 5 e 5 7 e 5 5 5 5 5 5 8 5 I @ . *X0X*X%XqXqXPXW $ MXmXBXBXBXvX9X9X6X8X-X;XHX* 0 6.` ` _ ' ` $.' ' $._ $.' ' _ ' ` $.@ ) <.:.:.r.:.u.` @ o   O O           O     + X   O +     X   X O   X = +     1     o $ - 3.$ g iXI.- j.jX| | h C.7 j $ $ g - . O 1 X   X   X +     + +     = X       X &   . u j - - iXF.| g.l.| W.j.8 ~.~.| h ~.F.j.j.k.| ~.j.7 Q.lXj o 7 1         + X   X +     O o 4 6.q.q.%.t.a.t.@ I.~.l.m.v.v.v.c.c.n.v.l.m.~.Q.7 o | rX!.R.T.K.K.z.H.R.K.!.S.U.!.I.I.!.T.K.R.K.K.K.K.R.R.R.T.R.K.!.S.rXfXfXfXfXfXfXfXfXdXfXdXfXdXdXdX9XdX9X9X6 ` ( ( t t i i e e e e e w w e w e w w ^ w ^ $.&.&.*.=.&.&.=.=.=.=.-.>.=.-.-.-.-.-.-.-.-.-.-.-.-.-.-.,.-.-.-.-.:.-.-.-.,.-.-.;.u.,.;.u.p.3 3 | !.z.k.k.l.l.k.k.l.k.b.T.j.- X # @ ( ~ ! ] ! ] ] ] ] ! ] ] ] ] ] ] ] ] ] ] ] ] ] ] [ ! _ 3 # F.!.z.m.c.c.v.v.c.c.v.c.c.c.n.c.v.v.v.T.F.@ !.T.c.n.c.c.m.Q.o j 7 1.u.q.;.%.;.=.u.;.;.;.;.,.,.,.,.,.,.<.<.<.u.@.fX9XsXsXJXKXLXKXKXKXLXLXJXLXJXLXLXKXLXLXLXLXLXLXLXLXLXKXLXJXLXLXKXKXKXLXLXLXLXLXKXLXFXJXLXLX9X^ u.$.>.u.,.,.,.<.<.,.<.;.<.;.;.;.;.%.%.u.u.u - C.s.g.g.g.g.g.g.g.g.h.h.h.j.s.Y.Q.0XY.j j.h.g.h.g.h.h.h.h.h.h.x.g.d.s.tXAXDXZXZXDXlXtXs.l.h.x.h.h.h.h.h.h.h.h.h.h.h.h.h.h.h.h.h.h.h.g.h.h.g.g.s.Y.X $ # 5 5 4 4 4 9 4 4 % % 9 % ",
"7.7.{.$Xy , O {.=X*X}.=XF : y S F G J G K I K J 5.G S % u u A y y y > > 4 i  ... .~ ..t.8 S.S.F.T.E.~.iX7 NX9XmXmXmXvXmXBX8X8X8X7XvX8X7X8X2X7X2X2X-XnXmXcXmXmXcX> o u 5 6 5 8 6 5 5 5 5 5 5 u u S -   U 0X%X%XbXbXwXVX  W BXvXnXmXNX7X9X8XcX9X2X7XHXo i 2.` ' ' ` ' _ ' ' $.' _ ' $._ $.$.) # 2.r.:.:.:.:.i.( @ o o     X +     X X     X         X :     + +     O   + X . O u $ o g ZX7 h S.j.l.S.h j.jXS.$ j.| $ o - $ & & .   1 O   X =     X   + X     1 X   O 1 X o $ - 7 h g h iX~.h j.yXl.j.| | | j.| h W.~.h | yXl.j.h C.j A.o . 1 1     + X X X . . O X . @ 1...q.q.$.2.4.@ | E.m.v.v.n.v.z.n.v.v.E.R.S.o 3 I.uXE.R.H.H.T.K.R.R.H.K.G.k.G.J.K.E.H.R.z.K.R.R.R.z.R.K.R.R.R.R.!.S.rXhXfXfXfXfXfXfXfXfXfXfXdXfXfXdXdXdXdX1X6 ` $.@.^ i e e t e e 9 e e e e e e t r r w ^ $.&.&.%.&.=.=.=.=.=.=.=.-.=.-.-.-.-.-.-.-.-.-.-.*.-.-.-.-.-.-.-.-.-.-.-.-.,.-.-.;.*.;.-.u.$.p.6 @ h U.K.l.l.l.k.k.l.k.k.z.T.E.j @ @ ( _ ~ ! ] ! ! ] ] ] ] ] ] ] ] ] ] ] ] ] ] ] ! ! ..~ 3 # K.E.z.v.c.c.c.c.c.v.v.v.v.c.c.v.v.v.v.b.T.l.@ uXm.v.c.c.v.W.| $ hX8 6 p.;.;.;.u.<.-.;.;.;.;.,.>.,.,.,.,.,.<.i.u.#.vXmXsXsXDXKXLXLXKXLXLXLXKXLXJXLXLXJXLXKXLXLXJXLXKXLXJXLXLXLXLXLXLXLXKXLXLXLXLXLXKXLXFXLXFXKXmXr u.$.$.,.u.,.,.,.<.<.-.-.-.;.<.<.;.*.u.>.6.o X j.s.g.g.g.g.g.g.s.j.s.j.g.h.j.s.s.j.g.h.g.h.s.h.h.h.h.h.h.g.h.h.h.h.j.s.d.Q.tXQ.Y.C.j.x.h.h.h.h.h.h.h.h.h.h.h.h.d.h.h.h.h.h.h.g.h.g.h.g.g.h.g.j.Y.g o * 5 q 9 4 4 4 % % 0 % % % ",
"[.[.zXT 2 y 2 [.$X$X@X{.y S 9 % y , y b 0 > , 9 9 T #Xu P y y y 2 y > 0 * i  .)  .....4.8 S.S.T.H.~.~.iXh NX8XsXmXvXcXmXBX7X2XvXcXvX9XvXvXvXvX8XcXvX7XmXmXvXvXBX@Xo u 5 5 5 q 5 7 5 5 5 5 5 5 0 u X f ;X%X%X*X0X0XGXf.  mXHXBXcXmXvX6XvX9X9X9X7X8XcXo 1.$.$.' ' ' ` $.' ' _ _ ` _ ' _ ' $.) # 2.;.r.:.:.:.i.i @ o & X   X X   X     X X   X +       X X X X   + +     : + . o - $ j 7 $ !.iX| h ~.!.| | Q.j.Q.| g j A.7 o j u X X +   + X   X +     O :     O X O X X + P 7 o C.rXh g.k.j.T.z.| | iX| g h j.| | j.j.l.T.h | yXF.3 C.eX@ $ X + X O     + X . X + X o o ) O.' $.' _ 2.4 7 !.v.m.c.c.c.v.v.T.~.!.7 @ | uX!.K.H.K.K.m.K.K.R.R.z.R.K.k.G.!.K.K.R.H.H.R.R.K.R.E.K.R.R.R.R.R.!.k.rXhXfXkXfXfXfXNXfXfXfXmXfXfXsXdXsXdX1X1Xr @.( ( t t t e e t e e e e w e e w r w ^ w ^ &.&.&.&.&.>.%.>.=.-.=.=.=.=.-.-.-.-.-.-.-.-.-.,.-.-.-.-.-.-.>.-.-.-.-.>.-.>.-.,.<.;.;.%.*.u.%.u.2.# @ C.!.H.k.v.c.c.l.k.k.k.l.T.!.h # 3 ~ ~ } ] ] ] ! ] ] [ ] ] ] ] ] ] ] ! ! ~ _ ~ 3 # | !.T.l.v.v.k.c.z.c.v.c.c.c.c.v.c.n.v.n.b.l.T.| 7 ~.z.m.v.V.v.~.h 7 !.F.3 t.%.q.;.*.<.,.;.;.<.-.,.,.,.>.,.,.,.i.<.u._ vX9XNXsXSXKXKXKXKXLXLXJXLXJXLXLXLXLXKXJXLXLXKXJXKXLXKXLXLXLXLXLXKXKXLXKXLXLXKXLXKXJXKXKXJXJX9Xr >.&.>.>.>.,.,.,.,.-.,.<.<.;.;.;.;.;.%.u.6 u . j.s.| s.g.g.g.g.g.g.h.s.h.h.h.h.h.s.h.h.g.h.h.h.g.g.h.h.h.h.h.s.h.h.h.x.h.s.d.s.j.j.j.h.h.x.h.x.h.h.h.x.d.h.h.h.h.h.h.h.h.h.h.h.h.h.g.h.h.g.s.g.g.s.$ 4 q 4 4 4 9 4 4 % % % , % ",
"Y }.=X5.2 Z & [.[.{.=X9.> P T F 5.[.}.}.[.}.{.2XHXHXPX% y 0 y y 0 y > 0 * i  .` ....| 4.8 S.S.K.z.W.~.iXg NX9XvXcXvXmXvXvX8XcXvX8XvXvXvX8X9X8XvXvXcXcXmXmXvXvXBXSXo $ i 5 i 5 5 q 5 5 7 i 5 7 *   P ;X%XoX%X%XzXbXbX  {.PXvXmXvXmX6X8X8X9X8XcX7XnX@Xo 1.2._ ..` _ $._ ' $._ ' ' ' ' _ ' $.( @ 2.q.r.:.:.w.u.i @ o     +     X X     X X       X + O   X =     O X   +     1 1 o 7 j g h j.F.j.T.g.h W.~.h j.yXl.| | eXh j $ X - 1     1 +     + X + X   X +   X = + . X - $ dXh g T.~.| | W.~.h | j.h h h 7 j.jXk.g Q.~.| | l.j.I.j.$ 7 j &   O +   X X   + .   X + o 5 2.' ' ' ' 2.i @ ~.m.z.c.b.m.v.T.Q.| o h I.rXR.K.R.T.H.m.K.R.R.K.K.R.R.K.k.z.K.K.R.R.R.R.H.K.R.R.R.R.R.R.K.R.R.!.S.rXhXfXfXfXfXfXfXfXfXfXfXfXfXsXdXdXsXdX1X( $.) @.^ t C t t e e e e e 9 e w w r w w Q ^ $.$.%.&.>.&.&.>.=.>.=.=.>.-.-.>.-.-.-.-.-.-.-.,.-.-.-.-.-.-.-.>.-.-.-.-.,.-.-.,.*.,.*.;.,.*.;.q.u.p.i @ 7 j.T.l.l.k.h.c.c.k.l.v.l.!.U.| 6 4 Q ~ ~ ! ~ ! ~ ] ~ ! [ ~ ! _ ~ ! ~ 6 3 3 | !.!.v.l.k.v.v.v.v.c.c.v.z.c.v.v.c.z.z.v.v.b.l.~.h h !.v.z.v.m.V.~.7 h H.U.| 6 t.%.;.<.<.-.;.;.;.,.,.>.,.>.,.u.,.,.<.u.) vX9XfXsXSXKXLXKXLXLXLXLXJXLXLXJXLXLXLXLXLXLXLXLXLXLXLXJXKXLXLXLXJXLXKXLXLXLXLXLXLXKXLXDXKXLXsX^ 6.>.$.u.,.,.,.<.<.,.-.-.;.;.<.<.;.;.u.1.# pX= s j.g.g.g.g.g.g.g.g.g.h.g.h.h.s.g.g.h.h.g.h.g.h.h.h.h.h.h.h.h.h.h.h.h.h.h.h.h.h.x.h.h.h.h.h.h.h.h.h.h.h.h.h.h.h.h.h.h.h.h.h.h.g.h.h.g.g.g.g.g.g.g.C.7 3 4 9 4 4 4 9 % 4 % 0 % % ",
"y $X=X[.% A > y T W [.R & 9 9 S K ].=X2X=X2X=XcXvX2X@X% y y y y B y > > % i ..) ..~ ..S.8 S.S.H.T.W.~.yXg NX8XvXcXvXmXmXmX7X8X9XcX9XvX9XvX9XvX8XvXvX7XvXvXmXvXBXBXT o i u i 5 5 5 i 5 u i u o   1 0X%X%X+X%X0XzXPXL X nXBXvXvXBX9X8X8X9X6X8XvX2XnXE o 1.` ' ' _ ' ` _ ' ` ' ` _ ' ' _ _ $.( # 2.q.:.:.:.:.u.6 @ &   . O .     X   X X   O +     O X   X   O +     : 1 X   - - $ @ g 7 !.F.h m.~.k.| M.z.j.l.g.j.~.F.* F.C.* - - - o o X   = &     :     X X X       1 1 o j lXj.h j.R.| H.| | uXuX7 7 h j 3 h I.| h h h E.iXh h uXrXo $ 7 X O X X   +     + +     O o 3 2._ _ ' ' ` i @ !.m.m.v.v.l.~.!.7 o h !.K.R.T.K.R.K.R.z.R.K.R.K.K.R.R.K.k.G.K.R.R.R.R.R.R.R.T.R.R.R.R.R.R.R.R.!.F.rXfXhXfXfXfXkXfXkXNXfXfXfXfXdXdXsXdX1X9Xi 2.) ( t t G w t i e e 9 w e e w w w r r w ^ &.&.*.&.&.=.=.=.=.=.=.=.-.=.-.-.-.-.-.>.-.-.-.-.-.-.-.-.-.-.-.>.-.-.,.-.-.,.-.-.-.;.;.;.%.:.:.;.%.u.u.6 @ o h !.!.l.l.l.h.c.c.k.z.l.z.m.H.S.h # # 3 6 ~ ( _ _ _ _ ~ Q 8 6 # # 5 | l.!.T.l.v.c.v.c.k.c.c.c.v.v.c.v.c.v.v.c.v.v.b.k.m.uX7 | T.l.c.v.m.E.~.$ | z.K.F.# p.%.u.;.;.;.;.;.<.;.,.,.,.-.<.,.<.,.<.u.@.9XfXmXsXSXFXKXKXKXLXKXLXKXLXLXLXLXKXLXKXLXLXKXJXLXLXKXLXLXLXJXLXLXLXLXJXLXKXLXLXJXLXKXFXLXJX9Xr >.$.&.,.,.,.,.<.<.-.<.;.:.;.;.-.-.u.u.3 j &X- = d.g.h.g.g.g.s.g.g.g.g.g.g.g.s.g.g.h.g.g.g.g.h.g.g.g.h.h.h.g.h.h.h.h.h.h.h.h.h.h.h.h.h.h.h.h.h.h.h.h.h.h.h.d.h.h.h.h.h.s.h.g.h.h.h.h.h.h.s.h.s.h.j.U - 5 4 0 4 4 0 % 0 % % % % ",
"o T =X=XD y 0 y O . o > , S u u u 0 , % % 0 o % % B B 0 S y y y u y > 0 * i  .` `  ...4.8 C.j.G.R.~.~.yXh NXvX9XvXmXsXvXvX7XvXcXvXcX8XvXvX8X8XvX2X8X7XBXvXmXnXvXBXBXo * i e q 5 5 u u u & .   +X0X%Xf.%Xf.%X%XVXoXX nXAXmXvXvXvXvX9X9X8X8X9X8X7XaXI @ 6.$.` ' _ ' _ ` $.$._ $.' } _ $.' $.) # 2.u.:.:.:.:.u.5 @ . O O     X X     X         X O     + O   X O X X     & A o o A.uX- h ~.j.l.| j.j.~.j.h ~.~.| | m.j.l.| g h h 7 o u j X X X X   X     1 O   X =     = $ - 7 7 h iXT.7 l.iXj.7 j.j.7 7 - $ j g O 7 j.h 7 h !.h F.7 - DXg   o 1 O     X X O     + O X o @ ..` ..$.' 2. .# S.T.v.b.E.yX| o 8 rXuXU.R.R.H.R.T.R.K.m.K.R.T.R.R.K.z.R.k.G.R.R.T.H.R.R.R.R.K.T.R.R.R.R.R.R.R.!.S.rXhXfXkXfXfXkXfXfXCXfXdXfXdXNXfXdXdXdX1XQ ` ) ( ( t i t e e e e e e e e e e r w r w ^ $.&.&.&.&.>.&.>.=.=.=.>.>.-.>.-.-.-.-.-.-.-.-.-.-.-.-.-.-.-.-.,.-.-.-.-.-.-.-.,.-.-.;.;.;.;.%.%.%.%.%.6 5 ,X$ o 7 ~.!.l.k.l.k.l.c.v.l.l.l.T.E.!.Q.S.~ 7 3 # # # # # 3 8 | j.U.~.T.v.l.v.z.v.k.c.c.v.c.v.v.c.z.v.c.k.v.c.k.v.m.l.z.R.jXo j.T.v.v.c.m.W.~.o j.z.G.!.8 ( u.*.;.;.;.;.<.;.,.,.;.,.-.<.,.<.u.u.u.#.vX9XfXsXSXKXFXKXLXKXLXLXLXKXLXLXKXLXLXLXLXLXLXLXLXJXLXJXKXLXKXLXLXLXKXLXLXKXLXJXKXKXFXFXLXJX9X^ q.&.$.,.,.,.<.,.-.;.<.*.<.%.;.*.=.u.) @ C.f.s.X j.j.h g.g.g.g.g.g.s.g.g.g.g.g.g.g.g.g.g.h.g.g.h.h.h.h.g.h.h.h.h.h.h.h.h.h.h.h.h.h.h.h.h.h.h.h.h.h.h.h.h.h.h.g.g.h.s.x.h.h.s.h.s.h.s.h.h.h.h.s.g.h.| # 5 5 0 4 4 % 0 % 4 % % % ",
": o $X=X=X: P > 2 $XOXo y u u J K K G K G K G ].8.}.9 u B u y y y u > 0 * i 1..... .| S.8 S.S.F.H.~.~.iX8 NX9XvXmXvXmXmXmXcXcX6X8XvXvX8X8XvXvXvXvXvX9XBXmXvXmXmXvXPXP o u j u u u $ @     U ;X%X%XoX%XY.%X0XbX%X    pXSXmXsXmX9X9X8X9XvX9XvXvX2X8XS % 2.` ` ' ' ' _ $._ _ ' _ ' ' $._ $.$.) # 2.r.:.:.:.:.u.5 @ . O o .       X     X O     X O   X O X O +   X = +   X 1 $ 7 j h !.yXh | ~.W.| j.~.| l.| j.c.W.g.~ yX~.8 7 Q.7 A.o o $ 1     = =   X O   X X   X 1 . . 7 C.- h F.j.l.j.h j.F.7 # g  .$ $ - $ 7 - - h ZXC.o eXZX3.$ A.j o o   X + X     +     X . X o o  .) ` ' _ ..2.@ C.!.T.!.Q.@ @ S.rX!.H.T.R.H.R.R.K.R.T.R.K.R.K.R.m.K.R.H.k.J.K.H.T.R.m.K.R.R.T.R.R.R.R.R.R.!.R.!.S.uXhXfXfXfXkXfXkXfXfXfXfXfXfXsXsXsXdX9X9Xr $.) @.t t t e e e e e e e e e e e w r t w / $.&.=.&.&.%.=.=.=.=.=.=.=.=.>.-.-.,.-.-.-.-.-.,.-.-.,.-.-.-.-.-.-.-.-.-.-.-.-.,.-.-.;.;.-.;.,.-.=.,.%.^ @ I.tXj.- o 7 F.E.T.v.l.k.l.l.l.l.k.l.z.l.z.T.E.E.K.!.H.R.R.!.R.T.m.T.l.v.k.z.v.z.v.v.v.k.v.v.v.v.z.z.v.k.v.k.v.v.z.l.E.!.j.* o l.T.v.c.v.b.W.E.@ t.D.k.R.G.# p.u.i.q.-.;.;.;.,.;.;.,.<.<.,.,.u.,.u.^ fX9XmXsXSXKXKXKXLXLXKXLXLXLXKXLXLXLXKXLXLXKXLXLXLXLXKXLXLXLXLXLXKXLXLXLXLXLXLXLXKXJXFXJXKXLX3X^ 6.&.$.=.>.,.<.<.-.,.;.-.<.;.*.>.u.u.# h j.s.Y.X s.s.s.g.s.g.g.g.s.d.g.g.s.g.g.g.g.g.g.g.g.h.g.h.g.g.h.h.g.h.g.g.h.h.h.h.h.h.h.h.h.h.h.h.h.h.h.h.h.h.h.h.h.h.h.h.g.h.s x.j.h.s.h.s.h.h.h.s.s.h.s.j.j * 5 4 4 0 % 0 % 4 0 3 4 % ",
"y y % =X2X[.@ P [.=XvX> 0 B 9 G G G G G G G G 6.5.6.9 S u y y 0 y Z > > @ i  . . .....0.7 S.S.F.T.~.~.iXh NX8X8X9XmXvX9XvXcX7XcX2X7X7X2X2X7X2X7X7X8X6XmXBXvXmXvX8XmXmXo 0 u * o o X - W %X%X%X%X%X%Xf.Z.%X0XpX  j Z.. aXSXNXmX7X9XvX9XvX9X6X8X7X-X* q 4...' ` $.` ' ` ` #.$._ ' ' _ ' ' $.( # 2.r.:.:.:.:.u.4 o +     X O     X X   X X X O X   O :     + O   X X   1 $   - | 7 7 F.E.| k.j.g.~.m.h l.yXk.h l.W.| l.j.| ~.!.7 3.ZXo . $ :   X X X O +     1 +   X & X = $ X ,XuXh h iX~.7 | C.- 7 $ $ $ u X   u u o - dX3.j.7 g g U o . 1 1     +     X   X +     X : o i 2.` ' ` 2.2.@  .uXuXh @ 7 !.rXH.!.R.H.R.K.z.K.R.K.K.K.R.K.K.m.R.H.R.R.k.J.R.R.K.R.R.R.R.R.R.R.R.R.R.R.R.R.R.!.S.rXhXfXkXfXfXkXfXfXCXfXfXfXfXfXfXdX9XdX1X8 $.) ( t i G t e e e e w B e e w e r r r w ^ $.%.&.&.>.&.&.=.>.=.=.=.-.=.-.-.-.-.-.-.-.-.-.-.-.-.-.-.-.-.-.-.-.-.-.-.-.,.-.-.,.<.-.-.,.;.,.,.>.%.$.) # C.F.F.rXj.7 @ 7 C.!.T.l.v.l.l.l.b.v.k.v.v.l.l.l.z.z.z.z.l.l.z.l.l.l.k.z.z.v.v.l.c.v.l.b.v.v.k.z.v.v.v.v.l.v.v.m.~.l.| 7 @ 7 o !.b.v.v.m.l.m.T.# S.o.k.z.!.3 ) u.=.u.%.;.;.<.;.,.,.,.,.,.,.,.<.i.u._ vXmXfX9XSXKXKXKXLXKXKXLXKXLXLXLXLXLXLXLXLXLXLXJXKXLXLXLXLXKXLXJXLXLXJXLXKXLXLXLXKXKXKXJXFXJX2X) $.&.$. X,.,.,.<.,.;.<.;.*.<.%.%.u.1.@ C.s.s.j.s = j.g.g.s.g.s.g.s.g.s.g.g.g.g.g.g.g.g.g.g.d.g.g.g.h.g.g.g.h.h.h.h.h.h.h.h.h.h.h.h.h.h.h.h.h.h.h.h.h.h.h.g.g.d.h.g.s.s.p x.h.h.h.h.s.h.s.h.h.s.h.j.| $ 7 q 9 0 4 % 4 % % % % % ",
"P S % y -X7XT % 7.=XR % S 9 G G G G G G @.C 5.5.6.5.0 e S 9 u B u y > > $ i  . ...) 2.S.7 S.S.l.T.~.~.iXj MX8X9XmXvXmXvXBXvXBXmXvXBXmXmXmXmXBXvXBXBXvXvXmXvXmXvXcXcXPXy . . . 1 P f.0X%XZ.%XoXf.oX%X%X%XqX&X  g uXjXg X dXCX7X9X8X9X9X9X8X9XcX7XcX> e 2._ $.` ` ' $.' ` ' ` _ $.' ' _ ' #.) # ` i.:.:.:.:.i.4 @ O X X X   X X     X X     O X X X X   + X   + =   X 1 $ $ 7 7 | !.j.8 W.~.h | W.z.| | | g.~.k.h z.yX| | !.H.| | 3.$ S $ . + 2     = X   X     + O   O u $ . C.rXh j.| h hXeX* 7 j - . . 1 o + o o 7 j . $ U 7 $ o 7 o + . . + O     X O     X   X X X o 7 2.` ' $.' 6.3 j 1X* # | rXU.!.H.H.z.K.K.R.z.R.R.K.R.K.R.K.R.R.R.K.R.K.k.H.K.R.R.T.R.R.R.R.R.R.R.R.!.R.R.E.R.!.S.rXhXfXfXkXkXfXfXfXkXNXfXfXsXfXdXdXdXdX9XQ 2.( ( ^ t t t t t e e e e e e e w e w w w #.>.$.>.&.&.>.&.>.=.=.=.=.>.-.-.>.-.-.-.-.-.-.-.-.-.,.-.-.-.>.-.-.-.-.-.-.-.-.,.-.-.-.-.-.-.,.,.-.,.u.$.q.7 | Q.l.v.m.Q.F.h O $ | C.Q.E.T.F.l.l.z.z.l.v.l.v.l.z.z.v.z.z.v.v.z.z.v.z.z.z.z.l.v.v.v.l.v.v.l.v.v.z.v.z.T.E.R.C.7 @ 3 h t.3.@ E.v.c.c.v.l.V.j.# S.X.k.k.R.F.# p.u.q.;.;.;.<.-.,.-.,.,.<.,.,.u.i.u.` vX9XsXsXSXJXFXKXLXLXLXKXLXKXLXLXJXLXLXLXKXLXLXLXLXLXLXLXLXLXKXJXLXLXLXLXLXLXLXLXKXKXKXKXFXJX:X( >.$.$.,.,.,.<.,.-.;.u.*.-.;.;.>.6.3 h j.g.g.j.j.X j s.s.g.s.g.s.s.g.s.g.g.g.g.s.g.g.g.g.g.g.g.g.g.g.h.g.h.h.g.h.g.g.g.h.h.h.h.g.h.h.h.h.h.g.h.h.g.h.h.g.h.g.h.g.g.h.j.p s Y.s.s.s.h.g.s.h.s.s.s.j.j # 5 0 4 4 % % 0 % % % % % ",
"S S S % F cXcXo 5.[.F 9 9 B @.G @.G @.G @.G #.5.].@.% S S S 9 u y B 0 > % i 2.) .. ...4.8 C.S.F.T.~.W.yXh fX8XmXcXvXvXvXvXvXvXmXmXmXvXvXmXvXvXBXvXBXvXBXmXmXvXvXvXcXBX=Xo P %X&X0X%Xf.%X%XZ.f.%X%X+X%XqX&XX = iX~.~.yX- 7 dX9X8X9X9X7X9X6X8XvX2X7X& i t._ ' ` $._ _ ` #._ $.` _ _ $.$.$.$.) # 1.:.:.:.:.:.i.3 o .   X X     +     O X X X     + X     :     X X X - X o j j - h ~.j.j.j.l.l.~.h h | g.g | yXj.j.j.l.j.W.| g yXiX7 - j - o X +   + X   O + X   + + X   + O u j o I.ZXh - rXeXo $ * o 1 + X X P     1 1 o $ $ + - - X X u X   O ;   X     X +     +     o 0 2.( ' ' ` t.5 # @ 8 U.rXK.H.H.R.H.R.K.R.H.R.K.H.R.K.R.R.R.K.R.R.R.R.R.k.G.R.K.R.R.R.R.R.R.R.R.R.R.R.E.E.R.!.!.S.uXhXkXkXfXNXkXkXNXfXfXfXfXfXfXdXdXdX9X1X( $.` @.i i t e e e e e w e w e e w w r Q w ^ &.&.&.&.&.&.*.>.=.=.=.=.-.-.-.-.-.-.-.-.-.-.-.-.-.-.-.-.-.-.-.-.-.-.-.-.-.-.-.>.-.-.-.,.,.<.-.,.>.;.$.u. .7 E.l.l.v.l.T.Q.$ Z.- X - j F.!.!.T.T.l.v.l.z.v.l.l.l.l.z.z.v.v.v.v.v.z.m.m.v.v.v.l.l.z.l.z.l.l.T.T.T.!.F.h $ @ 8 | t.X.t.h @ ~.k.v.k.v.m.T.| 8 G.X.k.k.m.yX@ 2.u.%.u.<.<.<.,.,.,.,.-.,.,.,.,.,.u.$.vXNXsXaXSXKXKXKXKXKXKXLXLXLXLXLXKXJXKXLXLXKXLXLXLXKXLXKXLXLXLXLXLXLXLXLXLXLXLXJXKXKXFXKXFXLX#X@.>.$.&.u.,.,.<.,.;.,.;.-.;.-.,.u.( $ C.j.s.g.s.C.= = Y.s.g.s.g.s.g.s.g.s.g.g.g.g.g.g.g.g.g.g.g.g.g.g.g.g.g.g.h.g.h.h.h.g.h.h.h.h.h.h.h.h.h.h.g.h.h.g.g.h.g.h.g.g.h.h.s.f.= s.x.h.s.g.g.h.s.s.h.g.h.h # q 4 9 4 4 0 % 4 0 % % % ",
"9 S S y @ ].7XT @ > % C e G J G K @.G G G G ].6.6.e 9 u y B y u y u > > # i ..) ` ` ..S.8 C.S.l.T.W.~.yXh dX7XsXvXmXvXvXvXmXvXaXvXmXvXmXvXvXvXmXmXvXmXmXvXmXBXBXvXvX8XHX1 O ;X%X%Xf.f.f.f.%X%X%XZ.%X0Xf.X - tX~.W.W.~.yX. j SX9XsX9X9X7X9X9X9X7X2X@ i t.' ' ` _ _ $.' _ ' _ ' _ ` _ ' $.` @.# $.u.:.:.:.;.i.3 o .   O X X   X X O     O O     X   O X   X : X   + 1 X o 3.j Q.l.h j.~.k.g T.iX| h h g | | 7 | iX~.7 l.yXg.| j.| C.C.o o A =     O   X X X   +     : &     u u j 7 C.7 j.o $ j j . X & + X     . -     - A .   1 &   O X   + X X X +     X X       X X o # 1.` _ ' 2.2.i @ 3.U.U.J.K.G.z.R.H.H.K.H.R.K.R.R.R.K.R.R.R.R.R.R.R.R.K.k.J.R.m.R.H.R.R.R.R.E.R.R.E.R.R.R.R.E.!.S.uXfXfXfXkXkXfXkXfXCXfXfXfXfXfXdXdXdXdX9Xi 2.@.@.t i t t e e e e e e e e w e w w ^ w ^ $.&.&.>.&.>.&.%.=.=.=.>.-.>.>.-.-.-.-.-.-.-.-.,.-.>.-.-.-.-.-.-.-.-.-.-.-.-.,.-.-.:.;.-.*.;.-.-.<.u.$.t.L.$ F.l.h.k.l.l.!.o <XKXhXZ.- X $ h C.Q.!.E.E.T.T.z.l.z.m.l.v.l.l.b.l.l.l.z.v.l.l.m.b.T.l.T.!.!.Q.C.| 7 # @ @ i S.+.X.X.X.+.8 g E.l.v.c.v.v.!.7 8 k.k.v.c.W.~.C.# p.u.:.;.q.-.,.,.,.,.<.,.,.u.u.u.u.#.BX9XNXsXCXKXKXLXLXKXLXKXLXKXLXLXLXLXLXKXJXJXLXLXJXJXLXLXJXLXLXLXLXLXLXLXLXKXLXLXKXKXKXKXJXPX:X^ q.$.$.>.,.;.<.-.;.,.%.;.=.-.%.q.5 j j.s.s.h h.d.s.O s.j.s.s.s.s.g.g.s.g.s.g.s.g.s.g.s.g.g.s.g.g.g.g.g.g.h.h.g.g.h.g.h.h.h.h.h.h.h.h.h.h.h.h.g.h.g.h.g.g.h.g.d.g.g.g.j.s.s.  j.C.s.s.h.s.h.h.s.g.j.j 7 5 4 4 9 % % % % % 4 % % ",
"8.y S S Z O =X{.y % y u G K @.C G G G K G @.u.5.5.% G u u u S Z u Z 0 0 * i 1.`  . .| t.8 S.S.S.T.~.~.iXh dX8XvXvXmXvXvXvXvXaXmXvXmXBXvXBXBXmXvXvXvXBXmXvXmXmXvXvX9X6XmX#X  U %X%X%X%X%X%XZ.%X%X%XZ.= X j yX~.T.V.W.W.~.uXo j NX8X9X9X8X9X9X8X7X7X% ( q.%./ $.$._ ' $._ ' #.` ' _ ' _ ' ' ` 3 @.w.:.:.:.:.u.3 o X O     X X     X   X     O O     + O     O   +     7 j - 7 rXF.| j.T.j.!.j.7 Q.uXg 7 h j h 8 j.h !.S.g l.yXC.7 S.A.o o o X + X     + O     :     X   + -   X j - . - u $ o @ o O &   X + +   O : X . X X o 1     1 O     +       X   +     O X     + o # 1.` ' _ $...~ @ rXU.F.K.K.K.K.z.K.R.R.R.K.R.K.R.K.R.K.H.R.R.z.H.R.m.K.k.K.R.T.R.T.R.R.R.R.R.R.E.R.E.E.E.!.R.!.F.rXkXfXkXfXNXkXfXNXkXfXfXfXfXNXdXdXdX9X1XQ ..` ) ^ ( t e t B e e w e e e e r w r r Q ^ $.>.&.&.>.&.>.=.=.=.=.-.-.-.-.>.-.-.-.-.-.-.-.-.-.-.-.-.-.-.-.-.-.-.-.,.-.-.-.-.-.-.;.*.;.;.;.-.<.%.$.u.2Xo F.l.c.k.l.l.Q.h U LXFXKXKXZX&XU 7 o - g j j.C.Q.Q.!.!.Q.Q.Q.T.F.T.Q.T.Q.Q.E.Q.Q.F.F.F.j.j g = o # 8 i 1.u * t.O.X.[ X.+.# | T.z.v.v.v.z.uX# j.~.E.V.V.V.W.iX@  .u.;.;.;.<.<.,.,.,.,.,.,.,.,.<.u.#.BXvXdXsXSXJXKXKXKXLXKXLXLXKXLXLXLXLXLXLXLXLXLXKXLXLXLXLXKXLXLXJXKXLXLXKXLXLXLXJXKXKXFXKXLXLX:X@.>.$.$.>.u.,.<.;.-.%.;.;.=.*.u.1.$ j.s.g.s.s.s.s.j.g X C.s.s.s.g.g.s.g.s.g.g.s.g.g.g.g.g.g.g.g.g.g.g.g.g.g.g.g.h.g.h.g.h.g.g.h.g.h.h.h.h.g.g.h.g.h.h.g.h.g.h.g.g.h.g.s.s.d.j X j.s.h.s.h.s.s.g.s.h.h 3 4 4 9 4 % 0 % 4 % % % # ",
"HXF y S S % [.=X: 9 9 G G G G @.K @.G G G 5.5.6.@.9 S u u S u 9 u y 9 0 % i  . .2. . .4.7 S.S.S.Q.~.~.jXj fX8XvXvXvXvX9XvXmXmXmXmXvXmXvXvXNXvXvXvXBXvXmXvXmXmXmXvX9X6X8XaX$ - ;X%X+X%X%X%X%X;XZ.P X = A.~.Q.T.b.V.V.W.W.W.Q.o <XNX9X8X9X7X9X8X7X7X@ @.q.q.} _ _ ' _ _ $.` ` _ _ ` ' ' ' 2.) # ( i.:.r.:.:.i.3 o . X   X     +       O     X X X X     + +   X : +   o j j I.h | W.~.h | iXQ.h j I.o g - - h  .7 - jXQ.h h !.h I.| - 7 f X   < O     = X X X   O :     + 1   X $ O - $   $ S O . + &     X   + X     1 X X + 1       X X X     + O   X +       X X O   . @ 1.` $.} ..q. .# I.F.H.U.K.H.H.G.R.z.R.K.R.K.R.H.R.R.R.R.R.R.R.R.R.R.R.k.J.R.m.R.R.R.R.R.R.E.R.E.R.R.E.R.E.R.!.F.rXhXfXfXCXfXkXfXfXkXkXNXfXfXfXdXdX9XdX5X8 $.@.@.( G t i t e e e e e e e w e t w t w ^ $.&.&.&.&.&.=.>.=.>.=.=.=.-.=.=.-.-.-.-.-.-.-.-.-.-.-.-.-.-.-.-.-.-.-.-.-.-.-.-.-.-.;.;.;.;.;.;.;.;.%.u.9Xo I.l.k.c.z.m.!.| g LXKXDXKXKXFXKXAXpX&XZ.g $ o o - j h j 3.j.3.j.C.3.C.3.j h g 7 $ @ X $ j 3.,XNXi 4.2.@.1.# +.O.X.[ X.+.@ j.T.v.z.z.z.z.!.o j.yXT.b.V.V.W.~.| 4 p.u.>.i.,.-.<.,.<.,.<.u.,.<.u.u.$.mX9XmXsXNXKXKXKXKXLXLXLXLXKXLXLXLXLXLXKXLXKXLXLXLXLXKXKXLXLXKXJXLXJXLXLXLXLXLXLXKXKXKXJXJXJX#X@.>.&.$.>.,.,.,.;.;.;.%.=.>.>.u.6 8 j.s.s.s.s.s.s.g.j.X s.d.s.s.g.g.g.s.s.g.s.s.h.s.g.g.s.g.g.g.g.g.g.g.g.g.h.h.g.g.h.g.h.h.h.g.h.g.h.g.h.g.g.h.g.h.g.g.g.g.g.g.g.g.g.g.g.s.s.p = Y.g.s.s.s.g.s.s.j.j * 4 4 0 0 % 4 % % 4 % 4 % ",
"=X2X: I P @ }.[.% y F G G G @.K C @.G J G 6.6.6.e Z B u B u y A q F > y @ u 3.1.3.1.4.L.7 L.,XI.rXjXiXrX .sX9X8XcXvXvXmXvXmXsXvXvXmXvXmXmXvXvXmXmXmXBXvXmXvXvXvXvX9X8X7XmX=Xo W Z.%X$X%X9.P =   o I . C.Q.b.b.T.V.V.W.V.W.yXF.$ A.mX8X8X9X7X6X7X2X@ ) u.q.} _ ' _ ' ` _ _ ` ' $._ _ _ _ $.$.# ( q.:.:.:.:.i.4 @ .   + O     O       X X O     X + X   O   X   X   P & . I.jX| h j.l.l.l.h g | j $ - U * $ - - 7 g 7 7 jXuX@ h ZXA.- $ $ O +   X = +     +       X   +     + 1 . . - $ X . O o O X   O 1     = +   X X . +     O : X   O +     X X X       + X   . O   . o 2.' _ $.%.t.4.# I.H.D.J.K.H.K.K.m.K.R.R.K.K.m.R.R.m.K.R.R.K.R.H.R.R.K.k.K.R.R.R.R.R.R.R.R.T.E.R.E.E.R.E.R.!.!.F.rXhXfXkXfXkXfXCXfXNXfXfXfXfXfXfXdXsXdX1X( ..` @.^ ( i C e t e w e w e e e e t r t Q ^ $.$.&.=.=.=.&.=.=.=.-.=.>.-.-.=.-.>.-.-.-.-.-.-.-.-.-.-.,.-.-.-.-.,.-.-.-.-.-.-.-.-.-.=.-.-.;.;.;.;.%.2.BX@ j.T.k.c.b.T.~.j.o LXLXKXFXFXDXKXLXLXKXIXIXLXKXpX&XZ.Z.U j g 7 - 7 j 7 j j Z.A.&XpXAXKXLXPXLXPXPXi $.$.$.$.r 3 S.X.X.| X.@ S.l.b.v.v.v.l.!.o @ yXW.V.V.V.V.W.yX@ 2.u.u.%.;.u.,.=.u.,.,.,.,.u.<.>.2.vXfXdXsXSXLXKXJXLXKXKXKXKXLXLXLXLXKXLXLXLXJXLXLXJXJXLXLXLXLXLXLXLXLXJXLXLXLXLXLXKXKXKXFXDXIX0.2.%.&.$.u.>.,.,.<.;.;.>.%.>.u.u.# C.j.s.g.s.s.s.s.j.C.g X C.s.s.h g.g.s.s.s.s.h.h.s.s.g.g.g.g.s.g.g.g.g.g.g.g.g.g.h.g.h.g.g.g.h.g.h.g.h.g.h.h.g.h.g.g.h.h.g.g.h.g.g.g.g.g.j.s.j.p p j.h.s.s.s.s.s.j.h 4 5 4 4 0 % % % % % % % % ",
"2XS S S > A 2XS 9 G K @.@.K @.K @.G G @.#.].5.@.0 S u y C u y Z y y y @ I u 4 4 5 5 5 7 4 j i g j j C.A.NX5.BXvX8XvXcXsX8XmXvXmXvXBXmXvXvXmXvXmXmXvXvXvXmXmXmXvX6X8X9X7X8XBXI o   . . .     A &XBXJXj o C.Q.l.b.b.W.b.W.V.W.iXj o sXsX2X9X2X9X8X7X@ ( p.%.w._ _ _ ` ' ` _ _ _ ' _ $.$.' ` 2.# ( u.:.:.:.:.u.5 o o .     O O   . O       O   X     X = X   + + X   & o 7 * 7 j.iXl.- !.iX7 7 h - 7 $ o o P $ o 7 j - g I.3.C.j.- o A.$   + 1 X     X         : X   X +       O O O X   1 &     1 +     + X =     + +     : O     X X X   X O =     =     X     O   . . & @ ) ' ' q.q.a.t.# L.U.G.G.K.K.H.H.R.K.R.R.H.R.H.K.T.z.R.R.K.m.K.T.R.K.R.k.H.R.T.T.R.R.T.R.E.E.R.E.R.E.E.E.R.R.!.D.uXhXfXkXfXfXkXkXfXfXNXNXfXfXdXdXdXdXdX9XQ 2.( ( ^ t t t e e e e e e e e w e r r ^ w ^ &.&.&.&.&.&.&.%.=.>.=.=.-.>.>.-.-.-.-.-.-.-.,.-.-.-.-.-.-.-.-.-.-.-.-.-.-.-.-.-.-.-.-.,.-.,.;.;.;.u.$.2.SX7 | E.m.v.m.m.W.~.X SXJXLXKXKXKXKXFXLXDXJXJXFXKXKXKXKXZXFXKXFXKXKXDXFXKXFXFXKXFXKXKXKXFXKXJXFXSXJX( $.$.$.2.2.3 ..} X.X.| o I.l.l.c.k.k.m.F.# o C.~.V.V.V.V.W.yX| 6 p.u.q.u.;.<.-.,.,.,.,.,.<.u.%.2.BX9XsXsXSXKXKXKXKXKXLXLXLXKXLXKXLXJXLXLXJXLXLXLXKXLXLXKXJXLXLXLXKXLXKXLXLXKXLXLXKXKXKXKXJXJX0.$.6.#.$.,.,.,.<.,.;.,.,.>.>.2.( 7 C.j.h g.s.s.s.s.j.3.o $ - C.s.g.s.s.s.s.h.s.g.s.h.s.g.s.g.g.g.g.g.g.g.g.g.g.h.g.g.g.g.g.h.g.h.g.g.h.g.h.g.g.g.g.g.g.g.g.g.h.g.g.g.g.s.g.g.s.h.Y.X = Y.s.j.s.g.s.j.j 3 4 0 0 4 4 % % 4 % 4 % % ",
": @ A 0 7.cXF % G G I G G G K @.K @.@.t }.6.6.9 9 S u e u u B u u y 2 @ I 5.8.5.5.5.#X0.#X}.#X#X8XFXKXKXNXI vXcXcXvX8XvXvXmXvXsXvX9XvXmXmXvXmXmXvXvXvXfXvXmXvX9X8X9X8X9X2X7XBX:X@X9.9.@X=XMXGXMXmXcXJXS O Q.T.T.b.V.V.b.V.V.W.~.| o MXNXvX8XcX9X,X# i u.%.w.} _ _ _ ` ` ` $.' _ _ _ _ _ ` 2.3 Q q.:.:.:.:.i.6 @ . +     X X         X X     O X   X O   O     + 1 . X j j $ | !.| F.h g !.3.$ $ g 1 . o & o - $ @ 7 ,Xo @ j j o o $ o O X   + + X   + +     O X X X X X : X   + 1     O + X X     = X   O 1     O . O O     + X   X =     X   X X X   O X     + .   X O @ 1.$.q.q.q.a.a.@ S.U.F.K.K.K.z.K.K.R.K.K.R.R.R.R.R.R.R.R.R.R.R.R.R.m.R.D.G.R.R.R.R.R.R.R.E.R.T.R.E.E.R.E.E.!.!.F.rXhXkXfXkXfXNXNXfXkXkXfXfXfXfXdXdXdX9X1Xi 2.$.@.i ^ G t t i e e e w B e e w r w r w ^ $.&.&.&.%.>.=.>.=.=.=.=.-.=.-.=.,.-.-.-.-.-.-.-.,.-.-.-.-.-.-.-.-.-.-.-.-.-.-.-.,.-.,.-.-.,.,.<.;.*.;.2.BX1.7 Q.T.m.m.W.W.~.o AXKXLXKXKXLXFXDXDXDXKXJXFXDXFXDXDXDXDXFXJXSXKXLXDXFXFXAXFXDXFXDXAXFXFXDXSXDXKX@.$.$.' $.u.6 3 k.S.D.S.@ rXl.c.k.c.v.T.j.$  .@ ~.W.V.V.V.W.W.~.@ 6.u.u.;.;.u.<.;.,.u.,.,.u.i.$.u.vXmXsXMXNXLXKXKXLXLXKXLXKXLXLXLXLXLXLXLXKXLXLXLXLXLXLXLXLXLXLXJXLXLXJXLXLXKXLXLXKXKXKXLXJXJX0.@.>.&.#.u.,.-.<.,.;.%.,.>.>.u.3 j j.s.g.g.s.s.s.C.7 @ 1.4.o j j.s.g.s.s.s.s.s.h.s.s.g.s.g.g.g.s.g.g.g.g.g.g.g.g.g.g.g.g.h.g.h.g.g.h.g.d.g.g.g.h.g.d.d.g.h.g.g.g.g.g.g.g.g.g.s.g.g.j.= d C.s.j.g.s.s.g 4 4 0 4 0 % % % % % % # % ",
"2X@X{.7XcXJ % G K G C @.G K K G @.@.@.@.6.5.6.0 B i u G 9 i S y u y * : I E I 5.E 8.#X#X=X=X=X=X8XJXJXPXBX1.BX6X8XvXvX8XvXvXvXvXvXmXvXvXvXvXmXvXmXvXsXvXvXmX9XcX9X2XvX9X8X2X8XvXvXvXBXnXmXmXmXmXmXmXBXBX$ @ Q.T.m.b.m.N.V.V.V.~.jX- $ CX8X9X8X7X7Xo ( t.%.w.%.} _ $.` $.) _ ) ` $.' ' $.` $.3 r q.<.:.:.:.i.r @ o .   X     X O     X O   X   X + X     1     + O O X $ $ lXeX$ | jXC.* C.3.o $ . . : 1   O A $ $ o - $ - $ o - f . . 1 +     + X X X   O + X   + O   X + O X X   O +     + =     + X X   X   + O   + :     O X X       + X   O +     X     X     O O o @ 2.2.$.q.q.p.a.# S.U.G.H.G.H.H.H.m.m.K.R.R.K.R.R.R.R.R.R.R.R.R.R.R.R.R.k.z.R.R.R.R.E.R.E.R.E.E.R.E.R.!.E.E.!.!.P.uXhXfXkXfXkXfXfXkXNXfXfXfXfXsXfXdXdXdX5XQ 2.) #.^ i i t t t e w e t e e w e t w w ^ ^ &.$.&.&.>.=.&.&.=.>.=.=.=.-.-.=.-.-.-.-.-.-.-.-.-.-.-.-.-.-.-.-.-.-.-.,.-.>.-.-.-.-.,.-.,.,.,.,.;.u.%.1.NXA.# uXT.W.b.V.W.~.g eXDXFXFXKXFXFXDXDXFXKXFXFXKXFXFXKXKXJXDXKXLXKXKXFXKXFXFXDXSXDXFXFXKXFXFXFXFXJX( 2.2.$.#.u.u.# S.K.J.| $ !.z.c.c.v.l.T.h $ L.@ S.~.W.V.V.V.W.~.| 7 t.u.>.u.,.,.,.<.<.,.<. Xi.$.}.BXdXmXsXSXKXKXKXLXKXKXLXKXLXLXKXLXLXJXLXLXLXJXLXKXLXLXLXLXKXJXLXLXLXLXLXLXLXLXLXKXKXKXFXJXLX0.$.u.$.$.>.u.,.<.-.-.-.*.;.%.6.@ C.j.s.s.j.h.g.C.g # @.u.6.( o j.C.s.s.s.s.s.g.g.g.g.g.s.g.s.s.g.g.g.s.g.g.g.g.g.g.g.h.g.g.g.h.g.h.g.g.g.h.g.g.g.g.g.g.d.g.g.g.g.g.g.g.g.g.g.s.s.g.d.C.X p C.s.s.s.C.g 4 5 0 0 4 0 % % % 4 % % % ",
"=X=X=X2XZ 0 I G @.G @.K G @.@.K G C G 6.6.}.B e u B u u u B u S y > > o P {.7.[.7.{.:X=X=X=X=X2XBXPXPXHX2XG 9X9X8X8X8X9X9XvXvXvXvXvXvXfXvXsXvXvXBX9XvXvXmX9XvXcX8XvXvX2X8X6XvX#X:X#X#X:X7X2X7X2X2XcXvXBXBXo - rXF.m.W.m.N.V.V.W.~.yX$ - SXmX9X8X7X@ i u.q.:.w.} _ _ ` ` ) $.$.2.$.` ` _ ) 2.4 6 %.r.r.:.:.i.t @ $     X X X       X     X +   X X X X       +     = A   o dXI.j j j.o hX- o - u + . & + O     X 1 $ X & j o X + -   X   X : +     + X X O O     X   + +     ; X   X + X X   X + +     : O     +   O     + +     + +     O   X   X   O     + X     O O   # $.2.q.q.q.t.P.# A.U.G.H.K.K.z.K.K.H.R.R.K.R.R.R.K.R.K.R.R.R.m.R.R.R.R.D.R.R.T.T.E.E.R.R.R.R.E.E.E.E.E.E.R.E.!.F.rXhXfXfXkXNXkXfXNXkXNXfXfXfXfXsXdXdX9X1X( 2.) ( G t t t t e e e e e w e e w t r ^ w ^ 6.&.&.=.&.%.=.>.=.=.=.=.=.>.-.=.-.-.-.-.-.-.-.>.>.-.-.-.-.>.-.-.-.-.-.-.-.-.,.-.-.-.-.-.,.,.-.>.,.;.%.$.NX,Xo Q.T.b.V.W.V.~.j.U DXDXFXKXKXFXDXDXFXFXFXKXFXFXKXKXKXDXJXKXLXKXJXKXJXDXFXKXKXKXKXFXKXKXFXJXKXJXi 2.$.$.$.$.u.6 4 rXI.h 7 !.c.k.k.v.v.E.g 8 :X8 $ ~.W.V.W.V.V.W.~.* ..u.q.>.,.i.,.u.<.,.-.-.u.&.u.BX9XfXsXSXJXKXLXKXKXLXLXLXLXLXLXLXKXLXLXLXLXKXLXLXKXLXKXLXLXLXLXKXLXLXLXLXLXKXLXKXKXKXFXKXLX6.$.$.$.$.>.,.,.,.,.-.<.,.=.u.( i j.s.g.j.s.j.C.- @ 2.u.q.%.u.5 o U j.g.s.g.s.s.s.s.s.s.g.s.g.g.g.s.s.g.g.g.g.g.g.g.g.g.g.g.h.g.g.g.h.h.g.g.g.g.g.g.g.g.g.g.g.g.g.g.g.g.g.g.g.g.j.s.C.j = s = C.d.s.j.g 4 q 4 0 % % % 4 % % % % % ",
"2XcX@X0 9 T 1.K G G @.@.@.@.K @.G J #.].6.6.4 S u i u u u y B u > 0 % : & o > > y y I I I T T S G 1.@.( p.6. XvX9X8X8XvXmXvXvXvX9XvXmXvXvXmXmXmXvXmXmXmXvX9XvX9X8XvX9XvX9XvX:X2X2X2X2X2X8X3X2X7X9X2X7X7XNXNXo j Q.T.m.m.V.N.V.V.V.W.~.X 7 JX8X8X7X* 8 4.%.%.w.} _ $.2.) i 6 6 8 i  .2.2.@.2.e 3 $.r.:.:.:.q.) @ . X +     +       O X     X   X     + +     +   . X X $ f . . U U o - 7 - o o o o -     + 2 X X : & X . X   1     : :     + X     X   + X     +     X + O     X +     = :     X O X X     + +   X : X   X +   X     + +     + X   X O   X     O X     o 5 2.2.q.q.q.i.>X# S.U.H.K.G.K.R.R.R.H.R.R.K.R.K.R.R.R.R.R.R.R.R.R.T.R.R.k.K.R.R.E.T.E.R.R.E.R.E.R.E.E.R.E.E.E.!.S.uXhXkXkXfXkXfXkXkXfXfXfXfXfXfXfXdXsXdX1X( $.) ) ( G i e i e e e w e e e e w r r r w ^ $.&.&.&.>.&.=.>.=.=.>.=.=.=.=.=.-.-.-.-.-.-.-.-.-.-.-.-.-.,.-.-.-.-.-.-.-.-.-.-.-.-.-.-.,.,.-.,.;.u.%.) 9XdXo I.T.V.V.V.W.~.F.g DXFXDXDXFXFXJXJXLXKXKXKXKXKXKXKXKXKXKXKXKXLXLXKXLXKXLXLXKXFXLXKXKXKXFXJXLXJXr %.$.$.#.%.u.6.@ C.rX7 | T.k.k.c.v.z.uX#  .4.p.@ F.W.V.V.V.V.W.yX| 6 u.u.>.u.<.,.,.<.,.<.<.u.$.p.vX9XdXmXNXKXKXKXKXLXLXKXKXKXLXKXLXKXLXKXLXLXLXKXLXJXLXLXJXLXLXLXLXKXLXLXLXLXLXLXKXKXKXJXKXPX1.2.$.&.#.,.,.,.<.,.-.*.=.,.u.3 I.j.s.| j.C.j o 4 u.$.%.%.*.u.u.q o j.j.g.h s.g.s.s.g.s.s.g.s.s.g.s.g.g.g.g.s.g.g.g.g.g.g.g.g.g.g.g.g.g.g.g.g.g.g.g.g.g.g.g.g.g.g.g.g.h.g.g.s.g.h.Y.g X C.lXs X C.j.j.7 7 4 0 9 4 % % % % 4 % % % ",
"% 9 9 T I @.K @.@.5.@.K @.K @.C G @.6.6.6.% G G u Z B u B y S 9 > 0 > > > < > > > y & > > > > I }.}.}. X X2.}.vXvX9XvX9XvX9XvXmXmXvXvXvXvX9XvXvXvX9XvXvXvX9X9XvX6XvX9X6X9X8X2X2X2X2X:X9X9X9X9X3X7X9X2X2X8XSX7X. h !.H.T.b.N.V.W.N.V.~.tXo u BX2X7X0 5 u.q.} :.q.$.( 3 3 3 3 3 3 3 # 3 r @.2.i # q.r.:.:.:.i.@.@ o o X X     X X X     +     X X         + +   O + +   + 1 $ $ $ o - 7   o u 1     1   X X   X =     1 +   X + X X   X X +     + +     +   X X X   + X   X +     +       X   =     O :     X X   X     + X   X = X   + X X X     X X   X +     X X     . 5 2.$.2.q.q.q.P.@ S.K.K.K.K.K.H.K.K.R.K.K.R.R.R.R.K.R.R.R.R.R.R.R.R.R.R.k.K.R.T.R.R.R.R.E.R.E.R.E.E.E.R.E.E.E.!.F.rXhXkXfXCXfXkXNXfXNXkXfXfXfXsXdXdXsXdX1XQ 2.@.@.^ t t t t C e e e e t w e e w w ^ w ^ &.&.&.&.&.&.=.%.>.=.=.=.-.-.-.>.-.,.-.-.-.-.-.-.-.-.-.-.-.-.-.-.-.-.-.-.-.-.-.-.-.-.-.-.-.-.,.,.;.>.q.` 9XNX* j.E.m.V.V.V.~.~.X AXLXKXDXFXKXLXLXKXKXLXKXKXKXKXKXKXLXKXLXKXKXKXKXLXJXLXLXJXLXJXKXKXLXFXJXLXSXr $.2.$.$.%.u.u.i 7 <X@ j.T.v.c.c.v.m.~.# 3.t.a.8 7 !.W.V.V.V.V.W.!.6 6.u.u.u.,.,.,.<.,.<.<.i.$.p.BXmXfXsXNXKXKXJXKXLXKXLXLXLXLXLXLXLXLXJXLXLXLXJXLXLXLXKXLXLXLXJXKXLXLXLXLXLXKXLXKXKXKXFXJXPX1.6.>.&.$.>.,.,.<.-.-.-.=.=.u.( 3 3.j j.7 @ @ 2.u.u.>.*.%.*.;.>.}.i @ g j.j.g.g.h g.s.g.s.s.g.s.g.g.g.g.s.g.g.g.g.g.g.g.g.g.g.g.g.g.g.g.h.g.g.g.g.g.g.g.g.g.g.g.g.g.g.h.s.h.h.s.C.s X s tXtXjXs.X s.j.7 4 5 5 4 % 4 % % % % % % # ",
"5.5.5.@.K K G @.K @.@.K K @.G K C 5.6.6.@.9 G e S B u S u u B u > 0 : & , > > > > > 2 y > y y u J }.6.#.@.t }.vXvX9X9X9X9XmX9XvX9XvX9XmXvXvX9XvX9XvXvX9XvX9X9X9X6X9X9X6XvX9X:X:X2X2X1X5X9X5X1X3X1X6X9X2XsX9XSX1.o S.!.l.m.b.V.V.V.V.W.~.j.X 3.HXaXu 4 q.q.} q.q.Q # 3 ( $.q.q.} _ ) 6 % # 1.I 3 $.q.<.w.:.u.$.# @ X . O X     X X     O         X +     + +     X   & X . + f O   - 1 X   + X + +   X 1 X   X +   X +   + +   X +     + +     X   X +   X + X     +   X X X X X X   = +     + X     X   +     + +     + X   X     O X   O +   X X X     X   O     X & . e 2.$.q.%.q.r.>X# S.U.G.H.K.K.K.G.R.K.R.R.K.R.K.H.R.R.R.R.R.R.T.R.R.R.R.k.H.E.R.R.R.E.T.E.E.R.E.E.R.E.E.E.E.!.!.F.rXkXfXfXkXkXfXfXfXfXkXfXfXfXdXdXdXdXdX9X8 2.) @.( @.r t e e e e e e e e w t t e r w ^ $.>.&.>.&.>.&.=.=.=.=.=.-.=.-.-.-.-.-.-.-.-.>.-.-.-.>.-.-.-.-.-.-.-.-.-.-.-.-.-.-.-.-.;.;.,.;.>.;.u.q.^ mXfXi | W.m.V.V.W.W.yX$ pXDXDXFXFXLXKXKXKXFXKXKXKXKXKXFXKXLXLXLXKXFXLXLXLXKXKXLXLXLXKXLXKXFXKXKXJXSX6 u.6.$.#.>.>.u.6.# 0.$ j.T.v.c.m.v.T.uX@ 4.2.u.2.3 S.~.W.V.V.V.W.~.| 4 >Xu.u.;.,.,.i.,.,.u.<.$. XvXvXsXsXMXJXFXKXKXKXKXLXLXLXLXLXLXLXLXLXLXLXJXLXLXLXLXKXJXLXLXLXKXJXLXLXLXKXLXKXKXLXFXKXJXJX1.6.$.&.$.>.,.-.,.<.-.-.-.-.>.u.@.6 3 3 6 @.2.u.>.;.<.<.<.<.-.&.u.6.6 @ h C.s.s.s.g.s.s.g.s.g.s.g.g.g.s.g.s.g.g.s.g.s.g.s.g.g.s.g.g.g.g.g.d.g.g.g.g.g.g.s.g.g.g.g.h.h.g.s.s.j.Y.j X j s.gXyX~.wXs.X f.7 5 5 4 4 0 4 % % % # % * % ",
"@.@.G K @.@.@.K @.K @.@.@.@.G @.6.6.}.@.3 G u S S u B u B u S 9 > > > % > > 2 , 2 > > > y y y 0 u e G 2.u.@.u.9X6X9X9X9X9X9X9X9XmX9XvX9X9X9XvXdXvX9XvX9X5X9X9X5X9X9X9X9X9X9X5X>X5X1X9X9X9X9X9X9X5X9X9X>XBXdX9XNX1.@ F.!.l.b.b.m.V.V.V.V.yXF.. 3.aXi 4 u.' q.u.3 3 ..u.u.u.w.;.r.i.q.u.2.3 # # 3 #.i.:.:.:.r.2.3 @ . X o X O X     O X     O X         O     O +     = X . . O X : X   = 2     = +     X X = X   X =     + +     X   +     + = X   X O     X X O X     + X     +   X X X + X     : O   X +   X X   + +     & O   X +   X     X X     + X   X +   . .   o  . .' %.q.u.a.L.# C.U.G.H.K.K.z.R.K.R.K.R.R.R.R.T.R.R.R.R.R.T.R.R.T.R.R.k.R.R.T.R.E.R.E.E.E.E.E.E.E.E.E.E.E.E.!.U.rXfXhXCXfXfXkXCXkXNXfXNXfXfXfXdXdXdX9X1X^ $.` ( ^ t t t t t e C e e e e e e w w r ^ ^ &.$.&.&.&.&.=.>.=.=.=.=.-.=.=.>.-.-.-.-.-.-.-.-.-.-.-.-.-.-.-.-.-.,.-.-.-.-.-.-.,.-.-.;.-.-.,.;.<.,.,.( 9XfX8.g Q.T.W.b.W.W.yXg <XFXFXFXKXKXKXKXKXKXKXLXKXFXKXKXKXKXLXLXKXKXLXLXLXKXLXLXLXKXLXKXKXJXKXJXJXJXe 6.$.$.#.>.u.q.u.r @ $ I.l.v.b.m.m.m.!.o p.u.u.p.Q 7 ~.W.b.V.V.V.W.~.@ 2.u.u.,.q.;.,.,.;.,. X$.p.vXdXsXdXAXKXKXKXKXKXKXKXLXLXLXLXLXJXLXLXJXKXLXLXLXLXLXLXLXLXKXLXLXKXKXLXKXKXLXKXLXKXKXJXDXPX@.$.6.$.#.>.,.<.-.-.<.-.>.>.>.&.u.u.u.u.u.,.>.&.*.-.-.-.*.-.-.%.&.>.u.1.@ @ C.C.s.| s.s.s.s.s.s.g.g.s.g.g.g.s.g.h.g.g.g.g.h.s.g.g.g.g.g.g.g.g.g.g.g.g.g.g.g.g.g.g.s.h.g.g.Y.C.+ X f.f ~.tXQ.~.yXjXtXX 4 7 0 0 0 0 % % 4 % % % % % ",
"@.K K @.@.K @.K K G @.K G @.G @.6.6.5.0 S G G u u u G u S u u y > 9 : % 2 > > > > 2 > y y y Z u i G 6. X Xu.4.9X9X5X9X9X9X9X9X9X9X5X5X9X5X1X5X>X5X1X5X>X>X>X>X>X>Xa.>Xa.a.a.t.a.q.t.q.u.q.q.q.q.q.O.O.O.O.q.2.2.L.4 o F.T.b.v.V.V.N.V.V.W.~.j.o u S 3 2.q.u.3 3 2.u.w.} :.:.:.:.:.<.:.r.u.` # # ^ i.:.:.:.w.u.3 o . + X   X X     X   X X     + X     +     X X O X     1 +   X : X   X O X +     + =     : X     + X O     + +     = O   X   X +     O :     + X   X X   + X   O +     O O         O X   X + X   O +     O   O       = X   X + X   X   X O   X + O o o 1.` ..q.q.q.a.p.# L.U.H.H.R.H.R.H.R.R.T.R.R.R.R.R.R.R.R.R.R.R.T.R.R.R.R.k.K.E.R.R.R.E.E.E.R.E.R.R.E.E.E.E.E.E.!.F.rXhXkXfXkXCXfXfXfXCXfXfXfXfXsXdXdXdXdX5Xr ..) @.( ( t i t t e e e e e e e w t w w w ^ &.&.&.&.&.&.>.&.>.=.=.=.-.>.>.-.-.-.-.-.-.>.-.-.-.-.-.-.-.-.-.-.-.-.-.-.-.-.-.-.-.,.-.-.,.-.;.;.,.;.u.^ 9XmX,X$ Q.b.V.W.V.W.~.h Z.LXKXKXKXFXFXFXFXKXKXKXKXKXKXKXKXLXLXLXKXKXLXLXKXKXLXLXLXLXKXLXKXKXKXFXJXSXr >.$.$.$.>.;.q.u.2.3 $ Q.l.v.N.V.m.W.C.o 6.u.u.u...# S.W.V.V.V.W.V.yXh 3 p.;.,.u.;.<.u.u.;.i.#.p.9X9XNXsXMXKXFXKXFXKXLXKXLXLXLXLXLXLXKXLXKXKXLXKXLXLXJXLXLXLXKXJXJXJXKXLXLXKXLXLXLXKXKXKXJXJX@.2.$.$.$.>.,.,.-.-.,.-.-.,.>.>.$.&.>.>.>.&.&.;.;.;.=.-.-.*.-.=.*.*.u.u.6.e @ j C.j.s.g.s.s.s.g.g.s.g.s.s.s.g.s.g.s.g.g.g.g.g.g.g.g.g.g.g.g.g.g.g.g.g.g.h.s.g.g.g.g.h.j.Y.j X s j g ~.tX~.~.~.~.~.gXjX7 0 5 0 4 % % 0 % % % * % % ",
"@.@.@.@.G @.K @.@.@.K @.K @.5.6.6.5.% G i B i B C u u B B 9 S 9 > > % : > > 2 > 2 > , y 9 y y 9 u ( p.u.u.u.^ 2...2.' ..2.2...2...O.' ..' O...} ..} ' O.2.} } q...' q.} O.q.%.e.q.q.w.q.q.w.w.e.w.e.O.e.w.w.e.e.y.a.3 @ F.F.T.m.N.b.c.N.V.W.yXg o 7 # 0.t.6 3 6.q.:.} w.:.:.:.:.:.:.:.r.w.u.@.3 Q u.w.:.w.w.u.5 o . O X       X +     X X       X X   X X + X   + +     O   X X X   1 X   O 1     X X X       : X   X :       X X X   X + X     +           O     + +     + X     X   O     O = X   O X         +     X O     = X     X   X     X +     =       X O o # 2. .$.q.q.q.a.t.@ U.K.H.K.z.H.R.H.R.K.T.T.R.R.T.R.R.R.R.R.T.R.R.R.T.T.R.k.G.R.R.E.T.E.T.R.E.E.E.E.E.R.E.E.E.!.!.F.rXhXfXkXfXfXkXfXkXfXkXfXfXfXfXdXdXdX9X1X( 2.` ) @.t i t t e e e e e t e w t t r Q w ^ $.&.&.&.>.&.>.=.=.=.-.=.-.=.=.-.-.-.-.-.-.-.-.-.-.-.,.-.>.-.-.-.-.-.-.-.-.-.-.>.-.-.,.,.-.>.q.>.,.u.i.^ vX9XsXo F.T.m.V.V.W.~.Y.j LXDXKXFXFXKXFXKXKXLXLXKXKXKXLXKXKXLXKXFXKXKXLXKXKXLXLXLXLXKXKXKXKXKXJXDXSXr u.%.$.#.>.,.%.q.u.i 7 !.l.v.b.V.V.~.j.o 5 p.q.q.4.8 7 yXV.V.V.V.W.W.~.# p.u.q.;.<.:.;.>.r.<.$.p.BX9XsXsXMXKXKXKXKXKXKXLXKXKXLXLXLXLXLXLXLXLXLXJXLXKXLXLXJXLXLXLXLXJXLXLXLXLXKXKXLXKXKXKXJXJX@.$.>.$.$.>.,.-.-.<.-.-.,.>.-.&.>.>.>.,.>.-.=.>.=.;.;.*.<.-.*.-.,.*.*.%.2.u.@.# # j C.j.s.s.s.s.h g.s.g.g.g.h.s.g.g.g.g.g.g.g.g.g.s.g.g.g.g.g.g.s.g.g.g.g.g.g.j.h.j.j.j.X = Y.ZXiXtXyX~.tX~.Y.Q.~.~.tX7 5 5 % 4 0 4 * % % % % % # ",
"K @.K @.K @.5.@.G 5.C @.@.t ].}.5.% G G u i G u i B B u u u B 9 > 0 , % 2 > > > > y > y y 9 u u e ( u.u.i.u.$.i.r.r.r.t.r.r.a.r.r.i.y.a.a.y.a.a.y.a.r.y.a.r.a.y.a.r.a.r.y.i.r.r.i.y.i.y.y.r.y.r.r.r.y.e.y.r.r.r.e.a.t.3 4 !.Q.v.n.B.m.c.c.V.V.T.h @ @ 0.@.# 2.q.q.:.:.} [ r.:.:.:.:.r.:.:.} a.6 6 u.<.:.:.:.u.r o +     + O   X X         X O     + +     X   X   X   +     + +     +   X X   X :     + +     X   X X     :     X +     O     X   X + O   O +     X     X     + O   X +     X     X     + O   X X X X X X   X     + +     + X   X X X X     O O   . o i 2...' 2.q.q.p.4.# rXJ.G.K.R.H.R.R.R.R.R.K.R.R.R.R.R.T.R.R.R.R.R.R.R.R.R.k.R.R.R.T.E.E.R.E.E.E.E.R.E.E.E.E.E.!.!.F.rXfXkXfXkXfXkXNXkXfXfXfXfXfXdXfXdXdXdX9XQ $.` ( ^ ( t i t e t e e t e w e w w r r w ^ $.>.&.&.&.=.%.>.=.=.>.=.=.-.=.=.-.-.-.-.-.-.-.>.-.-.-.-.,.-.-.-.-.-.,.-.-.-.,.-.-.>.-.,.-.-.>.;.;.;.<.^ 9X9XNX$ j.~.m.V.V.W.W.Y.- FXFXFXFXFXKXLXKXKXLXLXKXKXLXLXKXLXLXLXFXKXLXLXKXKXLXLXLXLXKXKXKXKXKXFXJXSXr u.$.$.$.$.;.%.q.6.8 7 !.z.v.N.N.V.~.h 7 @ 4.u.;.u.4.@ F.~.V.V.V.W.V.~.h 7 p.%.;.i.;.q.,.,. X$.u.NXfX9XMXNXKXKXKXKXKXKXLXLXLXJXLXLXKXLXKXLXLXJXLXLXLXKXLXKXKXLXLXJXLXKXLXKXLXLXKXLXKXLXKXKXJXi 6.&.$.#.>.>.,.,.-.,.-.-.-.-.,.=.=.=.-.-.-.-.-.-.-.-.*.-.=.=.;.*.-.<.>.%.%.q.u.r @ - j C.j.s.s.s.s.s.s.s.s.s.g.s.g.g.g.g.g.s.g.g.g.g.g.s.g.g.g.h.g.s.g.g.h.g.j.Y.s.=   s.jXiXyXtXyX~.tX~.~.~.~.~.yXQ.7 5 5 q 0 * 0 0 % * % % # % ",
"@.K K 1.@.K G G @.G @.G K 6.6.@.0 G G S B G 9 S S u S i G u S u y > % & y > > 2 > > y > > y Z 9 i G u.u.i.q.} i.r.r.r.r.r.y.r.r.r.y.r.r.r.r.r.r.r.r.r.r.r.y.r.r.r.r.r.r.r.r.y.r.r.r.r.r.r.r.y.r.r.r.r.e.r.y.r.w.w.r.a.t.# 4 !.l.v.M.v.v.c.c.N.b.!.7 $ G 3 6 a.q.:.:.:.w.w.:.:.:.:.:.:.[ :.:.a.Q 6 u.r.:.:.:.r.^ @ X   X X   X     X +       X         X X     + O     + X X     X +     & X X   X   X     + +     : O     O   X     X +     + + X   X   X     X +     X +     X   X X   X +     X +       X X       = X X X + X   X X         + O   X +       . O o 5 2.` _ ' q.q.r.a...3 1XK.G.K.K.H.K.K.R.K.R.R.R.R.K.R.T.R.R.R.R.T.E.R.R.R.R.k.T.E.T.E.T.E.E.E.E.E.R.E.E.E.E.E.E.R.~.I.uXhXfXkXNXfXfXfXkXNXfXfXfXfXfXfX9X9XdX1X8 2.` @.( ( t t t e e e e e e e e t t w ^ ^ ^ &.$.&.&.=.&.=.=.=.=.=.-.-.=.>.-.-.-.-.-.-.-.-.-.-.-.-.-.-.-.>.-.-.>.-.-.-.-.-.-.-.-.,.-.,.>.>.,.<.*.i.Q 5XdXSXj h ~.W.V.V.W.W.~.$ ZXFXDXDXKXKXLXFXFXKXKXLXLXLXLXLXKXKXKXKXKXLXLXKXKXLXLXKXLXKXLXLXKXKXKXJXSXr 2.$.>.$.%.u.,.;.q.8 | E.k.n.B.V.W.~.a !.j 3 p.u.u.p.8 $ iXV.V.W.V.W.W.iXo 2.u.u.,.;.,.u.,.<./ p.fX9XNXsXNXJXKXKXKXKXKXKXKXJXJXLXLXJXLXLXLXLXKXLXLXLXLXLXLXLXLXLXLXKXKXLXLXLXKXLXKXKXKXKXJXPXt 6.&.$.&.>.,.>.,.,.,.<.<.-.-.-.-.,.,.-.-.-.-.-.-.-.-.=.;.-.-.-.*.-.<.=.<.;.*.q.u.2.5 @ @ j C.j.j.s.s.s.s.s.s.s.g.g.s.g.s.g.g.g.s.g.s.s.g.g.g.s.s.s.h.s.C.Y.C.s.O X s.tXlXyXtX~.~.~.Y.yXyXyX~.Q.~.yXrX7 5 5 0 4 0 0 % % 4 % % % % ",
"@.K @.5.@.@.@.K G 5.@.G }.}.t q G G e i i u G e S i u C C u C q > 0 % : > > 9 > 9 2 y y y y y u e t p.u.u.q._ r.r.r.r.e.e.r.y.r.r.r.r.r.y.r.r.y.a.r.r.r.r.r.r.r.y.r.r.r.r.r.r.r.r.r.r.r.r.r.r.r.r.y.r.r.r.r.r.y.e.w.e.a.t.@ 3 uXT.m.v.v.c.k.v.v.l.!.7 o # 6.q.:.w.:.w.w.:.w.:.:.:.:.r.:.:.:.w._ 3 q.r.:.w.:.u.@.@   O +     X X         O     X +     + X X       + O   X +     X X   X     + +     1 X   X X X X     + +     = O   X O         X X     + X         X       X     + +         X       +     O +     X   X     X +     + +         X     . & X . @ # @.2.` ' q.q.q.q.P.Q 8 !.I.H.K.K.R.z.R.K.K.R.z.R.R.R.R.T.R.R.R.R.R.R.R.T.E.R.k.K.E.T.E.R.E.T.E.E.E.E.!.R.E.E.E.E.!.!.F.rXkXkXfXkXkXfXfXfXfXfXfXNXfXsXdXdXdXdX5X( $.` @.( t t t e C e e t e e e e r t w ^ w ^ $.>.&.&.&.&.=.&.=.=.=.=.-.=.=.-.-.,.-.-.-.-.-.-.-.-.-.-.-.-.-.-.-.-.-.-.-.-.-.-.-.-.,.-.-.,.,.>.<.:.i.Q 5XdXNX3.7 ~.W.V.V.V.W.~.- pXFXFXKXLXIXLXDXDXFXKXKXLXLXLXKXKXLXKXFXKXLXKXLXKXLXKXLXLXLXKXKXLXJXJXJXBXr u.>.$.$.%.,.,.,.2.# 4.R.v.n.M.V.W.~.X Q.iX@ 1.p.p.0. Xo F.~.W.b.W.V.V.yXh 5 p.p.u.u.u.u.>.u./  X9XsXsXsXNXJXKXKXKXKXKXLXKXLXLXLXKXLXLXLXJXLXLXLXKXLXJXLXLXLXLXLXJXLXKXLXLXLXLXKXLXKXKXJXJXHXr 6.$.6.#.>.>.>.,.,.,.-.-.-.-.-.-.-.-.-.-.=.-.-.-.-.-.=.<.-.-.;.<.-.-.-.*.*.<.&.u.$.q.u.r @ @ - s.j.j.j.d.s.s.g.g.s.s.s.g.g.s.g.g.g.s.g.g.s.s.s.j.x.Y.Y.s.s X   j.tXiXiXyXY.~.~.~.iXQ.l.~.yXyXtX~.yXQ.g 5 5 0 0 4 0 % 4 % % * % % ",
"5.@.@.G K 5.@.@.@.@.5.}.1.4 B G G u G B S G S u u B S u i B u u 0 > > % 9 > > > > > 9 > 9 y u 9 S @.}.u.i.r.' r.r.r.e.r.r.r.r.r.y.r.r.y.r.r.r.r.r.r.y.r.r.y.r.r.r.r.y.r.r.y.r.e.r.y.r.y.r.y.r.r.r.y.r.r.r.y.r.e.e.y.r.y.P.t.@ 8 Q.F.l.v.l.v.k.k.k.l.!.7 @ 1.2.%.:.w.[ :.e.[ :.:.r.:.:.:.:.:.r.' 3 $.u.w.:.:.w.$.# .     X O     X   X   X   X     X O     + O     X   X       +     + +     X X X X     +       +       X   X     +     X +       X     X   O X     +     X X   X     X O     + X X X X   O     X O     + X     X   O X   X O     + . . . o o @ 0 2.` ' ` $.q.%.u.q.P.3 | U.J.H.H.K.R.K.K.R.R.R.R.R.R.R.R.R.R.R.R.E.T.E.R.R.R.R.k.R.R.T.E.T.E.E.R.E.E.R.E.E.E.E.E.E.E.!.F.rXkXfXfXNXkXfXNXfXfXNXfXfXfXfXdXdXdXdX5X8 2.@.) ( ^ G t t t w e e t e e t w r w w Q ^ $.&.&.&.%.>.>.&.=.>.=.=.>.=.-.=.-.-.-.-.-.-.-.-.-.-.-.-.-.-.-.-.-.-.-.-.-.-.-.-.,.-.-.,.-.,.>.,.;.<.i.^ 1X1X9XA.. uXW.V.V.W.V.~.j C.DXZXMXhXAXpXDXDXFXFXJXKXLXLXLXKXKXKXFXKXLXKXLXKXLXLXKXLXKXLXKXKXJXJXJXSX^ 6.6.#.$.%.i.;.u.2.# I.z.v.n.N.V.W.~.  !.iX .@ 3 3 3 5 $ 7 ~.W.V.V.V.W.~.iX@ 8 r Q ( ( $.u. X( :XdX9XMX9XNXKXKXKXKXKXKXKXLXLXKXKXLXLXLXLXLXKXLXJXLXLXKXLXLXJXKXKXLXLXLXKXLXLXLXKXKXKXKXFXJXJXr u.$.#.&.>.,.>.,.,.-.-.-.-.<.-.-.-.-.-.-.-.-.-.-.<.-.*.;.-.-.-.*.*.<.*.*.*.<.*.=.*.;.$.u.p.t 7 X X = g j j s.j.j.j.s.g.s.| s.g.g.s.j.j.j.d.j.j.s.s - X X s.Q.lXjX~.~.~.~.~.~.W.W.~.~.~.j.j.Y.~.yXyX!.7 5 5 u 0 4 0 % % % % % % % ",
"@.K K @.C @.K @.G 5.6.G 9 G G e G S u G u C u G G u G u B e G y > y % : 0 > > y y > y 9 y 9 B u e @. X>.u.u._ i.r.r.r.r.w.r.r.r.r.r.r.r.r.r.r.r.r.y.r.r.i.r.r.y.r.i.y.r.r.r.r.y.r.r.r.r.r.r.r.r.r.r.r.r.r.r.e.y.e.y.e.e.y.t.4.@ h uXl.l.l.l.k.b.c.l.l.Q.7 @ 2.p.w.w.:.} :.e.:.:.:.r.:.:.r.:.<.q.6 ( i.:.:.:.r.q.3 o o X X X   .       X     O     X X         O X     X X     O         O O   X X =     O       X   O     + X     + X       X O X   X +     X X     X   X X   X + X     X     X   O X     +   .   X   O     + X     :       O   X   . o o @ 3 ( 1.` ' ' $.%.O.q.%.u.>X# | U.R.H.R.R.K.R.R.R.T.R.R.R.R.R.R.R.R.E.R.R.R.R.R.R.R.E.k.K.R.T.E.E.E.T.E.E.R.E.E.E.E.E.E.E.E.!.F.uXhXfXkXfXkXfXkXfXfXkXfXfXfX9XfXdXdX9X1X8 2.` ) ( ^ t t t e t t e e e e e w t r ^ w / $.&.&.&.=.&.>.>.=.=.=.>.=.=.>.-.-.-.-.-.,.-.-.-.-.-.-.-.-.-.-.,.-.-.-.-.-.-.-.>.;.;.-.-.-.,.,.,.;.,.i.Q 5X9XdX,X. !.T.V.V.V.W.~.F.7 j 7 - - - * - - C.FXKXLXLXKXKXKXLXKXFXKXKXLXKXKXLXLXLXLXKXKXFXKXKXKXIXNX^ u.#.$.$.$.u.,.u.@.@ F.T.v.c.n.N.W.Q.X ~.~.Q.@ 6 ( 6 6 3 # F.~.V.V.W.V.W.yXg $ 8 8 6 6 3 3 ( 6 1XNXsXdXsXsXKXKXKXJXLXKXLXKXLXLXLXKXLXLXLXKXLXLXKXLXLXKXLXLXLXLXLXLXLXKXJXLXLXKXLXLXKXKXKXJXJXr 6.$.$.$.>.,.>.>.>.,.-.-.>.-.-.-.-.,.-.-.-.-.-.-.-.-.-.-.-.-.-.-.>.-.>.>.=.;.-.%.;.%.>.u.u.Q  X&X8.j - X = = - s s d.s.s.f.s.f.s.s.s.j j s s = X p s.s.Y.W.W.W.V.V.V.W.V.V.V.V.V.V.V.V.W.W.x.h s.Y.F.5 5 5 0 0 0 4 * % % % % % % ",
"@.@.5.@.@.@.K 5.5.e 9 q G G G S B i G B G i S u i C i C G u S 9 0 0 % > y > > 0 > 2 0 y 9 y u i S @.u.u.i.q._ i.w.r.r.r.r.r.y.r.y.r.y.r.y.r.a.y.y.e.r.y.y.y.r.y.y.y.r.y.y.r.a.y.y.y.a.y.y.a.a.y.a.a.a.y.y.y.y.y.y.y.y.y.a.t.S. .o | uXT.l.l.c.h.h.c.l.l.!.7 # 4.q.:.w.:.:.[ [ r.:.:.:.:.:.:.:.r.6 6 u.:.:.:.;.q.e o   O     X O X   X X               X O X   X X   X     O X     + X     X         X X     + X     X X     X   X     + X     O   X     X O     X O     X   X   X X O X   X +     + X . X X   : +   + +     X X O X   X &     o o . o # i 1.1.$._ ' } _ ' ' ' q.u.a.p.# I.J.J.H.K.z.T.K.R.H.R.R.T.R.R.T.T.R.R.R.R.T.E.R.R.R.R.R.k.R.E.T.E.R.E.E.E.E.!.R.E.E.E.E.E.E.E.!.F.rXhXfXfXCXfXNXNXfXfXNXfXNXdXfXdXsXfX9X5X( 2.#.@.( G ^ t t t e B e w e e w t t r r w ^ &.&.$.>.&.&.=.&.=.=.=.=.>.-.-.-.>.-.-.-.-.-.-.-.-.-.-.,.-.-.-.-.-.-.-.-.-.-.-.-.;.;.-.;.-.-.-.,.,.,.<.^ 6XmX9X1Xo F.W.b.V.V.V.~.Q.$ C.eX!.!.yXuXrXeXj - KXKXLXJXKXKXLXKXKXFXKXLXKXKXLXLXLXLXKXLXLXKXKXKXLXBXt 2.#.$.$.%.u.,.u.~ 3 !.v.l.k.v.n.~.j.= yXW.iXg 3 4._ _  .8 h uXW.V.V.V.V.W.Q.@ 2.p.e.t.q...6 3 6 9XNXsXsXsXKXKXLXLXKXKXKXLXKXLXKXLXKXLXJXLXLXLXLXJXLXLXLXJXJXKXLXJXKXLXLXKXLXLXKXKXKXKXKXJXJXe u.$.$.$.>.,.>.,.,.,.>.-.,.-.-.-.-.-.-.-.-.-.-.-.-.<.-.-.-.-.-.-.>.-.>.>.-.=.-.=.=.;.,.*.<.^ 6.A.OX@X$XZ.  U a - X X X = X =   X X = = p = - Q.Y.~.W.W.V.V.V.N.N.V.N.V.V.V.V.N.N.V.V.V.V.V.W.~.W.j.h 7 5 5 0 4 0 0 % 4 * % % % * ",
"5.@.@.@.@.5.G q q u G G i G i e i S S i G u i C S S B u u G C 0 > y > % 9 > 9 > 0 y y 9 u y u C e @.u.,.i.u.} y.y.y.y.e.y.e.y.y.y.a.t.t.y.t.r.y.t.e.q.t.r.e.t.e.q.t.e.O.e.O.O...q.O.O.O.O...O...........O.O....._ | ...... ...3.j o C.Q.l.v.k.c.l.l.c.l.v.!.7 #  .q.q.;.r.[ r.:.:.w.:.w.:.:.r.:.6 3 i.q.r.:.:.i.( o o O X   X . X X     X X     O X     X X       X +     O X     X   X X   X O X   O O     X   O X   X +     X +     X   +       + X   O X   X     X       +     X X         X +     + +     + X X   O   + X   o + . o o o @ @ 3 5  .1.@.2.$.` ' ' _ ..' q.q.q.q.>Xi 3 !.K.K.R.R.R.R.R.H.R.R.T.R.T.R.T.R.R.R.R.R.R.E.E.E.R.E.R.k.K.E.E.E.R.E.E.E.E.E.E.E.E.E.E.E.!.!.!.F.rXhXdXfXkXNXfXfXNXfXNXfXfXmXdXdXdXdXdX9X^ 2._ ) ^ i ^ i t e e e w e e e e w t w ^ Q #.&.$.>.&.=.=.&.>.=.=.=.-.-.-.>.-.-.-.-.-.-.-.-.-.-.-.-.-.-.-.-.-.-.-.-.,.-.-.-.-.;.-.;.;.<.-.>.>.<.>.u.^ 5X9X8XsX7 C.!.m.V.W.W.W.Q.X uX!.R.E.W.~.jXI.Q.j Z.LXJXKXLXKXKXKXKXKXKXLXKXKXLXLXLXKXLXKXKXJXKXFXKXNXr 6.2.$.&.$.u.u.u.r 7 !.l.c.c.b.N.W.| a ~.V.W.Q.# ) ~ 6 ..4 @ F.W.V.V.V.V.W.yXh 8 t.q.Q O.e.r.e.6 3 0.SXpXMXFXFXAXKXKXLXKXLXLXKXKXKXLXLXLXLXKXJXLXKXJXKXLXKXLXLXLXJXKXLXLXKXLXKXLXKXKXKXKXJXPXr 6.&.$.$.>.,.-.,.,.>.>.,.>.-.-.-.>.>.-.-.<.-.-.-.-.-.-.-.-.-.-.-.-.-.>.-.;.=.=.%.%.-.*.*.,.^ 6.8.{.9.Z.W X I.C.C.d =   gXQ.Q.Q.Y.X Z.j.Z.s.= ~.Y.b.b.N.N.N.V.N.N.N.N.N.V.V.N.N.N.N.N.N.N.V.V.V.W.W.~.7 5 5 0 4 0 0 % % % % % % * ",
"@.5.5.G t 9 9 @.J G e G G u G S S G G S i C S i C i i S G u G 0 0 9 % % > y > y 9 y 9 y u 9 u B e @.p.u.a.q.( (  .~ _  .....................4.2.4.2.4.4.4.4.4.4.4.t.0.S.S.L.L.L.L.L.I.L.I.:XU.U.U.I.1X1X1X1X1X1X1XrXrX9XrXrXrXdXFX3.. | ~.l.k.k.c.k.l.k.l.T.!.7 # 2.p.r.r.w.:.:.:.w.:.e.r.:.:.w._ 3 u.q.;.:.<.r.2.@ @     O .         X       O   X X     X O       X   X X   O +     + X   X X X X     O +     X X         X     X O     X X       X X       O X   X +     X X X       1 X   X O   X     X +     1 X   O + X   . o @ @ # q i 1.2.2.$.' ` ` ` ' _ ' ' ' ' ..q.2.p.6.# S.!.R.H.K.K.K.z.K.R.R.R.K.R.R.R.E.E.E.E.E.E.R.R.R.R.m.H.R.l.K.E.E.E.E.E.E.E.E.E.E.E.E.R.!.E.E.R.!.F.hXhXfXkXfXfXkXkXfXkXfXfXfXfXdXfX9XsX9X1X8 $.` @.@.( t t t e t e e t e e w t r w ^ w ^ &.&.=.&.%.&.=.&.=.-.=.=.=.=.-.-.-.-.-.-.-.,.-.-.-.-.>.-.-.-.-.-.-.-.-.-.-.-.-.-.-.-.-.-.-.-.;.;.,.,.u.^ 4X9XBXNXj j !.W.W.b.V.W.~.$ j.H.z.k.v.E.j.$ iXI.j LXFXLXKXLXKXLXKXKXLXKXKXKXLXKXLXLXKXLXKXKXJXDXJXNXr u.$.6.$.u.u.u.p.6 | !.v.l.v.k.m.m.h h ~.z.l.~.h # 6  .6 6 4 g ~.V.V.V.V.W.~.uX# Q Q ! e.[ +.e.y.! 3 9XNXfXJXFXLXKXLXKXLXKXKXKXLXKXKXLXKXLXLXLXLXLXLXLXLXLXLXKXLXLXJXLXLXLXLXLXKXLXKXKXFXJXJXr 6.&.$.&.>.,.-.>.,.-.>.-.>.-.-.>.-.-.-.-.-.-.-.-.-.-.-.-.-.>.-.-.-.-.-.-.-.-.-.-.*.;.*.-.;.^ 6.8.A.@X$XU   3.j C.d P Z.. iXQ.Q.F.X s.s.s.s.X W.W.b.V.V.N.N.N.N.N.N.V.N.N.N.N.N.N.N.N.N.N.N.V.N.V.W.Q.8 5 7 q 0 * 0 0 % 4 % % % # ",
"@.e 9 i C G @.G G G G G G C i u i i S G G B i C S i G i e i G 0 y 0 > > y 2 > 0 > y 9 y 9 B u i i @.u.u.u.2.0.dXeXeXeXeXpXeXeXdXdXpXdXhXhXhXkXkXhXhXkXhXhXkXkXhXhXhXhXgXhXhXhXdXhXdXhXdXhXdXhXhXtXhXhXdXgXhXhXhXhXhXhXpXpXhXpXgXpXFXj O j.!.l.z.v.k.k.c.k.l.T.!.8 @  .a.r.r.:.:.w.:.w.[ r.:.:.w.q.3 ' u.;.r.:.:.u.3 @ o   X   X X     X X     X     X X X X X   X X     X           O     O O     + X   X     X     + O   X + X   X   X O     O +     O X         X     O +     + X X     X O     + 1   X + +   X         o X A I 7X3.i 2.6.2.' $.` ` ' ' ' ' ` ' ..' $.` ` 2.t.1.# 8 rXJ.G.U.K.K.R.R.K.R.K.K.R.R.K.T.H.H.z.l.k.k.k.l.l.z.z.H.z.z.R.E.E.E.E.E.T.E.E.E.R.E.E.E.E.E.E.E.~.F.hXfXfXfXfXfXkXNXfXNXfXfXfXfXfXfX9XdXdX1X^ 2.` ( ( G ^ t t t e e e e e w e r t r t Q ^ $.&.>.&.>.&.=.=.>.=.=.-.-.>.-.-.-.-.-.-.-.-.-.-.-.-.,.-.-.-.-.-.-.-.-.,.-.-.-.-.-.-.-.-.*.:.%.;.,.-.,.^ 5XSX1X@ @ @ ~.T.W.V.m.W.yX7 | F.l.K.U.7 # ~.uXC.U DXKXLXKXLXLXKXKXKXKXLXKXLXLXKXLXLXLXKXLXKXJXFXJXNXi 6.6.1.( 6 6 5 i 3 | !.z.v.v.v.z.m.7 j.Q.l.T.uX3.@ i 3 6 .. .@ F.E.M.m.m.T.uXjX8 6 ! O.[ [ o.w.w.y...# SXAXFXFXFXJXKXLXLXKXLXLXLXLXLXLXKXJXLXLXJXLXLXLXKXJXLXLXLXLXLXKXKXLXKXKXLXKXKXFXKXJXJXe 6.$.&.$.>.,.-.>.,.>.,.,.,.-.>.-.>.-.-.<.-.-.-.-.-.-.-.-.-.-.-.-.-.-.-.-.-.*.*.-.*.=.-.*.<.^ 0.=X3.q 4 @ 3 # # @ o 5 {.j $ uXF.Q.X C.Z.C.C.  uX~.W.W.V.V.b.N.N.b.N.V.N.N.N.N.N.N.N.N.N.N.N.V.V.N.W.l.7 7 5 0 4 0 % % % % % # % % ",
"u G G G G G G G i G S i i i G G C G G B S e G S G C u C S B S 9 0 0 > % 9 0 y y 9 y 9 y u u i S u @.p.u.u.2.A.dXpXgXpXgXgXtXgXgXtXgXgXgXgXwXpXwXwXpXwXpXgXwXwXpXwXgXwXgXwXgXwXgXwXgXgXgXgXgXgXgXtXgXwXgXgXgXgXgXgXpXgXgXtXgXgXhXgXgXKXj   C.~.l.l.b.k.c.c.z.l.l.uXh @  .i.q.r.:.:.:.:.:.:.:.:.w.u.6 Q i.:.:.:.w.q.r o O +   . . X         X X   X X     O X           X     +     X + X       X       +     X O       X X       + X   X O   X     X X     + +   X + X     X X X     = +   X + X X   X X           . & U @XBXDXLXSX4.( 2.( ` ' ' ' ' ' ` _ ' ' ' _ `  .2.2.4.2.6 # 8 rXU.l.G.k.G.k.S.k.k.k.k.k.k.z.z.z.G.H.K.R.R.R.E.E.R.E.E.R.R.R.E.T.T.T.E.E.E.E.E.E.E.E.E.!.E.E.E.E.!.F.rXhXfXkXCXfXfXfXfXCXfXNXfXfXsXdXdXdX9X9XQ 2.` #.^ ( t t t C t t w t e e t t w r r w #.&.&.&.&.&.&.&.=.=.=.>.-.-.-.-.>.-.-.-.-.-.-.-.-.-.-.-.-.-.-.-.-.-.-.-.-.-.-.-.-.-.-.-.-.;.;.;.-.=.u.>.^ 9X1.# 8 A.@ U.T.m.v.c.v.~.| 8 U.U.| # 8 F.R.~.j.j DXAXFXLXKXLXKXLXKXKXLXKXKXLXLXKXLXKXKXKXKXFXFXJXSXi 2.6 @ # 6 8 8 8 $ j.T.z.c.v.z.m.H.$ Q.~.uXF.4 3 ( 4 3 O.Q ( 3 8 uX!.E.uX!.| 3 3 w.[ [ [ [ [ [ [ +.a.3 L.CXKXFXJXKXLXKXLXLXKXLXKXLXLXJXLXLXLXLXLXLXLXLXLXLXLXLXLXJXJXKXLXLXLXLXKXLXJXKXKXJXJXi u.$.&.#.>.,.-.,.,.,.>.-.-.-.-.-.,.-.-.-.-.-.<.-.-.<.-.-.-.-.-.-.-.-.*.-.-.-.*.-.;.*.=.-.-.^ p.r # 6 6 ) ` ^ _ _ ( 6 @ 5 @ 7 uXjX- - - o @ @ @ 7 8 l.W.W.b.b.b.b.n.c.N.b.n.M.b.b.n.N.N.N.V.V.V.V.W.l.7 5 5 0 0 4 4 0 % % % * % % ",
"G G i S G G G i G G G e S G G G G G i G G G G i u G G u i S G u 0 y % % 0 2 y 0 y 9 u y 9 B B u i @.}.u.u.2.A.pXwXqXqXtXwXqXpXwXwXwXwXqXgXgXwXwXtXwXwXgXwXwXgXwXwXgXgXgXwXgXwXgXwXgXgXwXgXgXwXgXwXpXgXgXgXgXgXgXgXgXgXgXgXtXgXgXgXtXgXKXf X C.rXl.l.c.c.k.v.l.v.l.!.| @ ) p.:.w.w.:.:.:.:.:.:.:.u.Q 6 u.:.:.:.:.u.$.@ o O   X .   O O     X X     X X       X X   X X X     X   X       O X   O +     X X       X +     + O     X   O X   X +     + +     X X   X     + X   X +     X X X X               u f.-X8XIXLXJXJXJX,X@.^ ) 2...$.$._ $.' ' ` _ $.2.2.' ..u.2.1.i # @ @ 7 U.t.k.D.k.D.H.G.K.R.R.E.E.R.E.R.R.R.E.R.R.R.E.R.R.R.E.E.R.E.R.E.E.T.T.T.T.W.T.E.E.E.E.E.!.E.E.E.E.!.!.U.uXkXfXfXfXkXNXNXfXfXfXfXfXfXdXdXdX9XfX1XQ 2.#.@.( ^ t t t i e e e t e e w t t r t Q ^ $.&.&.&.>.=.&.>.=.=.-.=.>.-.-.-.-.>.-.,.-.-.-.-.-.-.-.-.-.-.,.-.-.-.-.-.-.-.-.-.-.<.-.*.*.-.-.,.-.&.p.2.# @ S.I.S.@ l.T.z.v.v.v.R.j.3 I.7 # O.!.G.H.~.F.h KXKXJXKXLXLXLXKXKXLXKXKXKXLXLXLXKXLXLXKXLXKXLXJXSXt Q 8 U.!.!.J.D.S.@ S.m.l.c.k.v.E.j.- j U @ # Q ~ Q 3 _ ! } ! 6 3 7 8 6 4 3 6 ! w.] [ [ [ [ [ +.[ w.a.) 7 CXFXLXKXLXLXLXLXLXLXLXLXKXLXLXLXLXKXLXLXKXKXLXLXLXLXLXLXKXLXLXLXLXLXLXKXKXKXKXKXKXJXe 6.$.&.#.>.,.-.,.,.-.-.-.-.-.-.-.-.,.-.-.<.-.-.-.-.-.-.-.-.-.-.-.-.-.-.-.*.*.*.-.=.=.-.&.>.` 3 6 q.$._ ! / ! / } } _ $.6 @ o $ j @ # 6 8 _ ) Q ~ 8 # @ h Q.T.W.m.T.m.M.m.z.M.N.m.H.M.V.m.R.W.W.~.~.S.4 5 0 4 4 % % * % % # % % @ ",
"G G G i G G G G G G G G i G i G S i B G S i B C S t S i C u G 0 0 y 9 > y 0 9 y 9 y u 9 u u i G i i u.u.u.6.0.gXqXwXwXwXwXwXwXgXwXgXtXwXwXwXwXgXwXgXwXwXgXwXwXwXgXgXgXwXgXgXgXwXgXgXgXgXwXgXwXgXgXgXgXgXgXgXgXgXgXgXgXgXgXgXgXgXpXgXhXgXLXj   C.Q.l.l.k.c.k.k.v.z.z.!.j.# 4 u.q.:.r.r.:.r.:.r.w.u.( 3 q.:.r.r.w.%.2.# o . X +     X     X     O X   X O     X   X       O X   X O     X     O     X +     +   X   X         O O     + X     X   O     X +     + O     X   +       X X       + P P &X8XAXLXIXDXJXLXNX9X:X1.( ( 2.$...' _ 2.O.' ..2.` ` 2.2. .) ( ( 3 # # 3 i 1.4 4.!.H.H.G.K.K.R.R.R.R.K.R.K.R.R.R.R.T.R.R.T.E.R.R.R.E.R.R.E.R.R.R.E.E.E.E.R.E.R.E.E.E.E.E.E.E.E.E.E.E.!.F.rXhXfXfXkXfXfXkXfXfXNXfXmXfXfXfXsXdXdX9X~ 2.) ` ( G ^ t t t e e e e w e t t w w ^ w #.$.>.&.>.&.=.=.&.>.=.=.-.-.-.>.-.-.-.-.-.-.-.-.-.-.-.-.-.-.-.-.-.>.-.-.-.-.-.-.-.-.-.;.*.:.-.-.,.>.>.$.3 8 J.S.+.I.# | T.l.z.m.z.!.S.@ @ 8 U.H.k.k.z.~.C.g KXDXDXKXKXLXLXLXKXLXKXKXLXLXKXLXLXKXKXKXKXFXKXFXSXi 3 4.F.S.k.o.S.| 4 l.c.h.c.c.v.~.| # # o @ i ....6 Q _ ! ! ] { _ ~ ~ ~ ~ } } ! ] [ ] [ [ [ [ [ [ w.e.u.# KXSXDXKXKXKXLXLXLXLXLXLXLXJXKXKXLXLXJXLXLXLXJXLXKXKXJXLXLXKXJXLXKXKXLXLXKXKXKXJXJXJXt u.$.$.$.>.>.,.-.,.,.,.,.<.-.-.-.-.-.-.-.-.-.-.-.-.-.<.-.-.-.-.-.-.-.*.-.-.*.*.=.=.>.=.&.%.6 ( 2./ ! ! ! / { ! { { ! ~ ) ) # @ #  .) ~ _ / _ _ _ _ ` 2.8 # 8 h ~ ~ | ~ | ~ ~ ~ | ~ ~ ~ | ~ ~ ~ ~ ~ 8 6 5 4 4 0 4 0 % % % % % % % ",
"G I G i G i I G G i i G G G G i G C i S i F G G e B i S G u G 9 0 u 0 % 9 9 y 9 u y u 9 B C i G G @.6.u.u.4.A.pXwXqXwXwXwXwXbXwXwXwXgXwXwXgXbXwXwXgXwXwXgXwXgXwXwXgXwXgXgXgXgXgXgXgXgXwXgXgXgXgXgXgXwXgXgXgXgXgXgXgXgXgXgXgXgXgXAXgXgXgXgXAXf X C.!.l.k.k.k.c.l.z.v.z.E.| $ 5 4.u.q.r.:.:.:.r.:.r.%.# q.u.r.:.r.:.i.6 @ o X O   O .   O O       X X       +     X O   X X   X X     O X   . +     X     X   X O X     +     X X X   X   + +     : X X X + X O X + + O             & P E #X7XBXSXNXSXJXSXSXSXdX:XL.4.) ` ` ' ..............) ..2.2.4.1.( 5 4 # # # @ 6 ( u.L.4.3 I.K.K.H.K.R.R.R.R.R.K.R.R.R.R.R.E.R.E.E.R.E.R.R.R.E.E.R.E.R.R.E.R.E.E.E.E.R.E.E.E.E.E.E.E.E.!.E.R.E.E.!.F.rXkXkXfXkXkXfXNXfXNXfXNXfXfXsXdXdXdX9X>X8 2.` #.( @.i t t t e B e e e w w t w w ^ w _ $.%.&.&.&.=.=.>.=.=.=.=.-.-.=.=.=.-.-.-.-.-.-.-.-.-.-.-.-.-.-.-.-.-.-.-.-.-.-.>.-.*.<.-.-.:.;.;.%.u.3 8 D.X.+.X.S.8 h !.T.W.!.Q.S.# 3 | G.k.k.D.k.z.E.F.- KXDXFXFXKXLXIXLXLXKXKXKXLXKXLXLXLXLXLXKXKXDXFXJXSXi 3 | G.| | D.S.~ 7 T.l.v.c.k.v.E.| 7 S.| 8 3 3 i 6 Q ! [ ] ] ] ! ~ ! ! ! ] ! [ ] ] ] [ [ [ [ [ [ [ y.+.# FXJXKXDXLXKXKXJXJXLXKXLXLXJXKXKXLXLXLXLXLXLXLXLXLXLXKXLXLXLXLXKXLXLXKXKXLXKXKXKXJXJXi 6.%.$.&.u.>.,.,.,.,.-.<.-.-.<.-.-.-.<.-.-.<.-.-.-.-.-.<.-.-.-.-.-.-.-.>.=.>.>.=.-.>.6.>.( 3 $./ _ / / { { ! / / { ! / ^ ( 3 6 ^ _ / / ! ! ! / / / / / _ ~ 3 _ t.+.+.+.+.+.+.+.+.+.+.[ +.w.o.+.O.O.~ 4 5 4 4 0 4 % % % % % & % % ",
"G i @.G G G G i G G G G i S G G i G G G i G u S S G C i G u S 9 u 0 0 > y u y 9 9 u u u i u S i i @.u.u.u.1.Z.pXqXwXwXwXqXgXwXwXgXwXgXwXgXwXwXgXwXwXwXVXwXgXwXgXgXgXgXwXgXwXwXgXwXgXgXgXwXgXgXwXgXgXgXgXgXgXgXgXgXgXgXgXlXgXgXgXgXpXhXgXgXgXFXU . C.!.l.l.v.l.c.m.k.v.z.E.!.# # ^ a.q.r.} :.:.w.r.u.3 Q u.:.:.:.:.q.6.@ @ &   X . . O .   X O X   + X     X       X O O     X X     O         X +     X +     X X X     O + X   X :   X X   O X X X +       X .   .   1 P 9.=XnXSXLXPXJXJXJXPXSXNXdX2XL.1. . .) ) ....2.2...2.$.q.2...2...4. .8 5 3 @ @ @ 8 - o 3 ( a.p.t.>X3  .U.K.K.K.H.K.K.K.K.R.R.R.R.R.R.R.R.R.R.T.R.E.E.E.E.R.R.E.R.E.E.R.E.E.E.E.E.E.E.R.E.E.E.E.E.E.E.E.E.E.!.~.I.rXfXfXfXNXfXNXfXfXNXkXNX9XfXfXfX9XdXdX1X6 2.@.` @.^ ^ t r t t w e t t t t r r r ^ w #.$.&.&.&.=.%.&.&.=.=.=.>.-.=.-.>.>.-.-.-.-.-.-.-.-.>.-.-.-.>.-.-.-.-.-.-.-.-.-.-.*.-.-.-.-.-.>.%.u.^ 3 S.S.+.S.D.S.| 7 rXS.| 7 @ 3 | J.D.o.o.D.k.k.z.~.F.g KXDXFXFXKXLXLXLXLXLXKXKXLXLXLXLXLXJXFXKXKXDXFXFXDXi 3 ~ S.S.3 ~ !.7 | H.v.v.v.v.v.E.h 8 S.+.S.t.8 3 # 6 _ ! ] ] ] [ ] ] ] ] ] ] ] ] ] ] ] ] ] [ [ [ +.w.' 5 JXJXJXKXFXKXKXLXLXLXLXLXKXLXKXKXKXLXKXLXLXLXLXLXJXKXKXLXJXLXKXLXLXLXLXLXKXKXFXKXJXJXt 6.$.&.#.>.,.,.>.,.,.-.<.<.-.-.-.<.-.-.<.<.-.-.-.-.-.<.<.-.-.-.-.-.-.&.&.>.>.$.$.^ Q 6 6 3 3 6 Q Q / / ! ! { ! ] ! { ! _ 3 6 _ ! / ! { ! / / ! _ ! / / ' q.` 3 2.q.q.r.e.[ w.e.e.[ w.e.+.:.w.:.O.w._ 3 5 9 4 4 0 0 % % % % % % O ",
"G G G i G i @.G G G G G G G C i G G i G G i G G G S G u u G G u 9 y > % u 9 y y y 9 B B e C e G G ( u.2.u.2.A.gXtXwXqXwXwXwXwXwXgXwXwXwXgXwXwXwXgXwXwXwXwXbXgXwXgXwXgXgXwXwXgXgXwXgXgXgXgXgXgXgXgXgXgXgXgXgXgXgXgXgXgXgXgXgXgXgXtXgXgXgXtXpXgXAXU   j.!.l.l.l.v.v.c.l.l.l.T.!.7 # ( a.%.r.:.:.r.:.i.Q 3 a.q.:.:.:.q.i.r @ . + O   X + .   . o     o   O X     = X     + X X     X X     : +   X +   X   X X O     = +     + X X O O O O X   X     X     & 1 P 9.Z.7XSXJXJXLXJXKXJXSXNXdX1Xp.4.1.) ) ( ..2.............2.4.4.2.1.1. .i 8 # $ o # 7 h j.F.Q.jXg 5 4.p.u.a. X2.# 1XU.K.K.K.R.K.R.R.R.R.R.R.R.R.R.R.R.E.T.R.E.T.R.R.R.R.E.R.T.E.E.R.E.E.E.E.E.E.E.E.E.E.E.E.R.E.E.E.E.E.R.!.F.rXhXfXkXfXkXkXkXfXfXfXfXfXfXdXdXfX9X9X5X8 2.) @.( t i i t t e t e e t e t r r t ^ w ^ >.$.&.&.&.&.&.>.=.=.=.=.=.-.-.=.,.-.>.-.,.-.-.-.-.-.-.-.-.-.-.-.-.-.-.-.-.-.-.-.-.-.-.-.-.=.=.>.u.3 ..S.+.~ 6 8 8 7 o # # # ~ k.D.D.o.o.o.o.D.k.k.z.!.F.g KXFXAXKXKXKXLXLXLXKXKXLXKXLXLXLXKXJXFXKXKXDXJXJXSXi 7 | o.D.S.@ 8 # C.H.v.v.c.z.l.!.7 h D.k.X.+.S.X.~ 3 6 ~ ! ! [ ] ] ] ] ] ] ] ] ] [ ] ] [ ] [ [ [ [ r.3 A.SXJXJXKXDXKXFXKXKXKXKXFXKXJXLXKXKXFXFXKXKXLXLXLXLXLXKXKXKXKXKXKXLXLXLXKXLXKXKXKXJXJXt 6.&.$.$.>.,.,.,.,.,.-.-.,.-.,.-.<.-.-.<.-.<.-.-.<.-.-.-.-.-.-.-.-.-.>.u.>.Q 4 6 Q Q Q 6 Q 6 3 6 6 Q / ! / ! { / ] ! ! _ 3 ( / ! ! / ! ! ] / / ! _ _ q.' _ 2.8 3 a.r.e.y.e.w.:.e.r.:.w.w.w.w.w.[ w.( 6 q 4 4 0 4 % % % % & % % % ",
"i @.G G G G i G G i G ( G i G G i C G G G C G i i G i G G i C 9 0 0 9 0 9 y 9 9 u y u e u u G u i @.6.u.p.1.Z.pXqXqXwXwXwXwXwXwXwXwXwXgXwXwXgXgXwXgXgXwXgXgXwXgXwXgXwXwXgXgXgXwXgXgXgXwXgXwXgXwXgXwXgXgXgXgXgXgXgXgXgXgXVXgXgXkXgXgXtXgXgXgXgXhXFXj o 3.~.l.l.l.v.k.k.c.v.v.H.Q.| % 2.r.r.:.:.:.:.i.` 3 u.q.w.:.:.:.u.u.@ o $     X     O X   X +     O o       X X X     + X     +         O +   X 1 O X X +   X   X O O     X           + = P P E ;XMXSXDXKXKXLXJXJXSXsX9XL.0.0.2.) ( (  . ...2...2.2.2.2.q.4.2.t.2.1.i 8 4 $ @ @ # 7 h | I.!.E.!.E.T.T.!.@ G u.u.u.a.>X# | rXR.H.z.H.R.R.K.R.R.R.R.R.R.R.R.R.R.R.E.E.R.E.E.E.E.E.E.E.E.R.E.E.E.R.E.R.E.T.E.E.E.!.R.E.E.E.E.E.R.E.E.!.H.rXhXfXfXfXfXfXfXfXfXfXfXfXfXfXdXsXdXdX1Xi $.` #.( ^ @.^ t t e t e w C e t t w w t 6 #.$.&.&.>.&.>.=.>.>.=.=.=.-.>.-.=.-.-.-.-.-.-.-.-.-.-.-.-.-.-.-.-.-.-.,.-.-.-.-.-.-.-.-.-.*.-.>.>.u.3 ~ P.S.X.| 6 8 ~ | 4.S.D.l.+.+.o.k.o.o.k.k.k.k.z.~.C.g KXFXJXKXKXLXLXLXKXKXKXKXLXKXLXJXKXJXJXKXKXFXDXJXSXi 6 | D.X.D.S.# o S.~.l.z.v.l.T.Q.# ~ +.X.X.k.X.X.S.+.4 3 Q _ ! ] ] ] ] ] ] ] ] ] ] ] ] ] ] [ [ [ w...@ fXfXFXDXDXKXFXFXFXKXKXKXFXKXLXLXLXKXFXKXKXKXLXJXLXJXKXKXFXKXKXLXLXLXLXKXKXLXKXJXKXJXJXi 6.>.&.#.>.u.,.,.<.,.<.<.-.-.<.-.-.<.<.-.-.-.<.<.-.-.-.-.-.-.-.-.-.-.u.$.3 6 ' q.%.} } / / / _ / Q 6 6 / ! / ! ] ! / ! Q 3 Q ^ / ! ! _ ! ! ! _ ' / Q Q 3 6 3 6 6 3 3 6 _ e.r.w.:.w.w.w.w.e.[ w.w.w._ 3 6 q 4 0 % 4 % % % % % % % ",
"@.G G ( I G G i G G G i i G G i i G G G G G G i C i i B G i G q 9 u 0 % y 9 9 y y u u u u u G i i @.6.u.p.2.A.gXwXwXwXwXwXwXwXwXwXwXwXgXwXwXwXwXgXwXwXwXwXwXwXgXgXwXgXwXgXwXgXwXgXwXgXwXgXgXgXVXgXVXgXgXVXwXgXVXVXgXgXgXgXhXgXgXgXgXgXtXgXhXgXhXZXf.. o h jXl.z.k.c.z.z.c.z.z.T.!.h 3 a.:.:.r.:.:.w.u.3 _ i.:.:.:.:.r.i.( o o . O +     O         X O     O O .   X X         X X X X = X   : X X X O O X X     O     .     + & & U OX-XmXSXJXIXKXJXJXJXSXmX7X:XL.4.1. .) ( ( ..` ..2.2.2.2.2...q.4.2.6.0.1. .e 8 3 @ @ @ $ 8 | j.F.!.!.~.~.T.m.m.m.m.H.m.K.@ 2.u.a.u.5X6 # rXK.U.K.K.K.H.R.R.R.R.R.R.T.T.T.R.E.E.R.E.R.R.E.R.E.E.E.E.E.T.E.E.E.E.E.T.E.E.T.E.E.E.!.E.R.R.!.E.E.E.E.!.!.F.rXdXfXkXfXfXNXfXkXfXNXfXfXfXsXdXdXdXdX5Xr $.` ) @.^ ( t ^ t t e t e e w t w t r ^ w #.&.&.&.>.&.>.=.&.=.=.=.-.=.-.=.-.-.-.-.-.-.-.-.-.,.-.-.-.-.-.-.-.-.-.-.-.-.,.-.-.-.-.-.-.=.;.-.>.>.u.# 6 ..S.S.k.k.D.D.y.o.o.+.k.o.o.o.o.o.k.o.k.k.G.E.S.j LXKXJXKXKXKXKXKXFXFXKXKXKXKXKXLXLXKXJXKXFXFXFXJXSXi 3 | D.+.o.S.P.7 @ h !.E.l.k.H.F.3 X.X.X.o.o.o.o.X.S.S.~ 3 Q _ ] ] ] ] ] ] ] ] ] ] ] ] ] ] [ [ [ [ 6 0.DXsXFXDXKXFXFXKXKXKXJXJXLXKXLXLXLXKXKXFXKXLXLXPXLXKXKXKXLXJXKXKXJXJXLXLXKXKXKXKXKXJXJXt u.$.&.&.,.,.<.,.<.<.,.<.-.<.<.,.<.<.-.-.<.-.-.-.-.-.-.-.-.*.-.-.>.>.$.3 _ q.*.{ { ! / ! / ! ! / / / ! Q / ! ! ! ! ! ! ^ 3 ^ Q / ! ! ! ! / ! ! ! 3 Q ! _ %.q.u.t.q.' ! 6 3 ! r.i.q.:.:.w.[ w.w.} e.^ 3 q 9 4 4 4 % % % % % % % % ",
"G G G G G i G G i G G G G G G G G G G i G i G G G G G G i G G u 9 u 0 0 u y u 9 9 B e e C i i G G ( 6.u.u.1.8.pXwX0XwXwXwXwXwXwXwXgXwXwXgXwXwXwXwXwXgXwXwXgXVXwXwXgXwXVXwXgXbXgXwXVXgXwXwXgXwXgXgXwXgXgXgXgXgXgXgXhXgXVXgXgXVXgXgXkXgXgXgXgXgXgXlXf.. j o 8 uXT.l.z.z.z.c.k.v.v.T.R.# ..r.:.:.:.:.%.a.6 3 a.:.:.r.:.:.:.a.4 o o   X X o     + X   X +         X o     + O   X X X     X X O     O       .     O O 1 E =XaXMXJXIXIXLXHXLXJXSX9X,X1X0.1. .( Q ( ~ ) @..... ...2.2.2.2.2.2.4.6.2. . .i 7 3 # @ o @ @ h 4.F.U.~.~.~.!.E.R.M.v.m.m.b.M.n.n.m.T.S.# p.a.u.5X2.# U.U.K.K.R.H.R.R.R.R.R.R.R.m.T.R.R.E.T.T.E.R.E.E.R.E.E.E.E.E.E.!.E.E.E.R.E.E.E.E.E.E.E.E.E.E.E.E.E.E.E.E.R.E.!.J.rXhXkXfXfXkXfXfXfXfXfXNX9XfXdX9XdXdX9X1X8 2.) #.( ^ t t i t e t e t w e t t w r r w / $.&.&.&.%.>.&.=.=.=.=.=.>.=.=.>.>.-.-.-.-.-.-.-.-.-.-.-.-.-.,.-.-.-.-.-.-.-.-.-.-.<.-.-.=.-.-.>.$.u.$.3 @ S.+.k.o.o.o.o.o.o.o.o.o.o.k.o.o.o.k.k.k.z.!.j.j LXFXFXKXKXKXKXKXKXFXFXKXKXKXLXKXLXKXFXKXKXFXJXJXSXi 5 ~ D.o.o.o.X.J.| 3 # | Q.~.uXj.7 4.k.X.X.o.o.o.X.o.X.D.~ 3 8 ] ] ] ] ] ] ] ] ] ] ] ] ] ] [ [ [ } ~ 3 SXfXDXDXLXKXKXKXKXKXLXJXLXKXLXLXKXKXFXKXLXLXLXLXJXKXKXKXLXLXJXKXKXLXLXKXLXKXKXKXFXKXJXi >.$.&.>.,.<.<.<.<.<.,.<.<.<.-.,.<.<.<.-.<.<.<.-.<.-.-.-.-.-.-.-.>.#.3 ^ u./ { ! { { ! / ! ! / ! ! / / Q Q / ! { ! ! / / 3 6 #.Q / ! ! { ! _ Q 6 ' } / } } } } w.w.w.r.a...6 6 r.q.w.[ w.[ w.[ w.w.Q 6 9 4 4 % % 0 % % % % & & @ ",
"I G G G G G i i I G G G I G G G S G G G i G G S G S G u S i S q 9 u 0 > 9 u e u u B u B u i C i @.@.2.u.6.1.8.gXwXwXwXwXwXwXwXwXwXwXwXwXwXgXwXVXwXwXwXVXwXwXwXwXgXwXVXwXgXwXgXwXwXwXgXVXgXgXgXgXgXgXgXgXgXwXgXgXgXgXgXgXgXgXgXgXgXgXgXgXgXtXtXgXgX&Xo I.3.@ 4 !.T.k.z.m.k.z.v.v.v.!.7 6 y.:.:.:.:.:.q.2.3 q.;.r.:.:.:.:.;.u.4 @ o . + O     X   X X     +     O o . . X   . .                 O + u W -XcXmXIXIXLXLXPXJXJXSXvX9X9X0.0.1.( ( ( ( ( ` ` 2.2.2.2.4.....2.2.4.4.4.6.1.1.i 7 # # @ @ # @ $ h | F.Q.~.~.uX~.R.m.m.m.m.m.M.n.n.n.n.m.m.n.n.n.z.~.g 3 p.a.>X) # I.rXK.H.K.K.R.R.H.R.R.T.R.T.E.T.T.E.T.R.R.R.T.E.E.R.E.E.E.T.E.E.R.E.E.E.E.E.E.E.E.E.E.E.E.!.E.R.E.E.R.E.E.E.R.!.I.rXfXfXfXfXfXkXfXfXfXfXfXfXfXdXfXdX1XdX1X8 2.` $.( ( t ^ t t e t e w C e t t e r ^ w @.$.&.&.>.&.&.=.>.>.-.=.=.>.-.=.=.-.-.-.-.-.-.-.-.-.-.-.-.-.-.-.-.,.-.-.,.-.-.-.-.*.-.-.-.;.;.-.-.%.%.u.6.# 3 S.X.X.o.o.o.o.o.o.o.o.k.o.k.o.k.o.k.k.z.E.j.j FXFXJXKXFXJXFXKXKXLXKXKXKXKXKXKXKXKXKXKXKXKXDXJXJXi 4 | D.o.o.k.o.o.S.J.| # @ 7 C.j i S.S.D.k.S.k.+.X.y.S.y.D.~ 3 ! { ] ] ] ] ] ] ] ] ] ] ] [ [ [ { q.i.# A.ZXDXKXKXKXFXKXKXKXJXLXKXKXLXLXFXFXFXKXKXLXIXLXLXLXKXKXLXKXKXKXKXKXKXLXLXKXLXFXJXJXJXt u.%.&.#.-.,.<.<.<.<.<.<.<.<.<.<.<.<.<.<.<.<.<.<.-.<.-.-.-.=.-.>.>.w 6 _ / ! ! { ! ! / { ! { ! / ! / ! / ! ! / ! ! ! / ^ 3 # w _ / / ! ! / Q 6 _ / ! } { { [ [ :.[ :.w.r.r.y.6 3 t.w.r.[ w.w.w.} w.Q 4 4 4 0 4 % % % % % % % % % ",
"( G @.i G @.I G G G G G i G G i i G G i G G i G i G i G G G G 9 u q 0 0 u 9 B u u e u e B S i G i @.6.6.6.2.A.gXwXqXwX0XwXwXwXwXwXwXVXwXbXwXwXwXwXVXwXgXwXVXwXwXwXwXwXgXwXgXwXgXgXgXgXwXgXbXwXgXgXwXgXgXgXgXgXgXgXgXgXgXgXhXgXgXgXgXVXgXhXgXgXpXqXpXo 1.p.t.# # j.R.z.z.v.v.k.v.l.T.| 3 r.:.:.:.:.r.:.i.3 r a.:.r.:.:.:.:.q.p.( # o o o o o   X X X   o O . o o o o o o . @ * P P E OX7XnXBXSXIXIXLXLXSXSX9X9X:X:X0.4.1.1.i ( ( ( ) ) ) 2.2.2.2.2.2...2.2...2.2.2. .` ( r 4 3 # @ @ $ 3 h 3.C.Q.Q.!.~.~.W.T.b.v.m.m.v.n.m.b.n.b.M.c.c.n.n.n.m.M.c.n.m.m.~.o  .p.2.3 @ U.rXR.K.H.R.R.R.T.R.T.R.R.R.R.R.R.R.R.E.E.R.E.E.R.E.E.E.R.R.E.E.E.E.E.E.E.R.E.E.R.E.R.E.E.E.E.E.!.R.E.E.E.R.E.!.!.F.rXfXfXkXfXfXfXkXfXfXfXfXfXfXdXdXdXdXdX5X6 2.#.@.^ @.( t i t r e e t e e t t w w ^ w #.&.$.&.&.=.&.*.%.=.=.=.=.=.=.-.-.-.>.-.,.-.-.-.-.>.-.-.-.-.-.-.-.-.-.-.-.-.-.-.-.<.*.*.;.>.=.-.-.;.*.u.^ :X6 3 S.X.X.o.o.o.o.o.o.o.o.o.o.o.o.k.o.k.z.E.| U KXKXDXKXKXFXKXKXLXLXKXKXKXKXKXKXKXKXKXKXKXFXJXKXSX .3 ~ D.k.o.o.o.o.o.o.S.J.t.8 3 @ 3 6 8 8 ~ ~ | ~ | ~ ~ 6 t.S.3 Q ! ! ] ] ] ] ] ! ] ] ] ] [ [ [ { ! q.) 3 DXFXLXDXKXJXKXKXLXKXLXKXJXKXKXFXKXFXFXLXLXLXLXKXKXKXKXLXLXKXKXKXLXKXKXKXKXKXKXKXFXJXr 6.&.&.&.-..X<.,.<.<.<.,.<.<.-.<.<.<.<.<.-.<.<.-.-.-.-.=.-.=.-.>.6.w w / ! { ! { / / ! / / ! { ! / ! / ! / ! ! / ! / ! _ 6 # 3 6 / / ! ! ! ! / ! / { / ] { { *.[ { [ } } :.r.y.6 6 r.w.:.w.:.:.:.q.Q 6 q 9 4 0 4 % % % % % % % O ",
"G G G @.G @.G @.@.G G i I G i G i G G I G G G G G i G i G i G B q q > 0 y e u e u e u C i u i G G @.2.6.u.1.0.pXwXwX0XwXwXwXwXwXwXwXwXwXwXwXwXwXwXwXwXwXwXbXgXwXgXwXVXwXgXwXwXgXgXgXwXwXgXwXwXwXgXtXwXgXgXwXgXgXgXgXgXgXgXgXgXgXgXgXhXgXhXgXpXgXgXaX@ 1.u.t.1.# o I.!.l.l.v.k.v.k.T.C.@ q.w.w.:.[ r.:.i.6 3 i.q.:.:.:.r.r.:.q.u.@.i 3 @ @ @ o o o o o o @ @ # 3 0 4 1.0.9X9XNXNXBXBXSXSXSXSXfXsX1X,X0.4.2.2.) (  .) ) ) ) ) 2.` ......2.2.2.2.2.4.2.1. . .8 8 4 4 # @ # 3 7 h | j.S.H.T.T.E.E.T.E.m.m.v.m.b.N.N.n.n.n.n.n.n.n.M.n.n.n.n.n.M.M.M.n.v.m.E.!.o 7 7 # 8 F.rXK.H.R.K.U.R.R.R.R.T.E.R.E.E.E.R.R.E.R.E.R.R.R.R.E.E.!.E.R.E.E.R.E.E.E.E.E.R.E.R.E.R.E.E.E.R.T.E.E.E.E.E.R.!.R.!.J.rXdXhXNXfXkXNXfXfXfXfXfXNXfX9XdXdX9XdX1X6 $.@.` ( ^ ^ i t t r e t t w w t w t w r w ^ &.&.&.&.>.&.&.=.=.=.%.-.-.=.=.-.=.,.=.-.-.-.-.>.-.>.-.-.-.-.,.-.-.-.-.-.-.-.-.,.-.-.=.>.=.;.-.-.;.;.u.^ :X9X3 7 4.S.X.o.o.o.o.o.o.o.o.k.o.o.k.k.k.k.~.h C.KXFXAXFXFXKXFXLXLXLXLXFXKXKXKXLXKXKXKXKXKXDXDXJXSXG 8 h S.k.o.o.o.o.o.o.o.+.D.y.o.| ~ ~ ~ 8 8 4 6 3 3 6 ~ X.P. .# Q { ! ! ! ! ! ! ] ! ! ! Q ! Q Q ! } w.e.@ CXLXHXFXAXPXKXJXJXKXKXFXKXKXDXDXLXFXFXLXJXLXJXKXFXFXFXKXKXKXFXKXKXJXKXKXKXLXFXJXSXJXe 6.u.>.&.,.u.,.,.<.,.<.,.,. X,.,.<.,.-.,.<.<.,.>.>.>.>.>.>.&.&.>.6.4 Q / / / / / { ! / / / ! / / ! / ! / ! / / ! ! ! / Q ^ 6 3 6 / ! ! / ! / ! ! / / ! { / { / { { { [ :.:.r.e._ 3 4.q.q.q.q.q.%.u.^ 4 9 4 4 % 0 % % % % % % % % ",
"@.1.G i i G G i @.G G @.G @.G G G G G i G i i G G G G G G G G e u u 0 0 B u 9 u u B 9 u e G C i i @.6.2.6.1.A.gX0X0XwXwXwXwXwXbXwXwXwXwXwXgXwXwXgXwXwXVXgXwXgXwXwXwXwXwXbXgXwXVXwXwXgXVXgXgXgXVXwXwXgXgXgXgXgXgXgXgXgXgXgXgXhXgXgXgXgXgXgXgXgXgXgXDX* 7 p...q.4.5 o | !.T.l.v.l.z.T.S.@ 2.:.w.:.:.:.w.r.$.3 2.i.r.r.:.:.:.:.<.&.$.2.2.1.1.( i i i i i ( 1.1.1.2.2.2.1.2.2. .2.1.6.1.6.1.1.( ( ( ( ( ) ) ) 2.` $...@.) 2.1.2.2.2.2.2.2.1.( i 8 4 3 # @ @ o # 7 h | 3.F.I.!.~.~.E.E.M.E.M.m.m.m.B.v.V.m.m.W.T.n.b.n.n.n.n.n.M.n.n.b.n.M.n.n.m.n.m.n.M.M.!.j.o 8 3.F.uXrXF.R.E.R.R.R.R.R.R.R.E.E.R.E.E.R.!.!.R.!.R.E.!.E.E.R.E.R.E.E.E.E.E.R.E.R.E.E.E.E.R.E.!.!.E.R.E.E.E.R.R.R.E.!.R.!.!.F.hXrXfXfXfXfXfXfXfXNXfXdXdXfXfXfXdXdX9X9Xr $.) @.) @.t ^ t r r e e e t w e t t t ^ Q #.$.>.&.>.&.&.>.=.=.=.=.>.=.=.>.-.;.=.,.-.-.-.-.-.-.-.-.-.-.-.-.-.-.-.-.-.-.-.-.-.-.-.;.;.;.-.,.,.<.*.;./ 4.NXSX4 3 X.y.o.o.k.o.o.o.+.o.o.o.k.k.k.k.z.~.7 <XKXKXFXKXFXFXKXKXLXLXJXFXFXFXKXKXKXKXKXJXLXJXFXJXSXi 5 ~ l.o.+.o.o.o.o.k.o.o.o.o.k.k.D.k.+.S.S.k.S.+.S.X.S.S. .o # 6 ! ! ] ! ! Q Q Q Q Q 6 6 6 ! ! } } } e.6 0.LXDXLXFXFXHXJXJXKXKXFXFXDXLXLXDXLXLXDXHXKXKXFXSXKXKXJXLXAXJXLXLXLXJXJXJXSXLXKXJXJXe 6.$.6.#.u.u.,.,. X>.,.,.,.,.>. X,.,.,.,. Xu. Xu.u.>.>.u.u.>.6.>.$.3 _ / / / { ! ! / / ! / / ! ! / ! / ! ! ! ! ! { / / / / ^ 3 Q ! ! { ! / ! / / / ! { { { ! { { { { { } [ :.:.y.3 6 i 6 w r ) $.2.r 4 4 0 4 4 % % % % % % % % % ",
"i G @.G @.G G G i G @.G G G G 1.G i G G G I G 1.G G I G I i G i u e 9 0 e u q u e u u e u i i G t @.6.2.6.@.A.pXwXwXwXwXwXwXwXwXwXVXVXwXwXwXwXgXwXwXwXwXwXwXwXwXbXgXwXgXwXwXgXqXgXbXgXwXVXwXgXgXgXwXwXgXgXwXnXwXgXgXgXgXgXgXgXgXgXgXgXpXgXgXpXgXpXDXU @ 4.q.O.q.3.@ @ 7 U.T.l.z.k.H.S.@ 2.r.;.:.:.:.w.w.t.3 3 u.r.:.r.:.:.:.i.} _ ` ' $.' 2...2.2...2.2.' ` ` ` ` ..` ) ) 2.) _ ..` ` ` ` ` ` ..) ) ` $.2.@.2.2.2.2.1.@. .i i 5 5 3 # # @ @ # 7 7 h | C.H.!.!.!.W.~.W.T.T.m.v.v.n.m.n.v.v.m.m.M.M.v.m.W.!.~.v.m.n.n.n.n.n.n.M.n.n.n.n.n.n.n.n.n.M.m.m.~.3 8 jXrX!.!.K.T.T.H.K.E.E.R.R.R.R.E.E.E.R.!.E.R.E.E.!.E.R.E.E.E.R.E.R.E.E.R.R.E.E.!.E.E.E.E.E.!.R.R.R.R.E.R.R.R.R.E.!.!.R.!.!.!.S.dXhXfXfXfXNXfXfXfXdXfXfXfXfXdXdX9XdX9X>X8 2.` @.^ ^ @.i t r r t t e e e w t t w ^ w ^ $.$.&.&.>.>.=.&.=.=.=.=.=.-.=.-.,.=.=.-.-.-.-.-.-.-.-.-.-.-.-.-.-.-.-.-.-.-.-.-.-.;.,.-.-.-.-.-.*.%.<.Q p.BXA.@ # ~ k.o.o.X.o.D.o.D.y.D.+.o.o.k.k.c.R.7 7 AXLXJXLXDXDXDXFXJXFXJXFXFXKXKXFXJXKXKXKXDXDXKXSXSXi 3 ~ D.+.k.o.k.o.o.o.o.o.o.o.o.o.o.X.+.+.o.X.X.o.+.t.S.| o * @ 3 ! ] ! ! ! ! Q Q Q Q ! ! _ [ { [ } [ e. .3 LXJXDXKXAXFXHXFXLXJXFXLXIXJXLXKXFXKXDXLXFXFXKXJXJXLXIXLXIXIXIXIXIXIXIXIXIXIXIXUXJXi 6.6.6.6.|. X}.>. X,.>.6.6.>.&.#.#.&.#.6.#.@.^ ^ @.^ G ^ t @.t t u 4 ^ / / / ! / ! ! ! ! / ! / ! { ! ! ! / ! ! / ! ! / Q ^ Q 3 Q ! ! ! ! / / ! / / / / / { / ! / { { { [ [ [ :.t.6 1.3X9X6X:X0.i q 4 4 4 4 % % 0 0 % % % % % % % ",
"I @.G G 1.G @.G I G G G G i G G G G G G G G G G I G G G G G G u 9 u 9 u i 9 C y B i C i C u G i i @.1.@.4.2.A.<XwX0X0XwXwXqX0XwXwXwXwXqXwXwXwXwXwXwXwXwXwXVXwXwXqXgXwXwXgXwXwXgXgXwXgXqXgXwXwXgXwXgXgXwXgXgXwXgXgXgXgXgXgXgXgXgXgXgXhXgXtXgXgXpXgXVXZ.o 6.2...q.3 5 1.# @ C.~.H.l.!.| # i.w.%.:.:.:.:.:.i.q.3 ) u.<.:.:.:.r.%.{ } ..' ' ' _ ' ' ' ' _ ' 2.2.' ' %.2...' ` ..` 2.' 2.2.` $.2.2.2.2.2.2.1.1.( i 6 5 3 # # @ @ o # 7 i j 3.I.I.Q.!.!.~.~.T.T.m.T.v.v.v.v.v.m.m.v.n.n.c.v.m.m.m.T.T.E.~.rXC.h 7 W.m.N.n.n.n.n.M.m.n.n.N.N.M.n.n.n.n.n.V.T.~.o C.~.R.R.K.R.R.!.R.R.!.R.R.E.R.R.R.E.R.R.R.R.E.R.E.R.R.!.E.R.E.E.R.E.R.E.E.E.E.R.R.R.E.R.R.R.R.R.!.!.!.R.!.!.!.!.R.!.U.U.U.U.I.S.rXfXdXfXkXNXfXNXfXfXfXdXfXfX9XdXdX1XdX1Xr $.) ) #.( t ^ t t r e e t t t e t t r ^ w #.>.$.&.>.&.&.&.>.=.=.=.=.=.>.;.=.=.=.-.=.-.,.-.-.-.-.-.,.-.-.-.-.-.>.-.-.-.-.-.-.*.*.-.-.,.-.,.,.,.;.u._ 2.i @  .S.+.X.o.o.X.6 6 6 6 Q ~ X.o.k.k.k.k.T.~.j X U LXJXFXFXDXJXFXFXAXKXFXFXKXJXJXDXFXFXFXJXDXSXSXu 8 ~ D.o.o.o.o.o.o.o.o.k.o.o.o.o.o.k.X.o.X.o.o.o.X.F.~ o o o $ e ~ ~ ! ! ! ! ! ! ~ _ _ ~ ! } ! [ } O.O.p.@ aXLXKXKXLXLXJXPXLXIXLXLXLXLXKXKXDXZXkXZXDXFXAXJXSXnXnX8XpX7X7X;X-X-X$X$XOXOX{.|.8.i G G C t C ^ C #.C K K @.5.K 5.6.].|.6.].6.|.}. X2X}.}.5.5.@.5.1.I % r _ / ! ! ] { ! ! ! / ! / ! ! / / / ! { / / ! / / / _ Q 6 ^ Q ! ! / ! / / ! / ! / ! ! { ! { { { { { { :.} i.i 4 T I R {.:XvXSXu 9 9 4 0 4 % % % % % % % @ % ",
"@.1.G I G 1.K I K 1.I G 1.I 1.K I @.T I I G G G G G i G i u G q 0 0 q % 0 i u e G u B i i i G i G @.6.6.2.e 0.dXqXwX0XwXwXwXqXwXwXwXwXwXwXwXwXwXwXwXwXwXwXwXqXwXwXgXqXwXgXwXwXwXwXwXgXwXwXgXwXwXgXqXgXwXgXgXgXgXpXgXgXpXgXgXgXpXgXpXgXgXgXgXgXgXqXgXgXo  .2.t.) 3 ` u.4.3 @ h rX!.U.# ( q.:.:.:.w.:.:.:.;.i.Q # ( a.%.;.q.i.' ' ' ' ' ..' ' ' $.' ' ...._ ' ..' ` 2.' 2.....2.2.2.1.1.1.@.1.i e q 0 @ o o o o o o o o o o . O u 3.dXlXjXhX~.Q.T.T.z.z.v.v.v.z.v.m.v.v.v.v.v.v.v.m.m.T.T.~.yX~.Q.C.j @ . $ o !.T.n.N.c.N.M.m.M.M.M.M.M.n.M.M.n.n.b.N.~.!.o rXQ.E.R.R.R.R.T.!.!.R.E.R.R.E.R.E.!.E.E.R.R.!.R.E.R.R.E.E.E.E.R.!.R.E.R.R.!.E.!.!.~.E.!.E.!.!.!.!.K.U.U.F.F.F.F.D.J.I.S.S.I.1XrXkXfXSXCXNXNXfXfXdXNXNXfXdXsXdX9XdXdX9X5X6 $.` ) ( ^ @.t t t i t e t e w w w t r t w / &.&.&.&.=.&.%.&.=.=.=.=.=.>.-.=.=.=.-.=.-.-.-.-.-.-.-.-.-.-.-.-.-.-.-.>.-.-.>.-.>.>.>.>.-.,.>.>.>.$. X( # 4 t.z.X.o.o.o.o.o.D.o.k.y.k.o.X.~ o.D.k.k.n.W.~.~.- . &XFXFXDXAXDXLXDXKXFXFXKXKXFXKXKXLXLXKXKXKXFXi 3 8 k.o.k.o.o.o.o.o.o.o.o.o.o.o.o.o.o.o.o.o.X.X.S.~ o . o o 7 5 4 6 6 6 8 6 6 6 r 6 6 Q Q ~ _ / _ ~ ..4.5 I <X&XA.&XZ.&XZ.E 8.U 3.3.j 7 $ = 7 g - o $ Z.3.E E [.[.{.{.=X|.$X$X=X-X=XzX2X=XzXvXxXvXvXvXvXvXvXvXvXvXvXBXvXvXvXvXBXvXvXvXBXBXBX6X}.5.5.5.7.5.5.5.7.% 6 $./ / / ! ! ! ! ! / / / { ! / / ! / ! / ! / ! / Q ( 3 6 / Q / ! / ! ! ! ! ! / ! / ! ! { ! / { { { [ { :.i.e u R E R I I P 5.0 4 0 0 % % 4 % % % % % % % % ",
"G u B i u e q u 0 0 9 9 0 0 > 0 0 , 0 0 q y i u i P I R R 5.5.I I 1.0 G C 4 0 9 9 q q 9 q q q 9 i e 5 6 ( 6.7 pXqXwXqXwXwXwXwXwXqXwXwXqXwXwXqXwXwXqXwXwXwXwXwXgXwXgXwXgXwXwXgXwXqXgXwXpXwXgXgXgXgXgXgXgXwXpXpXgXgXgXgXgXpXgXVXgXgXVXMXgXgXgXkXAXgXkXFXS 3 0.6.3 6 t.2.q.4.@ o @ 4.3 6 t.O.:.:.:.:.:.:.:.:.q.a.6 3 _ a.q.q.q.' $.2.' $.' .. ...` ` 2...2.2.2.2.4.2.4.2... .( 5 5 4 # @ @ o o o o o . o o o $ & o O & & & & @ o @ @ o @ 3 ~ | F.!.E.~.~.~.~.E.~.!.!.~.~.~.W.~.~.~.~.Q.F.F.| g o o .   $ u u o Q.b.n.c.N.N.M.M.M.M.n.n.n.M.M.M.V.b.N.V.~.g g jX!.T.R.R.T.R.!.E.R.E.R.E.E.E.!.!.E.E.E.E.E.E.!.E.!.R.!.!.!.E.!.!.E.~.!.!.!.U.K.H.F.S.F.F.F.S.F.S.F.I.U.U.rX1XrXdXrXdXkXZXkXhXdX1X<X<X,X,X9XfXNXCXNXNXfXmXfXdXdXdXdX9X:X6 2.` #.^ @.^ t ( t r e t w t t r t t r ^ w #.$.&.&.&.&.*.>.=.=.=.=.=.=.=.-.>.,.=.-.-.-.-.-.-.-.-.-.,.-.-.-.-.-.-.-.-.-.-.-.-.>.>.>.>.>.>.>.>.>.u.^ 3 ..D.X.X.o.o.X.o.o.o.o.o.o.o.o.o.o.D.k.k.k.k.c.c.W.W.iXj.o - dXKXIXLXLXKXKXMXpX-X#X9.U u 7 $ $ o o $ 7 4 8 D.+.o.o.o.k.o.o.o.o.o.o.o.o.o.o.o.o.o.+.X.J.7 o o S u 0 u u 5 u 4 3 3 5 3 3 # # # # # 3 3 # # 3 # # # # @ @ 3 7 i 7 j C.j 3.7 - 3.!.jXiXiXyXyXiXC.$ NXJXGXBXBXSXGXBXGXBXGXGXvXGXvXGXvXvXvXGXvXvXvXvXcXvXxXcXvXxXvXcXvXvXvXcXxXvXvXvX.XR I ].7.7.5.7.5.R E [.u 3 @.#./ / / / / / / / / / / / Q / / / / / ^ / ( Q #.$.3 6 _ ! / ! / / / / { ! { ! ! / ! ! ! / { { { { } { i.4 u 5.R I I R I I 0 4 0 0 4 % % 0 % % % % % @ % ",
"5.5.8.8.[.{.{.}.#X=X=X=X=X-X2X7X7X7X7X7X8X8XvXcX8X8X7X8X8X7X8X@X}.0.% G i I G G e i i u u i G i G G 1.2.2.0.0.Z.wXqXwX0XwX0XwXwXwXwXwXqXwXqXqXwXqXwXwXwXwXwXwXwXgXwXwXgXgXgXwXVXVXwXVXwXVXwXgXgXgXgXgXnXgXgXnXgXgXpXgXqXqX&X&XqX%X0X&X&X&XZ.Z.C.Z.W Z.j @ 6.6.3 ( q.%.q.$.# 1.3 3 ' e.q.:.:.:.:.:.:.:.:.:.:.i.u.^ 3 ^ 4.a.q...2...2.4.2.4.2.1.2.1.1. .i i 5 3 3 * @ @ @ o o @ $ o o @ % * @ $ * & & & & o O @ + $ O & $ @ o @ i ..~ Q 3 # 3 # # # # 5 7 h | | | | j | j g 7 - $ . . . . o o o - - 7 0 g $ $ ~.v.n.n.n.n.M.m.M.N.n.n.n.n.V.m.V.W.V.W.yXo F.uXT.R.R.E.E.~.E.E.E.E.E.E.E.!.E.E.E.E.!.~.!.E.!.!.!.R.K.R.U.I.H.F.S.S.S.S.I.U.U.1XrX1XrXdXhXdXhXdXdXrXdXdXdXrX9XdX9X1X1X,X,X1X9XsXNXNXDXNXNXdX8X,X,X,X1X9X9XdXsXsXdXdX1X8 ) @.) @.^ t t t r t t e t e e t t t w t w ^ >.$.&.&.&.>.&.>.&.=.=.=.=.>.=.=.=.,.-.=.=.-.-.-.-.-.-.-.-.-.-.-.-.-.-.-.-.>.-.-.>.>.>.u.>.u.>.u.u. .# t.D.X.o.o.X.o.o.o.X.o.o.o.o.o.o.o.o.k.o.o.k.k.k.k.z.M.E.~.yXj.o - Z.U 7 1 - j 3.8.@X<XpXsXNXSXCX8XA.4 # @ 6 t.o.o.X.O.+.D.D.o.o.o.o.o.o.o.o.o.o.o.X.D.8 @ g 3.U 3.8.i 7 3 $ 1.I 8 # 8 1.h  .j  .| 7 3 4.L. .t.t.dXhXrXD.Q ~ X.| | | j.S.!.yX~.~.R.T.T.V.W.W.yXuXo sXSXPXvXvXBXvXcXvXnXcXvXcXvXcXvXcXcXvXcXvXvXvXvXvXvXvXcXGXvXvXcXvXvXxXcXvXvX|.R ].}.5.[.7.5.7.R 5.R 5.5.# 5 @.) #._ _ ( ^ #.^ _ _ ^ ( ( ^ ^ ( ^ r 6 6 6 6 3 # # r _ ! / / ! ! / ! / ] / ! / { / / / / / { { { *.%.%.# I R R 5.R P I 5.4 0 0 0 4 4 % % % % % % % % % ",
"7X7X2X7X2X7X7X7X-X2X-X2X7X2X-X=X2X=X=X2X=X=X}.=X#X=X$X}.}.}.@X5.5.u e I S i G G G G G @.G @.I G 1.@.@.6.6.0.8.8.pXwXqXwXwX0XwXwXqXqXwXwXwXqXwXgXwXqXqXqX;X0X0X&X0X0X%X%X%X%XZ.%XZ.Z.%XZ.Z.f.f.Z.Z.f.Z.f.f.f.f.f.W f.W Z.Z.Z.Z.Z.Z.W Z.A.Z.Z.Z.Z.A.7XBXPX@ I i # $.q.%.q.2.# 2.0.q.q.%.:.:.[ :.:.:.w.[ :.:.:.:.<.p.) 3 3 3 6 8 8 8 6 7 4 4 3 # # # # # # * 7 h |  .| j.F.I.Q.iX3.@ $ : : & + $ O @ O % O & & O O $ o o @ * # 3 ) ! ! [ } _ _ ~ Q Q 8 6 6 6 4 3 3 @ o . . . o $ O $ + & - & - > 1 & - - u $ j ~.c.N.N.n.M.B.M.n.n.n.M.n.m.m.V.M.W.W.~.j.$ jX!.!.T.E.E.~.E.!.!.!.!.!.~.!.!.!.!.!.!.U.F.H.I.F.J.F.I.U.I.I.!.rX1XrXrXhXdXrXrXrX9XrXrXdX1X1XdX1XdX9XdXdXfX9XdX9XfXfXmXNXNXfXNXNXNXSXNXNXsXdX9X9XdXdXdXmXdX9X1X>X,X:X>X>X6 2.$.#.^ @.^ t t t t e t e t w t t t t ^ w _ $.&.&.%.&.&.&.>.=.=.=.=.=.=.=.=.=.=.=.-.-.-.=.-.>.-.-.-.-.-.-.-.-.>.-.-.>.>.>.>.>.#.6.#.@.#.@.@.@.# ..D.o.o.[ X.o.o.o.o.o.o.o.o.o.o.o.o.o.o.o.k.k.o.k.k.k.v.n.V.W.~.uXj.g o * ,XNXSXSXNXBXNXNXsX:Xj # @ 7 h ..t.+.k.X.k.X.X.8 8 ~ X.+.S.k.o.o.o.o.o.o.o.S.8 @ A.rX,XA. .7 5 8 4 3 5 i 7 7 * I.rXrXU.rXdXh 3 8 8 ..| | ..| ~ ~ X.X.G.!.!.!.~.R.z.z.z.l.z.l.v.v.m.W.E.uXrXo G I [.=XcXvXGXcXcXnXvXvXvXGXcXvXcXcXcXvXvXvXcXvXvXvXvXvXvXvXvXvXvXGXvXvXcXT }.[.8.].5.7.7.7.7.R 7.R 7.7.@ @ # # 3 3 4 3 4 3 3 3 3 3 3 @ # # 3 4 4 q 0 e S I # 6 ^ ^ / ^ / / / / / / / / / / / / / / / { { } } %.( # 8.I R U U I I I 4 0 4 0 % % 0 % % % % O % % % ",
"7X=X2X-X2X=X:X=X=X#X#X#X}.$X#X}.}.OX@X}.OX}.{.0.{.8.0.8.0.[.{.I 5.q i G i I G G @.I i G  .G I G @.1.1.2.6.6.0.1.&X%X%X%X+XZ.f.%XoXf.f.%Xf.f.f.f.f.f.f.f.W f.f.f.f.W W f.f.f.OX9.{.OXOXf.[.+X+X+X[.OX*X{.OX*X{.@X{.*X}.$X+X$X$X@XOXOX=X@X@X$X}.{.OX@X@X2X0 0 q 5 2.%.r.%.2.3 _ u.$.O.:.:.%.} :.:.[ w.:.:.:.r.:.w.q.u.2.# i 7 3 * 7 3 7 h h h | | | j.l.l.T.T.T.T.E.E.T.E.m.T.E.C.o - * $ & * o * & O O % O O O @ O o O O % @ 6 _ ] ] ] [ ] ] [ ] ] ] ] ! ~ ] ~ _ 6 @ * - $ & * & & $ $ $ - $ & - * - - 7 o j.E.m.n.n.n.n.M.M.n.N.M.M.M.B.V.b.V.W.W.yXg h iX!.!.!.~.!.!.Q.!.!.F.!.I.U.Q.I.I.I.I.I.1XeXeXrXrXdXrXhXdXhXdXdXhXdXkXkXkXfXCXCXCXCXCXSXCXCXSXSXSXSXSXDXSXSXDXDXDXCXNXNXNXfXdX9X9X1X,X2X>X1X:XL.>X:XL.:X,X>XL. X:Xp.p.p.u.Q $.( #.( ( ^ @.t t t t t w t w r t t t t w ^ &.$.*.&.&.&.%.>.>.&.>.=.=.=.>.=.;.=.=.-.=.=.-.=.=.*.=.=.=.-.-.=.=.-.=.&.>.>.6.@.K ].}.|.}.5.}.0.3 6 S.X.X.o.o.X.o.o.o.o.o.o.o.o.o.o.o.o.o.o.o.k.o.D.k.k.k.k.k.c.z.m.m.E.!.F.| 4 7 pXcX2X8X8X#Xu 3 8 | X.y.S.X.S.D.o.+.o.o.o.X.o.X.~ 8 ~ ..k.y.o.o.o.X.D. .o  .rXL.7 6 8 ~ 8 ....3.4. .7 # 7 4.j.| | | | | | ~ ~ ~ | | X.+.+.k.D.k.D.H.H.F.k.k.k.k.k.k.k.k.k.l.l.R.!.Q.rX7 CX&X8.U u u 9.7XJXGXvXvXvXvXGXcXvXGXvXcXvXvXcXvXvXvXvXvXvXcXvXvXvXcXvXvXvX[.5.[.].8.5.[.7.5.7.7.E 5.E R R R I G G G G u G u I G G I I I I 5.I 5.U 5.5.5.R 8.0 @ q e i ^ ^ _ ( ^ _ _ / ^ #./ #._ / _ #._ %.$.$.6.3 u 8.5.U I I R I R % 0 0 0 4 0 % % % % % % % % & ",
"}.8.8.{.9.8.8.8.{.8.8.}.8.8.8.8.{.8.8.}.8.8.{.{.}.8.{.{.8.}.}.R 1.u u G G G G ( G G @.G G @. .G @.@.1.6.6.4.6.i S f f P P P P P P Y P Y Y U U L Y E W f.oXoXZ.).[.OX[.+X{.[.[.+X{.*X[.OX{.[.|.{.{.{.{.{.{.}.}.[.}.*X}.|.{.}.|.}.{.}.|.}.}.}.}.}.}.}.[.}.7.o @ i q.} } %.u.3 6 q.q.} :.:.:.:.:.:.:.w.:.:.:.[ :.:.q.q.i # hX!.~.Q.~.!.!.!.~.E.E.W.W.E.E.T.T.m.m.m.m.m.m.M.M.m.V.F.$ $ & & & $ & $ & @ % O O & O O % @ O + * # Q ! ] ] ] ] ] ] ] ] [ ] ] [ ] [ ] ! ~ 3 @ & $ * * & & $ = $ $ - * * & * u * o !.T.b.n.n.n.M.M.M.M.n.n.M.n.V.V.V.W.W.~.Q.o rXQ.Q.I.Q.I.Q.Q.rXrXrXrXjXjXhXlXlXZXZXDXDXZXDXFXDXFXFXFXDXDXDXDXFXFXKXKXKXFXFXFXDXDXDXSXCXSXNXfXdXdX1X7X1X,X:X:X:XL.:XL.:X:X:XL.>X>X1X9X1X1X5X9X9X5X1X5X5X5X5X5X>X>X>X>X Xp.^ $.#.) #.^ ^ ^ t t t t w t t t w e t r t ^ ^ $.&.&.&.&.&.=.&.>.=.&.=.=.=.=.=.>.=.=.-.;.=.;.=.>.=.=.=.-.-.-.-.>.-.-.>.>.#.q |. X=X2XvXBXvXBX,X@ S.X.o.X.o.o.o.o.o.o.[ o.o.o.o.o.o.o.o.o.o.o.o.o.o.o.o.o.k.k.k.k.z.z.k.z.G.K.U.7 7 2X#X#Xu $ i S.S.D.k.k.+.o.o.o.o.o.o.o.o.o.k.o.+.D.+.~ ~ ~ o.o.o.S.| @ j hX,XC.7 8 4 6 6 8 8 ~ 3 7 ~ 4.| | | +.| X.X.X.j.l.S.k.D.S.D.k.k.S.k.k.k.k.X.X.k.X.k.X.S.k.4.S.l.l.l.Q.I.U.7 :XSXSXJXJXSXSX#Xu > cXmXvXnXvXcXvXvXvXcXvXvXvXvXvXvXcXvXcXvXvXvXcXvXvXvXcXvXvX}.5.].7.[.[.5.7.7.].7.7.R 7.7.5.7.9.7.7.7.8.7.7.7.7.7.E 5.5.5.R 7.E 5.E R E R 5.7.F > @ % # 3 3 3 4 6 6 6 w Q 6 6 w 6 6 6 6 3 6 4 @ 0 8.I E R R E I R 1.0 4 4 0 9 0 % 9 % % % % O % % ",
"8.{.0.0.OX}.}.@X{.}.{.0.}.{.{.{.8.8.}.8.8.}.8.0.}.8.0.8.}.8.}.1.R u i @.G G G G i @.@.G @.G @.@.1.G 1.u.2.4.0.i P P P P P P U Y U P Y P Y U Y W U E T I I W [.OX[.[.[.[.OXOX[.[.[.{.[.}.{.{.{.{.{.|.$X}.{.{.{.|.{.}.|.}.}.|.=X=X}.}.{.{.}.{.|.=X}.}.}.8.@X@ o 1.2.q.%.q.u.6 3 u.} :.:.w.} } :.:.w.:.:.:.:.w.w.w.} i.i # uXv.T.m.m.m.T.m.m.m.m.m.m.m.n.n.M.M.M.M.V.B.m.n.n.m.m.!.j o - > & $ & & $ + @ & & O @ % @ & ; @ @ # Q ! ] ] ] ] ] ] ] [ ] ] ] ] ] [ ] [ _ 3 @ $ @ * * + & $ O $ & * & * & - 0 o g ~.m.b.n.n.n.M.M.M.M.n.n.M.B.B.V.V.V.W.yXg j ZXlXhXlXlXZXDXDXDXlXDXDXZXDXZXDXDXZXDXFXFXDXDXFXDXFXFXDXSXDXCXCXNXfX9X9X1X1X1X:XL.L.:X:X:X:X:X:X>X:X1X>X1X1X1X9X1X9X9X1XdX1X9X9X9X9X9X1X9X5X9X5X5X1X5X5X5X>X5X5X5X>X5X>X>X Xw $.@.) ^ @.^ ^ t t t C t w e t e e t t t w #.$.&.&.&.&.&.$.>.&.&.>.=.&.>.%.>.=.=.*.*.*.=.*.=.,.,.;.;.-.=.=.=.-.-.=.=.u.t }.].).5.T H H D T * 8 F.X.X.o.o.o.o.o.o.o.o.o.o.o.o.o.o.X.o.o.o.o.o.o.o.o.k.k.D.k.X.k.k.o.o.o.k.k.S.S.. }.#X# @ 4.J.S.+.X.X.X.o.o.o.o.o.o.o.o.k.o.o.o.+.o.o.k.o.X.X.o.D...@ 4 > 7 3.L.,XrXU.U.D.U.J.| 4.rXrXrXU.j.X.| X.X.j.X.X.X.| X.| +.j.X.j.j.X.X.X.X.k.j.X.X.| X.j.| S.S.S.S.j.| 7 # 0.BXmXvXBXNXSXNXJXPX2X. BXvXcXvXvXcXvXvXvXvXvXvXvXvXvXvXvXvXvXvXvXxXGXvXvXvXvXvXGXcX}.7.].5.[.7.[.7.7.7.7.].7.7.5.7.E 7.7.R 5.5.E 7.E R 5.E 7.E E R 5.R 7.R 5.R 5.8.[.{.5.5.I i 0 q 0 % 4 3 3 0 0 4 4 q 4 q u q G I 8.R R R 5.R I R G G 4 9 4 4 % % % % % % % % % O % ",
"}.8.{.{.8.8.}.8.0.8.{.{.{.0.}.8.}.8.8.{.{.{.@X}.{.}.@X}.}.@X}.8.8.G u G t @.G ( G @.G @.I ( G @.@.( 1.6.6.6.6.u P P P Y P Y Y P Y U Y U P Y U Y Y T T Y T T T T W [.+X[.[.).[.[.{.[.[.[.[.[.{.{.{.{.{.{.{.}.{.$X{.}.+X}.{.}.{.}.}.*X}.}.*X}.}.@X@X[.}.{.}.3.o 1.q.} O.} q.2.3 2.w.} } } :.w.[ :.[ w.:.:.w.w.[ :.:.t.8 8 ~.m.v.c.v.n.b.n.m.m.M.m.n.n.n.n.M.n.n.c.N.n.n.m.n.m.b.E.| . u & & & @ $ $ o & O o $ O @ @ & @ O @ # / ] ] ] ] ] ] ] ] ] ] ] ] ] ] ] ] ] / 6 @ * & o * $ o & $ & & & & * - u - o F.~.m.M.M.n.n.M.m.M.M.n.n.B.n.B.b.b.W.~.~.  hXFXCXFXFXFXKXKXFXLXLXDXDXFXFXFXFXFXDXSXCXNXfXhXdXdXeX,X,X,XI.:X:X,X>X,X>X1X>X1X9X9X9X9X9XdX9X9XdX9X9X9X5X5X>X5X9X5X5X9X9X5X9X5X9X5X5X5X5X9X5X5X1X5X5X5X5X>X5X>X>X5X>X>X>X5Xa.Q 2.) #.@.^ ^ @.t t t r t e t t w t t w ^ w #.$.$.$.&.>.$.>.&.&.=.&.=.&.=.=.*.=.;.;.=.-.=.-.-.-.=.-.=.-.-.=.-.-.=.-.>.>.^ |.5.].[.].[.|.[.).@  .+.+.X.o.o.o.o.o.o.o.o.o.o.o.o.o.o.o.o.o.o.X.X.o.X.o.o.o.+.o.k.o.o.o.k.X.o.o.+.4.@ #X> @ S.S.+.k.o.X.X.o.X.o.o.o.o.o.o.o.o.o.o.o.o.o.o.o.o.D.o.y.~ # u 2X8.j @ o 7 8 I.1XrX!.8 4.hX1XU.!.!.1X| S.| | X.| k.| j.X.j.j.X.| X.+.X.S.| j.S.| S.j.S.j.4.4.| h 8 3 # # 3.7X7X=X2X=X7X7X8XBXPXIX7Xo BXvXGXvXvXvXvXvXvXvXvXvXcXvXvXcXvXcXvXvXcXvXvXvXvXcXvXcXvXGXvXvXXX}.[.5.R 5.7.].7.W 5.7.7.7.5.5.E 7.7.7.7.].R 7.R 5.7.5.7.E E R R R E 7.R 5.R R E E 7.9.9.9.8.7.8.7.8.7.5.[.{.7.8.9.8.9.9.7.7.R R 5.I T I R }.vX% 0 9 0 0 4 0 % % % % % % % % ",
"#X#X@X#X#X@X}.}.}.A.{.8.8.8.8.8.7.3.7.U R I I P P P S S S u u 1 % @ G G G G @.@.@.G G G G @.G @.@.@.@.6.$.6.6.q S S P P P T F Y P Y P T Y I T Y Y T T T T I T I Y I T W [.+X[.[.[.[.{.{.}.[.}.[.[.[.}.{.|.}.{.}.}.{.{.{.{.}.}.{.{.}.@X}.}.$X}.}.}.}.{.[.8.=X@ 5 u.' } w.q.u.# 8 q.} %.:.} :.:.} [ :.:.w.:.:.w.[ w.q.# | E.z.v.n.c.n.n.n.m.n.n.n.n.n.n.n.n.n.M.n.N.n.M.m.n.M.m.E.F.o - 1 & & $ @ O $ & O O + @ $ O % O % @ 3 / ] ] ] ] ] ] ] ] ] ] ] ] ] ] ] ] [ ! Q @ & * $ $ & $ & + * & * * * > - $ o !.T.m.n.n.m.M.n.m.M.M.M.n.M.M.M.b.V.W.~.j g FXKXLXAXLXFXLXJXKXDXFXFXkXpXpXrX,XI.,XI.U.I.1X1X,X1X9X1XfXdXdXdX9XdXdX9X1X1X1X5X1X9X9X5X5X9X5X9X9X9X5X>X1X>X>X5X9X9X5X5X5X5X9X9X9X5X5X9X5X5X5X5X5X5X5X5X>X5X5X5X>X>X5X>X>X>X>XQ _ $.#.( ( @.^ t t ^ e t e t r e r r t ^ w $.#.&.&.$.&.&.>.&.&.%.&.=.%.=.=.=.*.=.*.=.*.*.*.=.-.-.=.-.-.-.-.-.=.=.-.&.6.w |.].[.|.).].).).R # +.k.X.X.X.o.[ o.o.o.o.o.o.o.o.o.o.o.X.X.X.X.k.S.t.D.D.S.k.+.X.X.X.X.X.X.+.X.X.S.8 u 3.@ S.+.+.o.o.o.o.X.o.o.o.o.o.o.o.o.o.o.o.o.o.k.o.o.X.o.X.o.X.t.@ @X8.}.@X}.#X8.u o @ i j :XZX1XeXeXI.eXrX| | | | | X.4.X.4.4.j.X.| t.j.+.j.4.4.| | | j i 7 5 # @ @ 7 I 8.:X:X=X{.[.$X$X7XcXBXBX7X@X% , vXGXvXvXvXvXvXvXvXcXvXvXvXvXvXcXvXvXxXvXvXvXvXvXvXvXvXcXvXvXvXvXxXGXvXGXcX2X=X|.].5.).T 5.).5.7.7.].7.7.5.5.7.7.7.7.E 7.5.E 5.W ].7.7.7.7.R R 5.5.5.7.E E W R 7.5.R 5.R 5.E 5.5.5.R R 5.T G T T R ].[.@XcXvXcXcXvX@ 4 9 4 % % % % % % % % ; @ % ",
"0 > 0 - > % & * > * * > > > * - > 1 > 1 y u y u A A j u A u u 1 > * u G @.G @.G i @.@.G 1.G @.( i @.2.1.6.2.6.i S P S S F H P P J P H P I Y I P I Y I J T Y T Y T T T I I T W [.[.[.[.8.[.[.[.{.}.{.[.{.@X{.[.+X{.{.}.OX@X{.{.@X*X@X}.}.}.|.}.*X}.{.[.}.}.{.7.@ ( a.q.} } q.( # @.q.} %.:.} :.w.:.:.:.:.:.:.:.r.w.t.# C.E.v.v.n.c.v.n.v.n.n.M.n.n.n.n.n.n.M.n.N.n.n.M.M.n.B.V.m.~.$ @ 1 : & & o $ $ o + $ o O o @ O & O @ 3 { ] ] ] ] ] ] ] ] ] ] ] ] ] ] ] ] ] ] Q # @ & o o $ O @ $ + & * * $ - * . j.~.v.M.c.n.M.M.n.M.n.n.M.M.n.B.b.V.W.~.F.= DXKXFXJXJXFXLXFXLXLXDXKXCXeXpXdXdXdXrXrXrXrX1X1X1X1X1X1X1X1X5X5X1X1X9X9X1X9X9X1X5X1X>X>X1X1X9X1X9X5X5X>X>X>X>X5X5X5X5X5X5X5X5X5X5X5X9X5X5X5X5X9X5X1X5X5X>X5X5X5X>X>X5X X5X X X X X6 $.^ ( @.^ t ( t i r r r e r r t e t w 6 $.#.$.&.$.&.&.$.&.&.%.%.&.&.&.&.>.%.=.%.&.%.*.*.%.*.*.=.=.=.=.=.=.-.=.>.>.6.C |.].].].7.].].[.P * 4.X.X.X.X.X.o.o.o.o.o.o.o.o.X.X.X.X.X.X.X.+.t.8 3 # # 3 8  .t.S.S.S.S.D.S.S.P.( @ u > h S.X.o.o.o.o.o.o.o.o.o.o.o.o.o.o.o.o.o.o.o.o.o.o.X.o.o.o.X.S.@ > S u S S S P R I u 7 o o - 8.I.dXkX1XC.S.S.S.S.S.t.j.4.| | 4.3.| h 7 3 $ @ @ @ $ @ 7 i U I 8.#X#X#X#X#X#X-X=X=X=X@X[.T 2 @ ; Z 5.vXHXvXvXvXcXcXvXvXvXvXvXcXvXvXvXvXvXvXvXGXvXvXvXvXvXvXcXGXxXvXcXcXvXcXvXvXxXcXvXvXBXvXvXcX2X2X}.{.].7.R R 5.T T R 5.5.T R R E 5.W 5.7.5.5.5.R 5.7.R R 7.R E 5.7.E 5.7.].5.7.[.7.[.[.{.OX$X2X2XcXvXvXBXBXBXvXcX2X=X2X=X@ 9 4 0 9 0 0 0 % % % % % % % ",
"S A P u P u u A u P A P S u P A S u P A u A u y y y A A A f y A S y G G G G G @.G G 1.i G G 1.G @.@.@.6.2.6.5.i S A P F F P F Y P Y Y F J P J P T I Y T P Y T T I T T Y T T T T R ].8.[.{.[.8.7.7.7.8.7.7.7.7.7.E 7.7.7.7.7.7.E 7.5.7.7.7.8.[.9.8.{.{.{.@X#X8X> # p.q.%.%.} u.6 3 2.u.%.} } :.} :.w.:.} w.:.w.w.q.( # !.m.z.v.v.v.m.n.n.n.n.n.n.n.N.n.N.n.n.n.c.N.c.M.m.m.M.M.m.E.j o - - & $ $ $ O $ @ O $ @ + & o O @ # 6 [ ] ] ] ] ] ] ] ] ] ] ] ] ] ] ] ] ] { Q @ @ & @ $ $ O & $ & * & * - u $ @ !.T.v.M.n.M.n.M.M.m.M.M.M.B.B.m.m.W.W.jXg j DXAXDXAXDXFXKXJXFXFXFXFXFXkXpX<XeX1X1X1X1X1X1X1X1XrX1X1X1X1X1X1X>X1X5X1X1X1X1X>X>X>X>X>X>X5X5X5X9X1X>X>X5X5X5X5X9X9X5X9X5X5X5X5X5X5X5X5X5X5X5X5X5X5X5X>X>X5X X>X5X5X>X>X>X>X>X X5Xu.6 #.#.^ ^ ( t t r e r e r r r r w t w r #.&.$.$.&.$.&.&.&.&.&.&.&.%.=.&.%.*.%.=.>.&.*.=.=.-.>.>.-.%.<.-.=.-.,.<.>.u.C [.].].].].].).[.P # t.X.X.o.o.o.X.o.o.o.X.o.o.X.X.o.o.X.o.X.X.S.# 3 I I I u 7 @ @ @ @ 7 7 8 j i # o I 8.O | S.X.X.X.o.o.o.o.o.X.X.o.o.o.o.k.o.X.o.o.o.o.o.o.o.o.o.o.X.4.@ #X#XA.}.}.{.}.W {.OX0.@XZ.9.j 7 $ o $ $ $ $ $ # # # * 7 - 7 7 i j 1.3.3.Z.A.#X=X,X-X#X$X+XA.8.8.I I P u * $ o , y F ).[.cXvXHXGXGXvXcXvXvXvXvXvXvXGXvXcXvXvXvXvXvXvXvXvXvXvXcXcXvXvXGXvXvXvXcXvXvXvXcXcXvXcXvXcXvXvXvXvXvXvXvXvXvXBXvXvXvXvXvXcXcX2X2XcX-X2X=X=X=X=X}.$X@X{.}.@X8.}.[.8.8.8.5.7.5.5.5.R I 7.5.5.1.I K I G I G i G G B u q e e 9 u e u G 4 4 0 4 9 % % % % % % % % % % ",
"y y A 2 2 2 P u f A 1 A y y A A 2 P y 2 P f A A P y f u y y P y u > u G @.G @.i @.G G G G @.G @.G 1.1.1.6.2.5.0 u P n P F S P P S P P P P P Y P F P P P I P P P I P J I P T I I I I T R 7.{.@X=X=X=X=X=X7X;X8X8XaXaXaXnXmXMXMXBXSXSXSXJXJXJXJXPXIXIXJXJXJXJXLXMX* 5 u.' q.%.q.q.6 3 ( u.q.:.%.} :.} w.[ :.:.:.w.t.6 8 rXm.v.n.n.n.v.v.m.n.n.n.n.n.n.c.N.c.N.n.M.c.N.m.M.N.n.N.m.m.!.o $ 1 & $ $ O $ O * @ o @ & O O & @ 3 Q ] ] ] ] ] ] ] ] ] ] ] ] ] ] ] ] ] ] ] Q # * & O o $ $ o & $ $ - $ - - . j.~.z.m.m.M.n.M.m.M.m.M.m.M.M.M.V.W.W.yXC.7 dXZXdXhXdXkXCXDXZXFXFXFXFXFXDXDXZXZXZXkXfXdXrX1X1X1X1X1XU.1X>X1X1X1X1X1X>X1X>X>X>X1X>X1X>X1X1X5X5X5X5X5X5X1X5X5X5X>X5X5X5X5X5X5X5X5X5X5X5X5X5X5X5X>X5X5X5X>X X>X X X>X4X X>X X X Xa.5X X^ Q @.( ^ ^ r r r r i r r t w w ^ 6 @.#.#.$.&.$.&.$.$.&.$.&.&.$.$.&.%.&.&.&.$.&.&.&.&.#.&./ $./ #./ / &.#./ #./ ^ G ].].].).5.).).[.T @ | o.X.o.X.o.o.X.[ o.X.o.o.X.o.o.o.o.X.X.D.8 # {.5.W ].[.[.].R I I u y 0 % 0 P I P u o 4.X.X.X.X.X.X.X.X.o.o.o.o.o.o.o.o.o.o.X.o.o.o.o.o.o.o.o.o.S.h o P S I I R I T R R 5.R R R W 9.W W I I I U I U U I U I I U I I I I j u u y 0 1 > 1 y y S H I P I 7.0.$X=X7XcXvXvXBXBXGXvXvXvXvXvXcXcXvXcXvXcXvXvXvXvXvXvXvXvXvXvXcXvXcXvXvXvXvXvXvXvXvXvXvXvXvXvXvXvXvXvXvXvXvXvXvXcXvXcXvXcX6XcXcXcX6X2X2X2X=X X=X=X}.}.}.[.6.8.5.1.T 5.@.I 5.1.I G 1.I 1.1.1.5.5.8.6.0.0.}.0.}.@X X:X:X2X2X2X2X2X9X3X3X9X6XvX6X9X6X9X9X# 9 0 4 0 9 9 % % % % @ % @ % ",
"2 A 1 f 1 1 2 1 1 1 f y 2 2 A 2 2 f y y A 2 A A y A A f 2 y A 2 u > u G G @.i @.@.@.G i G i 1.@.@.@.1.1.1.1.0.0 u 2 y y 2 A P 2 S P P I R I E E W W W 9.OXOXOX+X$X@X$X$X-X-X-X-X7X7X8X8X;X8XmXGXJXJXJXJXIXJXJXJXJXJXJXJXJXKXKXLXLXKXKXKXKXFXKXKXKXKXKXJXKXFXJXJXOXo 4.p.q.q.} } q.6 3 6 $.t.q.%.} %.} w.:.:.} q.t.# | E.v.v.v.c.n.n.v.n.n.n.n.n.n.n.n.n.n.n.M.n.N.M.n.M.N.c.N.n.n.~.- o u - & & & & & @ @ @ & & O & % o 3 / ] ] ] ] ] ] ] ] ] ] ] ] ] ] ] ] ] ] ! 6 # @ % O @ & o o $ o $ - $ - $ @ T.T.m.m.n.n.n.M.M.m.V.m.M.M.m.b.W.W.~.yX$ Z.kXkXhXkXkXCXCXCXCXCXAXAXZXDXZXDXZXDXDXDXZXSXZXCXkXfXfX1X1X1XL.L.P.P.>X1X>X1X>X1X>X1X>X>XP.>X>X5X1X5X5X5X>X>X5X5X5X5X5X>X5X5X5X4X5X>X5X5X4X>X>X5X5X5X5X5X>X X X>X>X4X>X X4X X.X>X X X X X>Xq.^ 6 6 6 w ^ r w r r w 6 6 6 6 w ^ _ ^ / #./ ^ / ^ ^ ^ / / ^ ^ ^ / / / Q / / / ^ / / / ^ / / $./ #./ / &.#.&.#.w ].).].].).5.).].[.o 2.X.X.X.X.o.X.o.o.o.o.o.X.X.X.o.o.o.o.o.t.3 S 7.).T ).5.5.).].5.W ].5.7.W 7.R W [.I @ 4.X.X.X.X.X.o.o.o.o.o.[ o.o.o.o.X.o.o.o.o.X.X.o.X.X.X.o.t.L.# P |.].T ].W R R T ).K T T T /.5.I T T T T T R T R R E ].W [.OX[.{.OX$X=X$X=X=X-X7XcXzXcXcXcXcXcXcXcXcXvXvXvXvXcXvXvXcXvXvXcXvXvXvXvXvXvXvXBXvXGXvXBXBXvXBXBXGXvXBXvXBXvXBXBXvXvXvXvXcX6X6X7X2X7X2X2X=X2X}.}.|.|.].6.5.5.5.I 1.5.@.1.5.1.1.5.1.6.5.6.0.6.6.}.}.}. X}.:X X2X2X3X2X3X2X3X2X2X3X3X3X5X5X4X6X5X6X3X4X3X3X5X3X3X3X5X5X3X3X3X3X3X3X3X>X3X2X2X>X>X3 4 9 4 9 0 0 % % % @ % % % & ",
"1 1 2 2 2 2 2 L 2 2 2 2 2 n f 2 A 2 P y y y 2 2 A 1 2 1 2 > 1 1 1 & i I G G @.G G G @.I @.G @.G 1.i @.1.6.1.1.I {.OX@X$X$X&X=X;X-X-X-X-X;X7X7X8X8XcX8X8X8XaX8XcXcXnXaXcX8XnX8X8X7X8XaX8XaX7XaXaX7X8XBXJXLXLXJXJXLXKXKXKXKXFXFXFXKXKXFXFXFXFXKXFXFXFXFXFXFXFXFXFXLXI o 6.u.$.r.%.%.u.( 3 3 6 ^ q.q.q.q.q.} q.O.q.2.@ U.m.v.c.c.n.c.v.n.n.n.n.v.n.n.n.n.M.n.n.n.M.M.n.M.M.n.n.n.N.c.W.F.o - 1 $ $ & $ & * & % @ @ % o * @ 6 / ] ] ] ] ] ] ] ] ] ] ] ] ] ] ] ] ] ] } 6 @ $ O $ $ $ @ & o & & & 1 $ . C.~.b.m.M.n.n.n.n.M.M.m.M.m.M.V.V.m.W.yX| $ DXMXdXhXfXfXkXkXMXMXCXkXMXAXAXAXAXAXAXCXNXNXCXCXCXkXkXkXkXkXfXfXfXdX9X>XL.L.L.L.P.P.P.>X>X5X1X>X>X>X>XP.>X5X5X5X>X5X5X5X5X5X>X>X5X5X5X5X>X5X5X4X>X5X>X X5X>X X X>X X>X4X4X4X>X>X X>X Xi.u. X X Xq.@.$.^ 6 6 4 3 4 3 6 6 w w w w ^ ^ ^ ^ ^ #./ #./ #.$.$.$.&.&.&.#.%.&.&.&.=.=.=.=.>.>.>.>.-.;.;.>.=.-.>.>. Xw ].].).].5.).E ).[.* 7 D.X.o.X.o.o.X.o.o.X.X.o.X.X.o.o.o.X.+...@ 7.R 5.].5.).].5.).).5.).).R ).R R ).].R o 4.| X.X.o.o.o.[ o.o.o.o.o.o.o.X.o.o.o.o.o.X.k.X.+.S.S.S. .# 4 PXvXBXGXBXvXGXBXBXBXBXvXGXBXGXvXBXBXBXvXBXGXBXBXBXGXBXnXBXvXmXnXvXBXvXnXcXvXvXvXvXcXvXvXvXnXGXvXvXBXBXvXGXvXBXBXvXBXvXvXvXvXvXvXvXcXxXzX=X2X.X}..X}.}.}.].5.K |.5.5.5.K @.5.1.@.T 5.T 5.5.6.].6.].0.}.}.}.:X=X X2X2X6X6X6X6X9XvXvX6X6XvX9XvXvX9XvX9XvX9XvX9XvX5X5X5X5X9X5X4X6X9X5X5X5X4X5X3X5X5X5X5X5X5X5X5X5X5X5X5X5X5X5X5X5X>X1X5X5X>X5X3X3X3X>X>X X4X>X3 4 q 9 4 % % % % % % % % % % ",
"1 1 1 : : : : : + : + + O O O X O O X . . X X   X X X X X O O O X @ S G i G @.i i @.i I G @.G @.@.G 1.5.@.5.I 7.@X@X@X+X#X+X+X$X$X#X#X=X=X:X-X-X7X<X-X7X<X7X-XpX;XpX8X7X8X;X8X7X7XaX8X8XaX7X8X;X8X;X7XpXaXnXAXPXKXKXDXFXKXKXFXDXDXFXFXFXFXKXFXFXFXKXKXFXFXKXKXKXLXLX$ # p.q.q.%.} w.u.q.( 3 3 # 3 ^ ( $.q.p.q.4.# h !.z.v.v.v.c.v.c.c.c.v.n.n.n.n.n.m.n.n.n.n.n.n.n.M.n.c.N.n.n.m.v.iXg o * $ 1 * & $ o @ & $ o O * o # { ] ] ] ] ] ] ] ] ] ] ] ] ] ] ] ] ] ] ] _ 3 @ O $ o O @ * $ * & & - : . - ~.T.v.c.n.n.n.n.m.m.M.M.m.M.M.m.m.W.yX~.  hXDXFXDXDXDXDXFXKXKXLXLXKXLXFXKXKXKXLXKXKXKXDXAXAXMXsXdXsXdXsXfXfXdXfXdXfXdXfX9X9X9X>X>Xp.p.p.P.5X>X>X5X>X>X X X>X>X>X>X>X>X5X5X5X>X>X>X>X5X X>X>X>X5X5X>X5X>X X>X X>X>X X4X X X>X>X Xa.u. Xa. X X X X X@.6 w ^ ^ @.@.@.@.@.) ^ @.^ #.#.#.$.#.$.$.%.>.&.&.%.$.&.&.&.&.&.&.&.&.&.&.*.=.&.&.%.&.%.&.*.=.*.=.&.>.C ].).].).].T ).).{.i @ S.X.X.o.o.X.o.o.X.X.o.o.X.X.o.X.o.o.D.h $ [.).).5.).5.).T ).5.).5.).5.R ).).R T R @ 3.k.X.X.X.o.X.o.X.o.o.o.o.o.o.X.o.o.o.o.o.X.X.D. .4 3 $ o o [.}.*XzXzXcXBXvXBXcXcXvXcXcX7XcXcXcXcXcXvXvXvXvXvXmXvXvXGXmXBXvXnXvXcXvXcXvXcXcXcX2X=X}.}.}.}.|.}.].].].].T T K K G G G G J G @.G K 1.).6.5.0.[.}.}.}. X X2X2X6X6X2X6X4XvX6XvXvX9XvXvXvXvXvXvXvXvXvXvX6XvXmX9X6XvX4X9X4X4X6X6X6X6X4X6X6X4X4X4X4X4X4X5X4X4X5X5X5X4X4X4X5X3X4X5X5X5X5X5X4X5X5X5X5X5X5X5X5X5X5X5X5X5X5X5X5X5X1X5X5X5X5X5X5X>X3X>X>X3X>X>X>X>X>X3 q 4 q 9 0 % 0 % % % % % O % ",
"      X O X   X X X O + O O O ; O O O O X ; O X O O O O X ; O O O o 0 I 1.G G G G i G G I @.G @.G G 6.1.0.5.4 8.@X@XOXOX@X@X@X$X#X#X&X-X&X=X&X&X-X-X-X-X;X7X7X7X8X7X7X8XaX;X8X8XpX7XaX;X8X8XaXpXaXpXpX7XpX7XpXpXMXSXKXKXKXDXFXKXFXFXFXFXKXJXFXFXKXFXKXFXFXFXFXFXDXLXSXo # u.q.} %.%.} %.q.q.2.6 6 # 3 3 3 3 ( 4 @ !.T.z.v.v.v.v.n.c.c.n.c.n.c.n.n.n.n.n.n.n.n.n.n.n.M.n.n.n.n.n.m.M.T.!.o $ * $ & & & & o & & + $ @ # 6 [ ] ] ] ] ] ] ] ] ] ] ] ] ] ] ] ] ] ] { Q @ @ @ & $ @ $ $ - * & & 1 o o F.~.v.c.n.c.M.n.m.m.M.M.M.M.m.M.m.W.~.iX  j FXLXKXLXFXKXLXLXLXLXLXLXLXLXKXLXLXLXLXLXKXLXLXLXLXKXKXFXAXCXfXMXdX9X9XdXvXfXvXdXfX9X9XdXdX9X9X>Xp.p.t.4.p. X>X>X>XP. Xa. X Xa.>X>X>X>X5X>X>X X X X>X>X X>X4X5X>X>X5X.X4X>X>X X>X X X X Xa.i. X X X^ 6 6 6 r r 6 6 3 6 4 6 5 6 6 w 6 6 4 6 6 6 w w ^ ^ ^ #.$.%.&.$.#.$.&.$.&.&.&.&.&.>.&.&.&.%.&.&.=.*.&.*.>.6.t 5.5.].).).).5.T 7.T o  .S.X.o.[ o.X.X.o.o.X.X.X.X.o.o.k.X.U.4 u ).W T ).].T ).].].T T ).T ).).T ].).).E @  .+.X.X.X.X.o.o.o.o.X.o.o.o.o.o.o.o.o.o.[ X.D.7 @ i u P 5.W T F N v b , 2 D Y ).{.XXcXcXcXcXcXcX2X=X=X|.=X[.[.5.5.K J F D F F F S Z G F F G T K 5.].[.}.{.}.}.=X}.2X=X2XcX6XcX9X8X9XvXvXvXvXvXvXvXvXvXxXvXvXvXvX6XvXvX6X9X6X6X6X4X4X9X6XxX4X5X4X4X4X4X4X4X4X5X4X4X4X4XxX4X4X6X4X5XxX9X4X5X5X5X5X5X4X4X5X5X4X4X4X>X5X4X4X5X5X5X5X5X4X5X5X5X5X5X5X5X5X5X5X5X5X5X5X5X5X5X5X5X5X5X5X5X5X5X5X5X5X5X>X1X>X5X5X5X>X3X3X4X X4X X3 q 9 9 4 0 0 % % % % % % % % ",
"O O O O O O   X O O O O O O X X O ; O ;   O X ; ; X X O ; X O O O O O % > i G G I 1.I G I @.K G G G G 1.0 % I 3.{.@X@X@XOX{.OX@X#X$X$X&X$X&X-X7X&X-X7X-X<X7X7X7X7X8X7X7X7XpX7XpX8XaXpX7XaX7XpX7X8XpX8XpX8XpX8XpXpX-XpXMXJXLXKXFXFXFXKXFXFXFXDXDXFXFXFXFXFXFXFXFXSXJXIXSXo @ 4.u.q.} } q.} } %.q.q.t.q.` i ( # @ | !.l.c.v.c.c.v.c.z.n.c.v.n.v.c.n.c.n.n.c.n.n.n.n.n.n.n.n.n.n.n.n.v.m.~.j.o - 4 $ & & $ & & & $ $ @ 3 } ] ] ] ] ] ] ] ] ] ] ] ] ] ] ] ] [ ] ] _ 6 @ & o * & $ & & $ & > 1 - . j.!.m.m.c.n.c.n.c.n.m.m.M.M.M.M.T.V.W.iXj   KXKXJXIXIXLXLXLXLXLXLXLXLXKXLXLXLXLXLXLXLXLXLXKXKXKXKXKXLXLXLXLXLXJXSXNXMXsX8X7X9X9XfXfX9XdX9XdX9XfX9XdX9X5Xp.q.2.u.p.a.>X>X>X>X Xa. X X Xa. X X Xa.a.>X5X>X5X X>X5X4X>X>X X X>X X Xi. X>X Xa.5Xu.3 6 w 6 6 t w e r i e r r r r t t e w r t ^ ^ ^ r ^ Q w w 6 w ^ ^ #.$.&.&.&.$.#.&.&.$.&.$.&.&.&.>.>.-.*.&.>.>.w ].].].).].].].5.T 7.I @ 4.S.X.X.X.X.o.o.o.X.o.X.o.o.k.X.G.S.@ [.T T ).).5.T T ).T ).T ).).).].].).).).5.@ 8 +.X.o.X.X.o.o.o.o.X.o.X.X.X.X.o.o.o.o.o.y.h @ 8.].[.7.].).).7.[.[.[.).7.W W T H S N B 0 B B I 5.].}..X=X2X2X=X2X8XcX6XvXvXvXvXvXvXvXvXvXvXvXvXvX6XvXvXvXvXcX2X6X2X9X2X2X2X6X2X2X3X6X6X6X6X6X3X2X3X3X6X9X3X3X3X3X5X6X3X6X3X6X9X6X6X6X9X6X6X6X6X5X6X3X6X6X5X6X9X4X9X4X4X5X5X6X6X4X9X5X5X5X5X5X9X5X5X5X4X5X5X5X5X5X5X5X5X4X5X5X4X5X5X5X5X5X5X5X1X5X5X5X5X5X5X5X5X5X4X5X5X5X5X5X5X5X5X5X5X5X5X5X>X5X5X>X5X5X4X3X>X>X>X>X X4 9 9 0 9 % 0 % % % % % % % @ ",
"O O O O O O ; O O O O X O O O O X X X O ; X O X O X O O X O O X O % O X o o o & % % % : % > % % % 0 > % y y u 1 : y T {.-X-X$XOX$X$X$X$X=X-X-X-X-X-X-X-X7X-X7X<X7X;X7X7X7X7X7XpX7X;X8XaXpX7X7X8XaX7XpX8X8X7XpX8XaXpXpX;X;XpXMXJXKXKXFXFXKXFXKXFXDXDXFXDXFXFXFXKXFXJXJXIXJX@ @ 1.6.q.$.} } %.:.:.} } %.2.p.4.@ j Q.l.l.k.c.v.c.k.v.c.c.v.c.v.n.c.n.n.c.n.n.n.n.n.n.N.n.n.n.n.m.n.N.n.m.m.~.g o - & & * & & * $ @ @ 3 Q { ] ] ] ] ] ] ] ] ] ] ] ] ] ] ] ] ] ] { Q # o & o & * O & $ & > * - o 7 uXT.m.c.n.n.n.n.n.n.n.M.m.m.M.M.B.E.yXF.X hXLXFXPXLXIXIXLXLXLXPXLXLXIXLXLXIXLXIXIXLXLXLXLXLXLXLXJXLXKXKXKXLXLXLXLXJXLXJXLXDXSXsX8X,X1X9X9X9X9X9X9X9X9X5X9XdX9X3X>X Xu.$.2.u.a. X>Xa. X Xa.p.a. X X X X X X>X X X X X>X X>X X Xa. X Xa. X.Xu.3 #.( ^ ( t t r r w e e e e e e e e w r w e w w w r r w ^ ^ ^ ^ r ^ Q w Q ^ ^ $.>.$.&.&.&.%.>.%.&.=.&.&.*.=.&.>.G @.].5.5.5.].T ).T T [.o # S.+.X.X.X.[ o.X.X.X.X.o.o.X.D.U.# u ].T ).5.).).).].T ).5.].T ].].).T ).5.T ].y 3 S.X.[ X.X.o.[ o.o.o.X.o.o.o.o.o.o.o.o.o.S.@ G [.).).T ).E T ].T ].).).7.].).[.].[.[.cXBXvXvXvX6X6XcX2X6X6X2XcX6X6X2X2X6X2X2X2X2X3X2X2X3X2X2X6X6X6X2X2X2X2X6X6X2X3X2X6X6X9X6X6X3X9X4X6X6X7X6X6X9X9X6X6X3X4X3X3X3X6X6X3X9X9X6X6X5X6X6X6X5X5X9X6X9X9X5X6X4X5X6X5X5X4X4X4X9X5X5X5X5X5X5X5X9X5X5X5X5X9X5X5X9X5X5X5X5X5X5X5X9X5X5X5X5X5X5X5X5X5X5X5X5X5X5X5X5X5X5X5X5X9X4X5X5X5X5X5X5X5X5X5X5X5X5X3X5X5X5X5X5X3X>X2X3X>X4X}.3 4 4 0 4 0 % % % % % % ; % % ",
"; O O X ; X O O O O X X X X X   X X X X     O O O X O O O O + : ; : : ; < 2 : > < > > 0 y > y y Z y y y y 2 u L y 2 2 2 n I {.-X&X-X=X$X$X&X-X-X<X-X-X<X-X-X<X-X-X7X-X,X-X7X7X7X;X7X7X8X8X8X7X7X7X8X7X7X7X8XpXnXaXaX8XaXaXaXpX8XaXCXJXLXLXLXLXIXLXLXLXLXPXLXLXLXJXLXLXIXPXJX0 @ q 1.u.2.} } } %.q.O.2.t.1.@ 7 Q.F.l.c.c.k.c.c.c.c.n.v.n.v.v.n.n.v.n.n.n.n.n.n.n.n.N.n.n.n.m.m.n.B.n.c.v.T.E.- o $ - * & $ @ @ @ 3 ~ { ] ] ] [ ] ] ] ] ] ] ] ] ] ] ] ] [ ] ! _ 3 @ $ + $ @ % + & $ & > - . $ uXm.m.c.c.n.c.M.M.M.n.m.m.n.M.M.m.E.~.Q.X &XKXLXLXLXIXIXLXLXLXLXLXIXIXLXIXLXIXLXIXLXIXIXIXLXLXLXLXIXLXLXLXLXKXLXLXLXKXKXJXFXKXKXLXJXLXSXCXMXsX,X7X:X,X>X9X9X5X9X9X5X9X9X5X5X X4.2.@.2.6.a. X X Xa. X Xa. Xa. X X>X>X>X X X>X>X Xa.>X X X>X Xw @.^ @.r t i t t e e e e e e w e e e e e e t e w e r w w w w t ^ t w Q ^ ^ ^ w Q w ^ ^ $.&.&.>.>.;.>.>.;.%.;.%.$.>.w C C K 5.5.].].].].7.E @ 3 S.D.X.X.o.o.o.o.X.X.o.o.k.P.8 % ].].5.K T ).5.K T ).).K ).T ).K ).5.5.).).5.I @ | +.X.X.X.X.o.o.o.X.X.o.X.o.X.o.o.o.o.+.| & 5.).].).).5.].T ).[.).E ].].].).].).).). X2X7X2X2X2X2X6X2X2X2X2X2X2X6X2X6X3X3X2X3X2X2X6X6X2X7X6X2X2X6X2X2X6X7X6X3X6X2X6X6X2X6XvX6X9X6X6X6X6X6X6X3X3X3X6X6X6X9X6X6X9X9X6X6X6X4X6X4X6X4X9X6X5X4X6X9X5X5X4X5X9X6X5X5X9X9X5X9X4X9X5X5X4X5X5X5X5X5X5X5X9X4X5X5X5X5X5X5X5X5X5X5X5X5X9X5X9X5X9X5X5X5X5X5X5X5X5X5X5X5X5X5X5X5X5X5X4X5X5X5X5X5X5X5X5X5X5X5X3X4X>X5X>X3X>X>X>X:X>X X3 q 9 9 0 0 0 % % % % % % % & ",
". X X O   X X O X O ; X ; O ; O ; + ; : : < < : < 2 < 2 v 2 2 < 1 < 1 2 2 1 2 2 2 2 2 2 2 2 2 2 2 2 y Z y 2 2 2 A A S P A y n 2 P W $X;X-X=X$X-X-X-X-X=X-X=X=X=X&X-X-X-X-X<X-X-X7X7X7X;X;X8X7XcX8X8XcX8XcX8X7X7X7X8X7X7X7X7X7X-X-X=X#X-X7X7X7X7X-X-X=X&X#X#X@X#X@X8.9.8.8.8.2X3.0 @ 5  .2.q.2.u.$.2._ 6 @ h F.T.b.l.c.c.c.v.v.c.c.v.c.v.n.n.v.n.n.n.v.n.n.n.v.n.n.n.n.n.n.n.m.M.M.n.c.c.m.T.yX- $ @ @ @ @ # 6 Q { ] ] ] ] ] ] ] ] ] ] ] ] ] ] ] ] ] ] ] { ! 3 # @ * o & @ & & + & $ $ o - !.T.c.c.n.n.n.n.M.n.n.M.n.m.m.m.M.E.W.!.o Z.KXJXKXLXAXLXLXLXLXFXFXLXPXLXIXLXLXIXIXIXIXIXIXIXIXIXIXIXLXJXLXLXLXLXKXKXLXKXKXKXKXKXFXFXFXKXKXKXKXLXJXDXSXNXNX9X7X:X:X,X3X:X3X9X6X5X5X5X5X4X Xu.2.2.6.6.u.a. Xa. Xi.p.i. X Xa. X X X X X X Xa. X' ^ ( ^ ^ ( r r r t r e e e e q q e e e e e q e e e e e e w e e e w t w w w w ^ ^ ^ ^ ^ Q 6 Q ^ #.$.%.>.%.>.>.>.%.>.>.6.$.@.@.@.C w C C F G R 5.3 3 ~ t.+.X.X.X.X.+.X.o.+.D.h o T ].E ).K ].].K ).).5.T ).T ).T ).K ).T K T T W o | S.X.X.X.X.o.o.o.X.o.X.o.X.o.o.o.o.k.+.~ # 8.5.).T T R ).T ).T ).].).).].).).].5.|.zX2X2X2X2X2X2X2X2X6X6X6X2X2X,X2X2X2X3X2X2X6X2X2X6X2X2X2X6X6X2X6X6X6X3X2X6X6X6X6X6X6X6X2X6X3X2X6X6X6X6X6X6X6X6X6X6X6X4X6X6X6X6X5X6X4X9X6X9X5X6X6X5X6X9X5X4X5X6X6X4X5X9X6X5X4X4X5X4X5X9X4X5X9X5X5X4X5X6X4X5X5X5X5X5X5X5X5X5X5X5X5X5X5X4X4X5X5X5X5X5X5X5X5X5X5X5X9X5X9X5X5X5X5X5X5X5X9X5X5X5X5X5X5X5X5X5X5X5X5X4X5X5X>X5X4X:X>X>X2Xp.3 4 q 4 0 0 % 0 % % % % O % % ",
"X O ; + ; + + : < = < = < : < 1 1 2 < 2 2 < < 1 2 2 2 2 < 1 < 2 1 1 < 2 1 2 2 1 2 2 2 1 2 2 2 2 2 Z 2 n 2 2 y 2 A A A A A A P A P 2 y R @X=X-X-X=X$X=X7X-X-X;X=X-X-X$X=X=X$X$X$X@X$X$X{.9.OX{.[.9.[.8.8.7.8.7.7.R E E R R R R I R R I R R R 5.7.9.[.8.}.9.[.8.}.8.{.}.8.}.8.}.{.8.S @ @ 3 u i e 8 4 @ # | F.z.h.l.c.l.c.k.c.c.c.c.c.c.c.v.c.n.v.c.n.c.n.n.n.n.m.n.n.n.v.m.n.n.n.n.n.n.m.m.V.m.l.$ o # 6 8 ~ ~ ! ] [ ] ] ] ] ] [ ] ] ] ] ] ] ] ] ] ] ] { / 6 @ @ * & o & & & $ & 1 - . $ F.!.z.n.c.c.n.n.n.n.n.n.n.n.m.v.b.T.W.~.j - FXLXJXJXLXLXLXLXLXLXKXKXLXLXLXLXLXLXIXLXPXLXLXLXIXLXIXIXLXLXKXKXKXFXKXKXFXKXKXFXKXFXFXFXFXFXFXFXDXFXFXKXJXJXDXJXSXSXSXNX8X7X2X X:X:X:X2X3X2X>X3X2X>X X0.6.2.@.2.2.6.p. X Xp. Xp. Xu. Xu. X X Xu. X^ ( ^ @.^ t t r r t e e e e 9 e e e q e e q e q e e e w e e e w e t e w e w w t w t w t t w ^ w ^ ^ ^ #.$.>.>.%.;.;.;.;.%.&.$.u.$.6.$.@.@.@.t t t 3 3 8 t.t.+.S.X.X.+.S.S.( @ I 5.T ).).T T K T ).).5.T T ).K ).T ).).T /.T T ).& 8 S.X.X.X.o.X.o.X.o.X.X.X.o.o.o.o.o.o.D.8 0 [.).T ).T ).5.5.).T ].).).].).].].).5.].2X2X2X2X2X2X6X2X6X2X2X2X6X2X2X3X2X2X6X2X6X2X6X6X2X6X6X6X2X2X6X6X2XcX6X6X2X6X6X2X6X2X6X6X6X6X6X9X3X6X6X6X3X6X6X7X3X6X3X3X6X3X6X5X3X3X6X6X6X6X6X5X6X6X6X3X6X5X6X6X4X6X5X9X4X5X3X5X6X3X5X6X5X5X5X5X6X5X5X5X5X5X9X5X4X5X5X5X5X5X5X5X5X5X5X5X5X5X5X9X4X5X5X5X9X5X5X5X5X5X5X5X5X5X5X5X5X5X9X4X5X5X5X5X4X5X5X5X5X5X5X5X4X>X5X>X3X>X>X3X0.4 q q 4 % 9 0 % % % % % % % % ",
": 1 2 1 1 2 2 1 1 n 1 < 1 1 : : < < 1 < 1 2 2 2 1 < 1 1 1 2 2 1 2 2 2 1 2 > 2 2 2 y 2 2 2 2 2 2 2 2 2 1 2 2 2 1 2 1 2 2 > 1 1 1 1 u A 2 : 1 P R I E I P P P A P A A u A y y Z S y y y P P S S P P G P P G P P P I I I I I I R T R R 5.R R I R 5.R 5.5.8.}.}.}.[.}.}.5.}.].}.8.}.0.}.}.5.u % @ o o 7 A.rXT.l.k.c.k.l.c.l.v.c.l.k.v.c.v.z.v.v.v.c.v.c.n.c.n.v.m.n.n.c.n.n.n.n.n.n.v.n.n.n.v.m.m.E.!.@ #  ..._ ] ] [ ] ] ] [ [ ] ] [ ] ] ] ] ] ] ] ] ] / Q 3 @ @ * o $ @ $ & & - & - o - Q.T.m.m.v.n.n.v.v.n.n.c.n.n.v.n.m.m.E.iX- = KXLXLXDXLXLXKXJXKXKXJXLXKXLXLXLXKXLXLXKXLXKXJXKXLXJXLXKXKXLXJXKXKXKXKXFXFXFXFXKXKXKXKXKXKXKXLXJXJXJXJXDXSXDXJXIXJXJXJXJXJXJXJXSXBXvX2X0.1.5.6.5.6.5.0.6.0.0.}.0.6.6.0.1.@.1.1.6.0.p. X Xp.u.p.6.p.u.6 #.( r ^ t t t r i r e e e e e e e e q e e e q e q w q e e w 9 e e w e w e e t w t t w t ^ t w ^ ^ w Q Q / #.%.=.u.;.;.i.-.*.$.&.$.$.$.>.>.6.6.6.6.@.6 # 6 h ....|  .8 # # I ].R T 5.T T 5.).K 5.T T ).K T ).K ).K Y T T J ).).i o S.| X.X.o.o.X.X.X.X.o.o.o.o.o.o.k.k.U.7 S W T T T ).].).T T ).T ).5.).5.).).].].5.=X2X2X2X2X3X6X2X2X2X2X6X2X2X2X6X2X6X2X6X2X6X6X2X2X6X2X6X6X6X6X2X6X6X2X6X2X6X6XcX6X6X6X6X6X2X2X6X2X6X3X6X6X6X6X6X9X6X6X9X3X3X6X3X3X9X6X4X6X3X5X6X5X5X5X5X5X6X5X6X6X5X6X5X6X5X5X3X5X5X5X5X6X5X6X5X5X5X5X5X5X5X5X4X5X5X5X5X5X5X5X5X5X5X5X5X5X5X5X4X4X5X5X5X5X5X5X5X5X5X5X5X5X5X5X5X5X5X5X5X5X5X5X5X5X5X5X5X>X5X5X>X>X4X5X3X2X>X X>X6.4 q 4 0 0 % % 9 % % % , @ % @ ",
"2 : & + : 1 1 2 1 2 1 1 1 < : 2 2 1 1 1 1 < : 1 1 1 1 1 1 < : : : : : : : : > & : : : : : 1 1 < 2 2 1 A P P S P P T R E 9.9.9.9.+X#X@X$X=X=XOXW P : 1 P S I I I P I I P I I I P T P F I P I P I P S J I P I I I P I J I I T T T I I T 5.R I T T 5.T I 5.R 7.8.}.}.}.}.[.}.8.].0.7.].{.}.}.}.}.}.u o I.Q.l.l.c.k.c.h.k.c.l.c.c.c.c.z.c.c.v.n.n.n.n.c.c.n.c.v.v.n.v.n.n.n.n.n.n.n.M.n.n.m.m.n.c.T.~.~.@ # Q ..} [ ] [ ] ] ] ] ] ] ] ] ] ] ] ] ] [ ! _ Q # @ # * $ $ $ * & $ $ - @ o h ~.T.v.b.c.m.n.v.v.n.c.v.n.v.v.M.M.m.W.jX7 X dXKXFXDXFXFXFXKXKXKXKXKXKXKXKXKXFXJXFXFXKXKXKXLXKXKXKXKXFXKXKXJXJXDXJXIXKXKXKXJXJXJXSXSXSXBXNXNXmXfXsX8X8X7X,X2X#X:X#X}.}.@X0.}.0.8.5.0.}.}.}.].5.5.5.@.5.}.6X9XBXBXBXBXBXBX9X2X X1.G ( @.2.6. X Xp.6.w ^ ^ @.t t r r r r e e e e q e q q e e q e q e q e q q e e e e w e e e e w t w w w t e w w ^ ^ w ^ ^ w ^ w w ^ &.%.u.q.u.<. X<.&.&.&.&.%.&.$.$.$.$.u.$.` 6 3 3 # # # 6 ( @.e 4 q 9 B G G J J T ].5.).T T T R T T ).T ).T T T T 7.o 8 S.X.X.X.[ X.o.X.o.o.o.X.o.o.o.o.k.S.@ I T T T T ).T T ).).T ).T T ).).5.).].].7.=X2X2X2X2X2X2X2X2X6X6X2X2X6X3X2X2X3X7X6X2X2X2X6X2X6X6X2XcX2X6X2X6X6X6X2X6X6X6X2X6X6X2X2X6X6X3X6X6X6X6X3X2X6X3X9X3X6X9X6X5X6X3X6X3X3X6X6X5X9X3X3X3X3X3X3X3X3X5X5X6X6X5X3X6X5X5X5X5X5X5X5X9X5X5X5X5X5X5X5X5X5X5X5X5X5X5X5X5X5X5X4X4X4X5X5X5X5X4X4X5X5X5X6X5X5X5X5X4X5X5X5X6X5X5X5X5X5X5X5X5X5X5X4X5X4X5X5X5X5X5X>X3X3X3X>X>X:X>X4X6.4 q 9 4 0 0 % % % % % % O % % ",
"= + = = X = + : < + + < + + : + : + : : : : 1 1 < 1 2 2 n P P P P Y Y E T E ).W ).W Z.).[.[.{.{.OXOXOXOX+X{.+XOXOX+X+XOX{.Z.+X$X$X$X$X+XOXOX$X=X-X-X9.y > u P P P I I P P Y P F P P I P P F F P P F P S P S F P T P I P I I P T G T I R T I I I I R T R 5.I K 1.5.].{.}.}.].}.8.[.0.6.8.8.}.}.8.=Xo @ 1XF.l.l.k.k.c.l.c.k.c.c.k.c.c.v.n.v.z.z.n.v.v.n.c.c.n.n.n.n.n.n.n.c.n.v.n.c.n.n.n.m.n.z.n.v.T.uX| # 3 _ } [ ] ] [ [ ] ] ] ] ] [ ] ] ] ! ! ~ 3 @ # $ $ $ $ $ & $ - 1 - o o | !.T.v.m.v.c.n.v.m.n.c.n.n.n.m.m.v.m.W.yX- o FXKXJXKXJXJXKXFXFXKXLXKXLXKXLXLXKXKXJXDXDXSXCXCXNXNXNXMXsXsX8XpXpX<X7X,X:X:X#X#X#X0.@X@X@X@XA.@X0.A.}.A.#X#X}.@X#X#X}.}.A.}.{.0.8.].8.5.5.5.5.5.5.5.5.5.5.5.5.G C u I 5.}.2XvXBXBXSXBXBXvX3X#X1.q 5 G ( ^ @.^ r ( ^ i t r r e e u e q e e e 9 q e q e q e e q e e 9 w e e 9 e w e e e e e e w e t t t w w r w w r ^ ^ Q 6 ^ $.>.;.<.i.<.u.-.&.&.&.$.%.&.&.%.$.$.%.u.2.q.2.2.2.2.2.$.6.>.6.6.#.G t e 9 9 9 9 C C K K K 5.].5.5.T T I T T R u @ S.O.X.X.X.X.o.o.[ o.X.o.o.o.o.k.K.| % W T ).).K T T T T T ).T 5.).).T ).5.).].].XX2X2X2X2X2X2X2X2X2X2X2X2X2X2X2X2X2X3X2X2X6X6X2X6X7X2X6X2X6X2X6X2X6X6X6X6X2X6X6X2X2X6X6X6X6X6X6X3X3X6X3X6X6X6X3X3X2X3X3X6X3X3X3X6X6X5X3X6X5X5X3X5X9X3X3X>X5X6X6X5X6X3X5X5X5X4X4X4X5X5X5X5X4X5X6X5X5X5X5X5X3X4X5X5X5X5X5X5X5X5X5X5X4X5X5X4X5X5X5X4X9X5X5X5X5X4X5X5X4X6X5X5X5X5X5X5X6X5X4X4X4X>X4X>X5X4X>X4X5X>X3X>X>X>X3X>X X2X3X6.4 q 4 9 4 0 % 9 % % % % % % & ",
"1 = f j L f f f L P P U P W E W E E W W W W ).9.[.[.).Z.[.).Z.9.9.[.W [.9.W 7.W 9.W 7.W W 7.W W W 8.W 9.9.9.9.9.9.9.9.OX@X@XOXOX$XOXOX$X$X$X@XOX@X@X=X7X=XR y 0 A S I P P S P I S F P J P P F P G P F P S P S S F S S F P J P I P I T P I I T F I I J I T I T T T J I T 8.}.[.].].8.5.}.}.}.6.[.}.}.o @ !.F.k.l.c.k.c.k.b.c.h.c.k.k.c.v.v.v.m.v.n.c.n.c.c.m.c.n.n.n.n.n.n.n.c.n.n.n.n.n.v.n.n.n.v.b.E.~.U.3 # 3 ~ } } ] ] ] ] ] [ ] ] ! } ! Q 3 # @ @ * * * & $ & - & $ O . $ rX!.T.m.v.v.c.v.z.n.v.n.c.n.v.n.m.m.m.R.jX- o fXSXNXMXdXfX9XsX8X8X7X<X7X<X,X-X&X:X#X#XL.#X#X:X:X#X#X:X:X#X:X&X#X:X:X=X:X:X&X:X:X2X2X:X=X:X2X:X#X:X}.}.}.}.8.8.8.5.5.5.5.5.5.5.3.5.5.5.T 5.5.5.K 5.5.].5.K 5.5.5.5.5.5.R J G u G I 5.@X2X9XBXBXBXBXvX3X0.w t t r t t t e r r e e e u e e e e q q q q e q e q q e q q w w q w e e 9 e w q w e w w w w w w e w t t w t t ^ ^ Q 6 ^ #.&.%.i.,.i.>./ %.>.$.$.&.$.&.%.$.$.$.$.$.$.$.&.$.$.&.$.$.#.>.$.&.>.6.$.6.$.$.@.@.w w q 4 4 9 G G G I T T 7.o 8 S.X.X.X.X.X.o.o.X.o.o.o.k.k.D.!.3 y R T T T T T ).).T T T ).T ).T ].T ).7.W T 2X2X2X2X=X2X2X2X2X2X2X2X2X2X2X2X2X2X2X6X2X6X2X6X6X2X2X6X6X6XxX2X6X6X7X6X6X6X2X6X2X6X6X6X2X6X2X6X2X3X6X6X6X3X6X6X6X6X3X3X6X3X4X6X6X3X3X4X3X3X3X>X3X3X4X3X3X3X5X3X6X4X5X3X5X4X4X>X4X3X4X4X4X4X5X5X3X>X>X3X5X>X5X5X5X4X5X5X5X4X3X5X4X4X>X5X>X4X4X>X4X4X5X4X5X9X5X5X4X4X4X5X4X4X3X4X3X5X5X5X9X9X4X9XvX9XvXxX9X9XvX5X4X5X6X4X3X3X3X:X@.3 9 4 9 % % 0 % % % % , % % % ",
"j U s.d.d.f.s.L j P U W Y U E E T E T E E E E E E E E E Y E E E E E W E E E W W 7.W 7.W W 7.W 9.W W 7.W 9.W 9.9.9.Z.OX9.9.9.OXOX+X@XOXOX@XOX+X@X+XOX@XOXOX-X-XZ.R P y > y A S I P P P P F S P F P F S F P F F P S S S S S S F S F S F F F I I T I J J I I I I T I T T T K I 5.5.}.}.].}.].0.[.6.8.}.8.o 7 ~.l.k.k.c.k.c.k.b.c.c.c.c.v.v.z.v.z.c.z.c.c.v.n.c.c.n.c.v.v.c.n.n.n.n.n.n.n.m.n.n.m.n.c.c.m.m.R.~.j.3 # 3 Q ~ } } } ] ] [ } ~ Q 3 # @ @ * : * * & - > 1 $ $ o o j.~.R.m.l.v.c.n.v.c.n.v.n.c.n.b.n.m.m.m.!.iXh o ,X:XA.L.A.#X:X:X:XL.:X:X:X:X:X:X:X,X:X:X:X,X2X,X:X:X:X:X:X:X:X:X:X:X2X:X:X#X#X}.@X}.@X8.}.8.0.8.5.5.8.8.8.5.8.5.5.5.5.5.8.5.5.5.5.5.T T 1.5.T T K T 5.5.T T 5.K I T 5.T R 5.5.T 5.5.R I G S G G I ].:X2XBX6X9 G t t i i r t r r e e q q e q q q q e e 9 q q e e q q e q q 9 q 9 e w e w q w 9 e q e q w B e w w e e t t t t t w w w Q ^ %.$.i.>.i.,.&.&.>.&.$.&.&.&.&.$.&.>.&.&.$.&.&.%.&.&.*.>.>.u.*.,.,.<.u.u.u.a.u.u. Xu.0.6.@.@.t r q 0 , 0 % @ 4.+.X.X.X.o.X.o.X.X.o.o.o.o.J.| @ T T ).K T T T Y T T ).T T T T T T ).T ).).5. X=X2X2X2X2X:X2X2X2X2X2X2X2X2X2X2X2X2X2X2X2X2X2X2X2X2X6X2X2X2X6X2X2X6X2X2X6X6X2X6X6X2X2X6X6X3X6X2X6X2X3X3X3X6X2X6X6X3X4X4X3X3X4X4X4X3X3X3X3X3X3X3X>X3X4X3X4X3X4X6X6X5X3X4X4X3X3X6X4X3X2X>X3X6X3X3X3X3X2X3X3X4X6X4X6X5X3X4X5X4X5X4X4X4XvX4X9X9XvX5X4X4X9X5XxXxX4X5X6X4X4X3X2X X:X X X X}.u.6.u.6.6.$.@.@.@.@.^ G ^ w q w e e 4 w 4 q 9 9 0 0 0 % 0 % % % % % & % ",
"f j f.d.d.d.d.U j f f W E Y U Y U E E E E E E E E E E E E E E E E R R E E E E E E E E E 7.W 7.W W 7.7.9.7.9.9.9.7.9.9.9.9.Z.9.9.{.{.OXOXOX@XOX@XOX@XOX@X$X@XOX$X=X=X$X{.W P y : 2 A S S S P S P S S F P P F F S F P P F S F S A F P P F P F P F P J I F I J T I I T I T T T I J T 5.5.8.5.}.0.5.}.8.}.8.o g Q.l.k.c.k.c.l.k.l.c.c.v.c.k.z.c.v.v.v.c.v.n.v.c.c.v.n.c.n.n.v.c.n.n.c.c.c.n.n.n.c.n.n.n.m.c.z.T.~.E.l.8 @ # 3 8 Q ` ~ 8 6 # # # * * * * * 1 - $ = o . . $ | E.E.m.z.z.c.c.n.c.n.c.c.v.c.c.m.v.b.v.b.T.!.7 . #X9X:X:X:X2X:X:X:X#X:X:X:X:X:X:X:X,X:X#X:X2X:X:X:X#X#X:X#X0.#X}.0.0.0.0.8.8.8.5.8.8.8.5.8.8.5.7.5.5.5.5.5.5.5.5.5.5.7.5.5.R 5.T 5.5.T T T T 5.T 5.T T T K K I K T T 1.T T T R T 5.T K I 5.K I 5.5.I G S G u G e @.@.t t r t t r e e e e q e e q e q q q q q q q q q q q q q q w q q 9 q w q q w q w q w e e 9 9 e e e e w w w t t t w ^ w w $.#.u.u.i.*.&.&.$.&.' &.&.&.&.$.$.*.%.;.%.*.u.;.>.u.u.&.q.u.u.u.<.u.u.,.u.;.u.u.u.>.>.u.u.u.u.6.6.1.@.1.4 # ..+.X.X.o.o.X.o.o.o.X.o.k.F.4 u T T T T J T Y T T ).J Y T T T ).).T T 5.T T *X2X2X X X2X2X2X2X2X2X2X2X2X2X2X:X2X2XcX2X2X6X2X6X2X6X2X2X2X2X6X2X6X2X2X6X2X6X2X6X2X6X2X3X2X3X2X3X6X3X3X3X6X2X6X6X6X3X3X4X4X4X3X3X2X3X3X6X6X6X6X3X3X6X2X2X3X3X3X6X6X6X6X6X9X6X6XvX6X9X6X6XvX6XvX9XvXvX9X6X6X6X6X6X2X2X3X:X X X}.p.}.u.0.6.6.6.5.$.1.@.^ @.^ @.( t ^ ^ t ^ ^ ^ ^ ^ t ^ @.#.#.@.@.#.$.$.$.6.$.>.6.6.6.>.6.6.>.$.$.t w 4 9 4 0 4 % % % % % % & % % ",
"f d.d.Y.Y.Y.d.d.d.j j j U E E U R E Y E U Y E E T E E E E E E E E E W E E 7.E E E 7.W W E W E E E 7.W W W 7.7.W W 9.9.9.9.9.9.Z.9.8.Z.OXOXOXOXOX+XOXOXOXOX@X$X@XOX+X@X@X$X=X@X8.R P y A S A A A S F S A S A A S S S S S P S F P F S F P F S F P G P S S S F F P F P G G P G I I G I G G T 5.5.5.5.8.{.@X3.X - F.l.l.l.k.c.l.c.l.k.c.k.c.c.z.v.c.z.z.c.v.v.b.c.b.v.v.n.v.n.n.c.n.n.n.n.n.c.n.v.n.m.m.c.v.n.v.v.T.E.!.!.j.h 8 # @ 3 @ @ @ $ $ $ $ $ @ $ $ o o o 7 j F.!.W.v.k.z.z.c.v.c.c.n.v.c.c.n.m.c.c.b.m.m.T.Q.- $ #X8X:X}.p.}.:X#XA.#X:X:X#X#X#X@X@X}.0.}.0.}.8.[.8.0.5.8.5.8.5.6.8.8.5.7.5.8.5.8.5.5.5.7.5.5.5.5.5.7.5.5.5.5.5.T T 5.T T T T T T T J T K I T I J I I K I T T T T T I T K T K I K I K T T T T T 5.I K T T T I I i e i ^ t w r t r r i e e q q e q q e q e q q q q q q q q q q q q q q e q q q q q q q q q w q e e e q e B e e q e e w t w w ^ w 6 $.#.=.u.;.#.$.&.$.$.$.#.$.$.$.%.q.%.;.u.%.%.$.u.$.q.%.>.%.%.%.%.%.>.$.$.$.#.#.$.^ #._ ^ ^ ^ ^ w ^ t i e # # | S.X.[ X.X.X.o.X.k.+.D.8 @ R P H I T T T T Y T T T T T ).T T T T ).T ].).}.2X2X=X2X2X:X2X2X2X2X2X2X2X2X2X2X2X2X2X2X2X2X2X2X2X2X2X6X6X2X2X6X2X2X6X2X6X2X6X2X6X3X6X6X2X6X6X6X2X6X2X3X2X3X3X2X6X4X6X6X3X3X3X6X6X6X2X2X6X2X7X2X2X2X2X2X=X2X:X}. X}.#X}.}.}.0.5.0.5.5.1.5.5.@.I G G G G S G S e G ( t ^ @.@.@.@.@.@.#.@.$.#.$.$.6.6.>.2.6.u.6.u.6.u.u.u.u.u.u.u.u.u.u.6.>.u.>.u.u.6.>.>.>.>.>.>.>.$.$.$.#.$.6.r 4 q 4 9 % 4 % 4 % % @ % % % @ ",
"s d.d.Y.Y.Y.Y.d.d.s.f f W f.Y U E E U E E U E T R E Y E E E E E E E E E E E E E E E E E E E W W E E W W W W 7.7.7.W 7.9.9.9.9.9.9.9.Z.9.OXOXOXOXOXZ.OXOXOXOXOX+XOXOX+X@XOX@X@X+X$X$X[.P 2 1 2 A A A P A S S A S S A S P A A S S S P P S S S P F F P G F I F P G P I G I P I I G I G I I S I I 5.T 5.5.U 8.j o j Q.F.z.l.k.v.k.c.c.k.c.c.c.c.k.c.v.v.c.c.c.v.v.c.n.v.z.c.n.n.c.n.c.n.c.c.n.n.n.n.n.c.n.c.n.n.v.n.m.m.m.m.E.H.k.| h 8 7 # $ $ $ o $ $ - 7 g | C.F.H.T.v.v.v.m.v.v.l.c.c.c.c.b.v.c.v.c.c.v.m.z.~.F.7 $ A.,X}.:X}.}.}.A.}.0.0.8.8.5.8.5.5.3.5.5.8.5.5.7.5.7.7.5.5.5.5.5.5.5.5.5.R 5.5.5.5.R 5.5.T 5.R T 5.T R T 5.T T 5.T T T T T T T T T T T T T I K I K I J J I J I K T T K T K I T I T T T T I T I I J T T J I I I I G e G t ^ r t r r e e e e q e q q q q q q q q q q 9 q q q q 9 q q q q q q 9 q q q w w q q q w q q 9 w q q w q e w q w e w e t w w Q $.$.&.$.$.$.$.$.$.$.$.&.$.$.&.$.$.$.&.%.$.&.$.#._ / #./ ^ ^ ^ ^ ^ w ^ r 6 w w r w r w w w ^ r r ^ w t e 3 # ..S.| X.X.X.X.X.y.U.~ @ 0 y > > y 9 S S G J T T T T T T T T T T T T ).I }.2X:X2X=X:X:X2X:X:X:X2X:X2X2X2X2X:X2X=X2X2X2X2X2X2X2X2X2X6X6X2X6X2X2X4X2X6X3X6X6X4X6X9X6X6X6X6X6X6X6X4X2X2X2X X X X X X X}.}.}.}.].].5.5.5.T I K K G G S F S u B u y y > > y > , S S B D A A A Z F A A F F S C G @.6.6.>.>.>.>.>.>.>.u.>.6.>.>.u.u.>.6.>.>.>.>.>.>.>.>.>.>.>.>.>.>.=.>.>.>.>.>.>.>.>.&.>.>.>.$.>.$.%.$.$.&.$.$.w q 4 4 9 4 4 % % % % % % % % % ",
"f s.d.Y.x.x.Y.Y.Y.d.s.L f U U U Y U T E U Y Y U E E U E R E R E E R E E U R Y E E E E E E E Y E W 7.E E E 7.E E W 7.E U 7.W 7.9.9.9.9.9.9.9.Z.9.OXOX{.OXOXOXOXOX@X@XOXOX@X+XOX@XOX{.OX$X=XOXT 2 : 2 y A A A A Z S A S S A A S S S S S S P F P P S F P P P S S S S S P u S u S A S S u u S u S u S u u G u I U o - I.R.k.v.k.l.k.k.c.l.c.k.c.l.c.v.v.c.l.v.v.v.c.c.n.n.v.c.n.c.n.n.n.n.n.c.n.v.c.n.n.c.n.c.n.n.v.c.v.v.z.c.m.T.~.~.!.R.!.Q.T.Q.Q.Q.Q.E.!.~.T.T.b.v.v.v.v.v.v.v.v.c.c.c.c.c.k.m.v.v.v.m.v.H.yXC.  $ @X8.3.0.5.3.5.5.5.5.I 5.1.5.5.5.5.5.5.5.7.5.5.T 5.5.5.5.R 5.R R R T 5.T 5.T 5.R T T R T R 5.T T T T I T T K I K T K T K I K J T G J I G J J J T I I J K I J J J I J J I I T I I K I K K I J T K T J T I J J P J I i q t t ( t t r r r e e q i u e e q q q q q q q q 5 q 9 5 q q 4 q 9 q 9 q 4 q q 9 4 q q q q q 9 6 w q 9 6 q q e q e e e q e q t r w ^ $.$./ #.#.#.^ #.#.^ ^ ^ ^ ^ ^ ^ w w w 6 6 Q 6 w w w w w w ^ w w ^ t t t ^ t t t t r ^ t t r r r r e i i 4 @ 3 | t.t.S.t.t...# @ i i G i i G B B 9 9 9 , , , 9 y S F J K 5.5.R 5.R =X2X2X:X X=X=X2X2X3X2X2X2X2X2X2X6X6X2X6X6X2X3X2X2X2X.X:X2X X}. X}. X}.}.}.6.6.6.5./.@.@.@.G G t t t w C w t t t ^ t t @.^ t ^ #.#.H 9 y 2 N y Z Z Z y 2 N > 2 , , > , , < < , : , n Z A A A D A A Z D S D S F S B t >.>.>.>.>.>.>.>.,.>.,.>.>.>.>.>.>.>.>.>.,.>.>.>.>.>.>.,.,.,.-.>.-.>.>.-.>.-.>.-.>.>.>.%.&.>.>.$.$.&.&.$.$.$.w 6 9 9 0 0 % 9 9 % % % % & O % ",
"f s.d.Y.d.x.x.Y.x.d.d.L f j f.Y I E U U E Y E E E U E E E U E E Y E U Y R E E W Y E E Y E E E E R U E E E E E W W W W W 9.9.W W 9.9.9.9.W 9.9.9.9.[.OX9.9.{.OX[.OXZ.{.OXOXOXOXOX+XZ.OXOX+X@X$X=X=XW 1 > 2 A A A 2 A A y y y y 2 y 2 y 2 Z Z y > y > y Z u S S S S P I I I 7.7.7.8.8.{.@X@X#X=X=X=X7X=X#X2X-X8X9.o . C.~.l.k.l.v.b.c.k.k.c.c.c.c.c.c.l.c.v.v.v.v.z.n.c.c.n.v.n.c.n.c.c.n.v.c.v.n.v.n.c.c.n.c.n.m.n.n.c.n.c.v.v.v.m.z.T.m.b.l.v.v.m.v.z.z.z.z.v.k.v.v.v.c.c.z.z.v.c.v.b.c.c.c.z.v.v.v.v.!.uXj o P 8.3.3.5.5.5.7.5.R 5.5.5.7.5.5.5.5.5.5.5.5.5.R 5.1.T T 5.T 5.T 5.T 5.5.T T R R T 1.T T T T T J T T I K I I J I J G I I I G I J I K J P J T I S I J J J I I I K T I J J T K I J J T G J I J I J J I J I J J Y Y J S I B e @.t r t r r r i e q e q e q e q e q q q q q q q 5 0 q 0 9 q q 9 q 4 0 q 9 q q q 4 q q q q q q q q q q q q q e q q e e e e w w 6 6 w 6 6 6 6 6 w 6 w w r w w w t t w t t ^ ^ Q w w r w t ^ w t w t w t w w t e t e t w t t e t e r t t i t G i @ @ @ # 3 # @ $ 3 G G t t i t t i G t t G G G G G e 9 9 9 , , 9 > u F 5.}.}.}.}.}.}.6.5.5.5.5.1.1.G G G t t t w B w 9 w w w w w t w ^ ^ C #.^ @.@.#.@.#.#.6.#.6.6.6.6.6.>.6.>.6.>.>.6.u.6.6.>.6.>.>.>.>.@.9 Z N Z D F Z n n n 2 b 2 , < : , , : , , < : Z Z n D D A M D n H M D Y D F B t 6.>.>.-.>.>.>.>.-.>.>.>.>.-.-.>.>.-.>.>.>.-.-.>.,.>.-.-.>.-.>.-.-.>.-.-.-.-.-.-.=.=.%.=.>.=.&.=.&.&.&.$.$.$.w 4 9 9 9 % , % % % , % , % % & ",
"f f d.d.Y.x.Y.x.Y.Y.d.d.j L U W E U Y E U U T U E Y T E Y E Y E E E R E E U E E E E E E E E E E E E E E U E E E W W W E E E W 9.W W W 9.Z.[.[.{.{.OXOX+X@X$X+X$X$X+X#X@X+X@X$X@XOXOXOXOX[.7.W W T [.).P : : > 2 P S A F P I R E 7.7.9.[.{.{.@X$X$X$X$X=X=X=X=X-X7X=X=X=X-X#X=X$X=X$X=X$X#X$X@X@X@X#XA.#X#X$X@X7X8X$ o | ~.l.l.l.h.k.c.c.h.k.c.l.k.c.c.v.v.c.c.v.c.v.v.n.v.c.n.v.v.c.n.n.n.n.n.n.n.c.c.c.c.c.n.v.c.z.n.c.v.c.m.n.v.v.v.v.v.v.b.v.k.c.c.c.c.c.v.v.v.v.v.c.c.v.v.v.b.c.k.b.b.c.c.v.m.H.~.I.@ o 8.0.8.5.6.3.1.5.R R 5.R 5.5.T T T 5.5.I T T K T T T T K 5.T T T K T K T I K T T K I J T T G I J I I T J I K T F T I I J G J I J I F G I J P F F J F P J J J J J F I F T I J I J I T I I J I P T I I F T P P I I F I S I i 9 t ^ t t t i e e e i e e e q q e 9 q q q q q q q 9 q q 0 q q 4 q q 0 q 9 q 0 q q q 9 0 q q q 6 q q q q q e q q w e q w q e q e w 6 w 6 w r w t t w w w r r t w w w t w e e w r w t t t t t r t t r r e w w r e e t e e e e t e t e e e e i e i G 5 4 4 3 4 0 i i i e t t t t r t t t t t t t t t t G G @.@.G C G C u 0 9 9 4 9 4 4 w i C i t G i @.@.@.@.@.@.6.$.6.#.6.6.6.6.$.6.6.>.6.>.>.>.>.>.6.&.>.6.$.>.>.$.&.>.$.>.>.>.>.&.>.&.&.>.&.$.>.#.>.>.>.#.9 F F D n Z Z < n n < n v < < < < , , < , , , D Z D A n A D D D n F D D F F y G #.&.>.-.>.>.=.=.>.>.-.>.>.-.>.-.=.>.-.-.-.>.-.-.>.-.-.>.-.>.-.>.>.-.>.-.-.=.>.-.=.=.=.=.%.=.&.%.&.&.&.&.$.#.6 9 0 9 % 9 9 % , 9 % % , % % % ",
"f f L d.d.Y.x.Y.Y.Y.Y.d.d.f f U U P R U R U E E T E E Y E E Y E W T E E E Y E E E E T E E E E E W W W W 9.W OXW W 9.9.OXZ.[.[.f.).+X[.f.W [.W W E E Y I P P P P A A A 1 1 1 : > 1 : > 1 : : 1 1 1 : 1 2 A Z 2 1 A [.-X-X$X$X$XOX{.$X$X$X$X@X@XOX$X$X@X$X@X@X@XOX{.@X@X$X@X@X@X@X@X@X@X@X#X$X#X@X#X@X@X=XA.#X#X#X#X<Xj o g rXT.l.l.l.l.l.c.c.k.c.k.c.c.v.c.c.v.c.v.v.c.v.c.n.c.v.n.v.c.v.c.n.n.v.n.v.c.v.c.v.c.n.v.n.n.c.c.c.c.c.c.c.c.v.v.l.b.c.z.c.v.c.c.c.b.c.c.k.v.c.c.c.z.c.v.k.c.k.k.v.z.z.T.!.j.o $ #XI I I 1.1.5.7.5.5.I I 5.T I I 5.K I T T K T I I T T I T K I T J T T I J I I J I J I T J I J I J J T F I P J I F P J F S I F P G I T F I J P F J P J P J J F S J J J J J I F T I J T I I I I I T I I T I I K I G G P G G u e ( t t t r e e e i e e e q e q q q q q q q 0 q q 5 q 0 q 4 9 0 9 q 0 4 q 4 0 4 9 q q q q 4 4 w 0 q q w q q q q q q q w q w q w r w 4 w e w w e t w w 6 w r e e r e e t r r e t e w t t e w e w r e w e e t e e t e e e e e e t C e r e r e w t i i i i G i q G t e i t t r r e e e r t t w t t t t G t t @.G t G t G @.@.@.@.@.@.@.@.@.@.@.@.#.@.#.#.@.@.#.#.#.#.6.#.&.#.#.&.#.>.#.>.>.6.#.#.&.&.>.&.&.&.>.&.&.&.&.&.>.&.&.&.&.&.&.>.&.>.>.&.>.>.>.&.>.K , D Z Z b n n n n 2 n < < < < , , < , ; , < , n Z M D n M A D M A D F n D F C @.|.&.>.=.=.=.=.=.-.=.=.-.=.=.=.=.-.=.-.-.-.-.-.=.-.-.>.-.-.-.-.-.-.=.-.-.-.-.=.-.=.*.=.=.>.&.>.&.$.&.$.&.$.$.w 4 4 % , % , % % O ; % % % % , ",
"1 f j s.d.d.x.Y.x.Y.Y.d.s.j f f.E E E Y E Y E E W W W E W W W W W W W W W E W W W W W E E R Y T P P P P P y A A y A 2 1 : 1 : < - : : 1 : : : : 1 1 1 1 2 1 1 A 1 2 2 A A y y A A n y y u A y 2 2 Z A 2 y y A Z 2 : > P [.$X*X@X{.{.[.{.OXOX@XOXOX@XOXOX@XOX@X@X=X@X$X}.@X#X$X@X@X#X@X$X@X@X@X#X#XA.@X#X@X$X@X#X#X-X7XW . $ S.!.F.b.l.l.k.c.c.k.c.c.k.c.v.k.v.c.c.c.v.v.c.v.n.c.c.n.n.c.v.n.v.n.v.n.v.n.n.c.c.n.m.n.c.m.n.c.v.c.c.c.v.c.v.v.v.b.c.v.c.z.c.k.c.k.c.c.v.c.z.c.v.z.c.c.c.c.c.l.v.~.Q.7 o U AXmXsX<X,X8.I u u J I 5.I T G T I K I J J J I I J J G J I J G I G I G I J I J J T I P J F I J I J P I F I J J I F I J I P J F P J P F P S F P F P P I S J P P I I P I P I P I P S F S S S F S F A A Z S y A S u u A S Z u u u e @.t i t r r i r e 6 e e e q e q e q q q q q q 4 q q q 0 0 q 5 9 q q q 0 9 q q 0 q 0 0 q q 9 0 q 4 9 0 q q q q q q q q q q q q q e 4 e e e e e e e e e e e r w e e r e e e e e e e e e e w r e e e e e e e e e e e e e e e e e e e e e e t e t 9 t t e e e i q e r r e e e e t i i r t t ^ t ^ G i t ^ t t t @.t @.^ ^ ^ t #.@.@.^ @.#.@.#.@.@.#.#.#.#.#.#.#.$.$.#.$.#.#.&.#.&.#.>.#.#.&.&.&.&.&.&.#.&.&.#.&.&.&.&.>.>.&.=.&.>.&.&.&.&.&.&.&.&.&.>.#.#.#.9 F D N b Z b n n v n < < < < : < : ; < ; < ; n n A n D Z D M F M D n H T ].K G &.>.=.=.&.=.=.=.=.=.=.>.-.=.=.=.-.-.-.>.-.=.-.=.>.-.-.-.>.=.>.-.-.>.=.=.=.=.=.=.*.=.=.&.*.&.&.&.&.&.&.$.#.6.q 4 9 , 9 N N N N B , , , % ; % ",
"1 f s s.d.d.d.Y.Y.Y.Y.x.d.f.j P E W E E E Y Y P P P P P P n n A n 2 2 1 1 : : : : : : : + : : + : : : : : : : 1 1 < < 2 2 < 2 1 2 2 A 2 2 n n 2 2 A A n n 2 2 2 u 2 A 2 y n n y P 2 A 2 2 n n P y 2 A Z A 2 2 Z Z y Z 1 , 1 I [.=X$X$X@XOX{.OX@X$X@X@X$X$X$X$X#X$X$X$X#X$X@X@X$X=X$X$X#X$X#X=X#X=X#X#X#X#X$X#X#X@X#X$X7X#X- o j Q.T.l.l.l.c.k.c.c.k.c.v.k.c.c.k.c.z.c.c.c.z.c.z.c.v.c.n.v.n.n.v.m.v.c.v.c.v.c.m.z.c.m.n.z.c.c.z.v.z.c.z.z.c.v.v.v.v.c.k.v.c.c.c.c.k.v.z.z.c.c.k.c.c.c.v.l.T.~.| $ @ 3.SX7X7X<X<X<X7X7XmX#X8.P u S S G T I T I P G I I J F T I F J P J P P J G F I J P G J F P J I I J J F I J I F F I F I F F S J P I F F S F F F S S Z S Z Z A y y 2 Z y 2 y y A u S S P I I T R T ].[.[.{.@X+X$X$X=X#X-X7X7X7X-X7X0.9 t t i r i e i e e e e e q e e q e q q q q q q q q 0 q 0 q q 4 0 0 5 0 0 4 4 9 9 4 0 q 0 0 9 9 q 0 q 9 4 4 q q 9 q q 9 q q 9 q q q 4 e e w 9 e w w e q e w w w e e e w e e w e e 9 e q e e e e e e e t e e 9 e e e e e e e q q e e e e e e e e e q e e e e e i t e e q i e e C e e i r e t i t e t t t t t ^ G r @.^ ( t ^ C G ^ @.@.@.^ @.#.#.#.#.#.#.#.#.$.#.#.#.#.&.&.&.&.&.&.#.&.#.&.&.&.&.>.&.>.&.>.>.&.>.&.&.&.&.&.&.=.&.=.&.&.>.&.&.&.>.&.&.>.#.#.% n b y n n n n b n < v < < < ; , ; : ; < + < n n D A n A n A D n H T ).T E K t #.&.&.=.=.=.=.=.=.=.=.=.=.=.>.-.=.=.=.=.=.>.=.=.=.=.=.=.=.=.>.=.=.-.>.=.-.-.=.=.&.=.=.&.=.&.&.&.$.&.$.&.&.#.q 4 N C C C K /.K /.H H V N , , ",
"n 1 f s s.d.d.d.x.Y.x.Y.d.s.j = + + : & & & : + < + : + : : < = : 1 : 1 < < 1 < 1 < 1 < 1 < 1 < 2 2 2 < 2 2 < 1 < 2 1 2 2 2 2 2 2 2 1 2 2 2 2 2 A 2 2 2 2 2 A 2 2 A y n 2 y n y y n 2 2 y n A 2 2 A Z 2 y n A 2 A A A y A Z 2 1 > P W OX$X@XOXOXOXOXOX@X@X@X@X$X@X@X@X$X#X$X$X$X}.#X$X#X$X$X$X#X$X#X=X$X$X#X#X$X#X@X=X#X&XpXU o = h Q.l.l.l.l.k.k.c.k.c.k.c.c.z.c.c.z.c.c.n.c.c.v.n.v.z.c.n.v.v.v.n.n.v.n.c.n.v.c.n.z.v.c.v.c.z.c.n.c.v.c.v.c.v.v.c.v.c.v.v.c.c.c.c.c.k.c.z.c.c.k.v.l.z.Q.F.* @ | 3.@ #X<X#X<X-X-X$X-X:X7X7X7X7X#X{.R I Z S G J I F F I F F I F F I S G P F P S F P F P I S S F F F F P P S S F S S F A A S S A A S S S S P F I P I I T T 7.R 7.W 9.{.[.@X@X$X$X=X$X=X=X-X-X;X7X-X7X;X-X-X=X=X2X-X=X=X=X=X$X@X@X$X2X8.4 G r t e r i e i r e e e e e q e q q q q q q q 0 q 0 q q 0 q 9 5 4 9 0 q q 0 q 4 9 q 4 0 0 0 9 4 9 q q 9 9 q 0 q 9 q 9 q q q 9 q 9 4 q q e e w q q e q q e q q w e e e e e q 9 e e e e q q e e q e q e 9 e e e 9 e e e 9 e e 5 e e e e e e e 9 e e q u e e q e e e e e e t i e t e r e i e t e t t t t t t t t e t w @.t t @.^ @.t ^ @.^ ^ #.^ ^ ^ #.#.^ #.#.#.#.$.&.#.#.#.#.#.&.&.&.&.&.#.&.&.#.&.>.#.&.&.&.&.&.&.&.&.&.&.&.&.&.&.&.&.&.&.&.>.&.&.#.>.@.9 V n n n b b n < < < < < ; ; : ; & ; + ; < < n n n M A M F M A Y T T Y T W K C 6.>.=.=.=.=.=.=.-.=.=.=.=.=.=.-.>.-.=.=.=.=.=.=.=.>.=.=.=.=.=.=.=.=.=.=.=.&.=.=.=.=.=.*.=.&.>.&.>.&.&.#.#.^ 4 C C /./.|.|./.XX|./.|././.V V ",
"n 1 1 j s.s.d.d.d.Y.x.Y.Y.d.s.= = n 1 : 1 : : < 1 1 : : < < 1 < < 1 < 1 : 1 < 1 < 1 1 < 1 1 1 < < 2 < 1 < 2 < 2 < < 2 2 < 2 2 < 2 2 2 < 2 n 2 2 2 2 n 2 2 2 2 n f n 2 2 y n 2 n A n n 2 2 A 2 2 2 y n y y 2 A A 2 A A 2 A f Z A y y 2 2 P {.=X$X$X{.OX$XOXOXOXOX$X$X$X@X$X$X$X$X$X$X@X$X@X$X$X#X$X@X$X#X#X#X#X#XOX#X&X$X#X&X#XZ.g . g C.!.T.l.k.b.k.k.c.c.c.b.c.c.c.k.v.c.c.c.c.c.b.v.v.c.v.c.c.n.n.c.v.v.c.m.n.v.c.v.c.v.v.c.n.c.v.v.c.k.c.c.v.c.v.c.v.c.c.k.k.c.v.k.c.c.k.l.l.k.b.~.!.h o 3 | S.G.8 * eX<X7X#X&X-X-X#X#X&X#X=X2X=X7X=X}.[.R F Z S S F I F S F S S Z u Z y y y Z y A y u A S S S S F I P I I T R W W ].9.[.{.{.@XOXOXOXOX@X+XOX@X*X@X@XOX$X+X@X@X@X@X$X@X+X$X@X$X@X$X$X$X$X&X$X&X=X$X=X$X=X$X=X$X=X$X-X=X$X$X$X#X=X5.5 i i t t i t e e e e e e e 5 q q e 5 e q q q q 0 q 0 0 0 q 0 q 9 0 9 0 0 4 q 0 0 0 0 0 0 q 4 9 0 9 0 0 9 0 q q 4 0 q 0 q 0 q q 0 q 4 4 9 q q q w q q q q q w q e q e q e q e e q q e e q q e e q e e q e q e q e q e e 9 e q q e q e q e e e q q e 9 q e e q e e u e e e e e u e e t C e e e t e i e t e G t t C t ^ t t @.t ^ @.^ @.^ #.^ #.^ #.^ #.#.#.#.#.#./ / #.#.#.#.&.&.&.&.#.&.#.>.&.&.#.&.&.&.&.&.&.&.&.&.&.&.*.&.&.&.&.&.&.&.&.&.&.=.&.&.&.#.#.9 y n n n n n < v 2 < < ; < : ; : ; , ; : ; : n n D A n n D Y T ).T ).T J T J t 6.>.>.=.=.=.=.*.-.-.=.=.=.=.-.-.=.=.=.*.=.=.-.=.-.=.*.-.-.=.=.=.=.-.=.-.*.*.=.=.*.=.*.=.*.&.&.&.&.#.&.#.@.C 9 C K |.|.XX|.XXXXXX/.XXXX/././.",
"n n f f f s.s.d.x.x.x.x.d.d.d.f = 1 2 1 1 : 1 : < < < 1 1 < < 1 : < : < < < 1 < 1 < < 1 < < 1 : 1 < 1 < 1 < 1 < 1 2 n 1 2 2 2 2 2 2 2 2 2 1 2 2 2 n f n n 2 2 y n 2 n 2 2 2 2 A 2 f 2 A n 2 n A n 2 A 2 n y n 2 A 2 A 2 2 A y n A Z A S 2 : 1 S E $X=X@XOXOX$XOX{.OX@X@X@XOX@X$X$X@X$X$X#X@X@X@X@X@X@X#X@X$X#X#X$X#X#X@X@X@X@X@X=XOX. o 7 I.Q.Q.l.v.v.l.k.k.c.k.k.c.c.c.c.k.v.c.v.v.v.c.v.c.c.v.c.v.v.v.v.c.v.v.v.m.m.c.v.n.z.c.c.c.v.c.c.v.k.c.v.v.k.c.k.c.c.c.k.c.c.k.z.v.l.v.T.Q.h o @  .D.D.o.z.!.* $ NX<X7X8X2X7X7X7X-X2X$X$X#X@X8.{.@X}.[.5.F 9 2 y , y T E 5.7.R 5.7.{.@X{.$X$X#X=X$X=X-X-X-X-X=X7X;X=X=X=X=X$X$X$X=X$X$X@X@X$X@XOXOX@X@X{.{.OXOXOXOX@X{.OXOXOXOXOX@X+X@XOX$X$X$X@X@X$X$X=X$X$X#X$X$X&X=X&X&X=X$X#X&X$X#X$X#X8.q t t i t e t e t e i i e e e e 5 q q 5 q q q q q 0 5 5 0 4 q 0 0 q 4 q 0 9 0 0 0 4 9 4 0 4 9 q 0 4 q q 4 9 4 q 0 9 0 9 4 4 q q q 4 9 4 e q e q 9 w q q w q q q e e q e q q q q e q q q q q q q q q q q q e q e q e q q e q e e q e q e q q e e e e e e q q e e e q e e e e e e e e e e e e t i e t e t t t t t t t i ^ G t @.G ^ ^ ^ #.C @.^ ^ #.#.#.#.#.#.#.#.#.&.#.&.&.&.&.#.#.&.&.&.&.#.&.&.&.&.&.&.&.&.&.&.&.&.&.&.&.*.&.*.&.&.&.&.*.&.=.&.=.&.&.>.#.% n b n n n n < < < < l < : ; , ; : ; : ; < ; b A n n D Y T ).T T }.=X=X].T G @.$.>.&.=.=.*.=.=.-.=.=.=.=.*.-.-.-.=.=.-.=.-.=.=.=.=.-.-.*.*.=.=.-.=.-.-.=.=.=.=.*.-.=.&.&.&.&.&.#.&.&.#.w C B /./././.|./.XX/.XXXXXXXXXX|./.",
"D 2 1 f s.s s.d.d.Y.Y.Y.Y.Y.d.f = = 1 : > : 1 : < 1 < 1 < = < 1 1 < 1 < 1 1 < 1 < 1 < : < 1 < 1 < 1 < 1 1 < 1 2 < 1 < 1 1 < 2 1 2 2 2 2 2 n 2 2 2 n 2 2 A 2 2 n A 2 2 n A A 2 2 2 2 n 2 2 A 2 L 2 n n 2 n 2 2 A 2 A 2 A y n A n A A Z A A A A y > 1 n R @X-X=X@XOXOX@X$X@X@X@X@X@X@X$X=X$X@X$X$X@X@X@X@X@X#X#X@XOXOXA.OXA.OX@X#XA.#X-X3.. . - F.Q.F.l.l.l.c.h.c.c.c.k.c.c.k.v.c.v.v.v.c.c.c.c.c.c.c.c.c.v.v.v.c.c.v.c.c.v.c.c.c.c.c.c.c.v.v.k.v.c.c.c.k.l.c.c.k.l.b.k.k.l.l.~.F.j.o @ 8 S.+.o.o.k.k.R.~.@ 7 E I G G u y y 2 y y y y y y y y Z Z Z S F G F F u y S R {.7XcX7X=X=X$X}.@X@X#X$X@X{.@X@XOX@X@X$X@X@X@X@X@X$X$XOXOXOXOX$XOX@XOXOXOXOXOX{.OXOX{.OX{.OXOXZ.OXOXOXOXOX@X$X+XOX@X@X$X$X$X#X#X$X$X&X$X$X$X=X#X&X$X$X$X$X$X#X=X3.4 i i t r e e t e r e e e e e q e q e q q q q q q q 0 q q 0 0 q 4 q 4 4 0 0 0 0 5 9 0 0 0 q 9 0 4 0 0 4 q 0 0 q 9 0 0 0 q 9 q 4 q q 4 4 q q q q q 6 9 q w e q q q q q e q q e q q e q q e e q e e e q e q e q e q q e q q e u e e q e q q u q q q q e q e e u e u e e u e e i e e e e u t B e t e t t t e e t i t t t t t ^ t ^ C @.@.^ #.t #.#.^ #.^ #.#.#./ #.&.#.#.&.#.#.&.&.&.#.&.&.&.&.&.&.&.&.&.&.&.&.&.&.&.&.&.&.&.&.&.&.&.&.&.&.&.&.&.=.&.&.&.&.C 9 b v n n n l < < < < < < ; : ; : ; ; : ; < < n M A Y T ).Y T Y [.*X[.=X[.T T G >.&.=.-.=.=.=.=.*.-.*.=.-.=.-.=.=.=.-.*.-.=.*.=.-.-.-.-.=.=.=.=.=.-.*.-.=.=.=.=.*.=.&.&.&.&.&.&.&.&.#.^ w 9 B H K /./././.XXXXXXXXXXXX|././.",
"N Z 1 u f j s s.d.Y.d.Y.Y.Y.d.s - = 1 : 2 : < 1 : < 1 < 1 < 1 < < : 1 < < < 1 < 1 < 1 < 1 < 1 < 1 < 1 < < 2 < 1 2 2 < 1 n 1 < n 2 2 2 2 2 2 2 2 2 2 2 2 2 2 2 A 2 2 A 2 2 n 2 A A A n y y n y 2 A A 2 A A y n 2 A n A n A 2 P y Z A A A A A A A S A A y > y Y @X=X=X$X{.{.@X+XOX@XOXOX@X@X@X+X@X$X@X@X@XOXOXOX{.OXA.OXOXOXOXOXOXZ.Z.A.=XpXU o o o j.!.E.l.k.k.k.k.c.c.c.c.c.c.l.v.v.c.v.v.c.v.v.z.v.n.v.c.v.c.c.v.c.v.v.c.v.c.v.c.l.v.l.v.v.c.v.l.c.k.c.c.k.v.v.l.l.l.b.~.F.7 o o 7 A.+.X.o.o.o.o.k.z.T.Q.o P R I I I P I I F I G F S S S S F S S P F S S F F F S u > , , F E $X=X=X=X$X{.{.@X@X+X@X@X+XOX{.OXOXOXOX@X@XOX@X@XOXOXOXOXOX{.{.Z.OXOX{.9.OX+X{.{.OXOX{.OX{.{.OXOXOX@X@X@XOX@X@X+X$X$X$X#X$X$X#X$X$X=X#X$X#X#X$X#X$X@X#X5.4 t t t i t i e i e e e e e q e q e q q q q q 0 0 0 q q 0 q q q 0 0 0 q 9 4 q 9 4 0 0 4 0 0 4 0 9 9 4 9 0 4 9 0 4 9 4 q 0 4 q 9 q 9 4 4 9 q q q q q q q q q q q e q q q q q q q e q q q q q q q q q q e q q q q e q q q e q q q q q q q e e q e e e u q e q e 9 e q e e e e 9 e e t u e e e e i e e i e t t t t t t G t ( t t @.^ t ^ @.^ #.^ @.#.#.^ #.#.#.#.#.#.#.&.#.#.#.&.#.&.#.&.#.&.&.&.#.&.&.#.&.&.&.&.&.&.&.&.&.&.&.&.&.&.&.*.&.&.&.&.&.&.&.&.#.#.% Z n n v n n < v 2 < < < < ; , ; : ; < < ; < n S D Y ).R T T T |.*X{.|.|.T K G 6.>.=.=.=.=.=.=.=.*.*.-.-.-.=.-.=.-.-.-.-.-.-.-.-.=.=.*.=.-.*.=.=.=.*.-.=.=.&.=.=.*.=.&.&.&.>.&.&.#.#.w w N V C /.#.#./.K /./.|.|././.|./.K ",
"Z Z 2 1 g d s d.d.d.Y.Y.Y.Y.d.d.f = f 1 1 < 1 < : 1 < 1 < 1 1 < : 1 1 < 1 < < 1 < 1 : 1 < 1 : 1 1 < 1 1 < 1 2 1 1 < < 1 n 1 1 1 < n 2 n 2 2 2 n A 2 2 A n 2 2 A n y A A A y n y 2 A 2 A n 2 2 A A n A Z y n A Z 2 P A y n 2 A A A n 2 A A A A A A A A A P A A 1 > I OX=X=X$XOXOX$XOX{.OXOX@X@X@XOXOX@X@XOXOXOXOXOXOXOXOX9.{.{.OX{.@X9.Z.8.#X$XI 7 . + | F.E.T.l.l.l.z.v.k.c.v.v.v.v.v.v.v.v.v.v.v.c.c.v.c.v.c.c.c.c.c.c.v.z.c.c.c.k.c.v.l.c.c.l.c.k.l.c.k.k.z.l.l.W.!.j.# o o u - o 3.+.+.X.o.o.o.X.k.W.yXj.. U T S S P G S S S F S S S S A S S S Z Z Z S Z Z F A F S S S A > % > y T 8.$X=X$X$X$X$X{.{.OX@XOXOX@XOXOXOXOX@XOX@X+XOXOXOXOXOX{.{.OX{.{.{.[.{.{.OXOXOX9.{.9.OXOXOXOXOXOXOXOXOX$X$X@X$X@X$X$X@X$X$X$X$X$X@X@X@X$X$XOX#X5.4 i t t i i r e e t e e e i q q q 5 q q q q q 0 q q 0 9 0 0 0 0 0 4 0 0 4 9 9 0 0 9 0 4 0 4 0 0 9 0 4 0 0 4 0 4 9 q 0 0 0 9 0 4 0 4 0 3 9 q q 9 q q q q q q q q q q q q q q q q q q q q q q e q q q q q q q q q q q q q e q q q q u q q e q q u q q u e q q e q e e e q q e u e e u t e e e t t e e C i C e t t G t G ^ t C ^ ^ t t t ^ @.^ @.#.#.^ #.^ #.#.#./ &.#.&.#.&.#.#.&./ #.&./ &.&.&.&.&.&.&.&.&.&.&.&.&.&.&.&.&.&.&.&.&.&.&.*.&.&.&.&.&.&.&.>.^ 9 Z v n n v n n < n < < < ; < ; ; : : ; < < ; D D Z Y T T T T T |.$X{.{.{.T K C #.>.=.=.=.=.=.=.=.=.=.-.*.=.=.=.-.-.=.-.=.-.=.-.*.-.-.-.-.=.*.-.=.=.=.-.=.&.*.=.=.=.&.&.&.&.&.&.#.#.t w 9 B V V V V V /./.C /././././.#./.V ",
"N B 2 1 f f s s.d.d.d.x.x.Y.d.s.s = = 1 1 1 < 1 1 < 1 < < < < 1 : < 1 < : 1 1 < 1 < 1 < 1 < 1 < 1 < 1 < 1 1 < < 1 2 1 2 < 1 n 1 2 1 1 n 2 2 2 2 2 n 2 2 2 A L 2 2 A 2 2 2 n y y A n A 2 A A A n 2 A n Z A A n A n y n A y P A n A A A y Z A Z A A A A P A y A P P 2 & y I 9.$X&XOX@X@XOXOXOX{.OXOXOXOX{.OX{.OX{.OX{.OXOXOXOX@X@X{.{.OX@X@XOXOX@X$X9.- o X g S.Q.R.Q.l.l.l.l.k.k.v.v.v.v.v.c.c.v.c.v.v.v.k.c.k.c.v.c.k.v.z.c.c.k.z.v.v.v.c.c.l.v.h.k.v.l.l.b.R.H.F.h - X o * P y P @ @ t.X.X.o.o.X.k.N.W.W.~.7 X P I I S u P S G S S F G F S S S F S S S B S S Z F S S Z y Z F S A A y > : y T [.[.{.$X$XOX{.{.OXOX{.9.{.OXOXOX9.{.{.[.{.{.9.{.9.9.9.9.9.{.9.9.9.9.OX9.Z.9.OX9.OXOXOXOXOX@X@X@XOX#X@X@X$X$X$X@X$X@X@X@X@X@X@XOXOXOX@X5.4 G t t r e t t e e e e e e e e i q e q q q q q q q q 5 0 q 5 0 q q 0 0 q 0 4 q 0 4 0 0 9 q 9 4 9 0 9 0 4 9 9 0 4 4 0 q 4 4 q 0 q 9 9 4 0 q 4 4 q 4 q q q q q q q q q q q q q q q q q q q q q q q q q q q q u q q q q q q q q q q e q q q e q q e q e q q e q q u u e e e e e 9 e e e e e u e u e i e e t t t t i t t t t ^ ^ @.^ #.#.^ ^ #.^ ^ #.#.#.#.#.#.#.#.#.#.&./ &.&.&.&.&.&.&.&.&.&.&.#.&.&.&.&.#.&.&.&.&.&.&.&.&.&.&.&.&.&.&.&.&.&.&.&.&.&.#.&.#., b n D Y n < n < < < < < ; ; + , ; ; < < ; < Z n D ).Y Y Y E ).*X{.|.*X|.R G @.6.>.=.=.=.=.=.=.=.=.*.-.*.-.=.=.=.=.-.-.=.=.=.-.-.*.*.=.=.=.=.=.=.=.=.=.=.=.=.=.&.&.>.&.>.&.>.&.&.#.w 9 B V C V C V C V H V C V C C V /.H V ",
"V D D n u f g s.s.d.d.Y.d.x.Y.d.j = = = < L < = < 1 < 1 1 < = < 1 < 1 < < 1 < 2 < : < 1 < 1 < 1 1 1 1 < 1 < < 1 < 1 1 2 2 2 n < 2 n 1 2 2 1 n 2 2 2 2 n y n 2 2 2 2 A 2 2 P y n 2 A n A 2 A 2 2 A A Z A A A n A y y A n y n A y A y A y A y y A Z A S y A P A u A P P P 2 2 A P [.[.+X@XOX@X+X@XOXOXOX[.[.9.9.7.7.W R R I P P S S S P 1 n A 1 1 2 u u u - . . $ 7 j.Q.!.T.m.m.z.v.v.v.v.z.v.v.v.z.v.v.c.c.c.k.c.c.k.c.c.z.c.v.z.v.v.v.b.k.c.z.v.c.l.m.E.Q.F.| -   X $ 7 u j 2 P S S @ 3 O.X.X.X.z.V.V.V.V.~.yX$ - u P S S I S S F S Z Z Z S Z A S y Z Z A Z y S Z y Z S A Z 2 2 y A A S A y > > : 1 Z T 7.OX+X@XOXOXOX9.9.9.9.9.[.7.[.W W 9.7.W W 9.9.9.9.9.9.9.OX9.9.9.9.9.9.OX9.{.OXOXOXZ.{.OX@XOXOX+X@X@X@XOX@X+XOXOXOXOXOXOXZ.}.3.q i t r i r e t e e e e i e q e q q q 5 q q q q q 0 q q 5 0 0 q 0 0 q q 9 0 9 4 0 0 0 0 0 4 0 0 0 0 0 0 0 0 0 0 0 0 0 9 0 0 0 4 0 4 9 4 9 9 4 9 q q q 9 q q q q q q q q 0 q q q q q 0 q q q q u q q q q q q q q q 9 e q q e q q e e q q q q q q e 9 e e q q u q e e 9 u e e e e e 9 e e u e e e e e e e e t e t t t t G ^ C ^ ^ t t @.#.^ ^ #.^ ^ ^ #.^ #.#./ #.&.#.#.#.&.&.&.#.&.#.&.&.&.#.&.&.&.&.&.&.&.&.&.&.&.&.&.&.&.&.&.&.&.&.&.&.&.&.&.&.&.&.&.&.C > n n Y Y M < < < n < ; < < < ; ; , ; ; , < < n F F T T Y T Y W |.{.|.*X[.].G G &.>.>.=.=.*.=.=.=.=.-.*.-.-.=.=.=.=.*.-.*.=.=.=.-.*.=.=.-.-.*.-.=.=.=.=.=.=.=.=.=.=.&.>.&.>.&.&.$.^ 9 9 B N V H V V V V V V V V V V V V V V ",
"V V H n 1 - f j s d.d.x.Y.Y.d.d.s.= = 1 < : < 1 = < 1 < < 1 < 1 < : < = 1 < = < < 1 1 < 1 < 1 < < 1 < 1 : L 1 1 1 n < 1 2 1 1 1 2 2 2 2 2 n 1 n f n A 2 2 2 y n A n 2 2 n 2 n y A 2 A 2 A n A A A 2 A 2 2 A y y 2 A y A y A y A y A A A A y A A y y A A y y y A y y y y u y u 2 2 S I P S A A A y y y y y 1 2 1 y > > 2 y 2 y y A y y y y u A A y y u u u P u $ $ o o - h j.F.T.l.H.z.z.z.z.z.v.z.z.v.z.v.v.c.v.v.c.k.v.v.z.v.z.v.l.l.l.l.l.l.T.l.F.| j $ o . $ 1 y u u u u u y u P u o 7 ..X.G.V.V.N.b.b.V.~.Y.- 7 u I u G F S F S S Z S Z S y A y Z y y y N y y y y Z Z y Z A Z Z y Z y Z A A y y y 1 > 2 Z P R 7.OXOX9.9.7.9.9.9.9.9.9.9.9.9.9.9.9.7.9.9.9.W 9.9.9.8.9.9.8.Z.9.9.OXOXOXOX{.{.OXOXOXOXOXOXOXOXOXOXOXOXOXOX9.OX{.@X5.q G t r e r i e t e i e e e e q e e e q e q q q 0 q 0 0 q q q 4 q 0 4 0 0 4 4 0 0 0 0 4 9 0 0 0 4 q 4 0 0 0 4 9 4 0 0 4 0 0 0 0 4 0 0 3 9 q q q q q q 4 q 4 q q q q q q q q q q q q q q q q q q q q q q q q q q q q q q q q q q q q q q q q e q q q q q q 9 e q q q q e q q q e u e e e e e e e i e t i t t i t t t t t t ^ t @.^ @.^ C #.#.^ #.#.#.#.#.#.&.#.#.#.&./ &.#.#.#.&.&.&.#.&.#.#.&.&.#.&.&.&.&.&.&.{ &.&.&.&.&.*.&.&.&.*.&.&.&.&.&.&.&.&.&.&.C 9 n < /.).M n n l < < < ; : ; : + ; & , ; < < n P M ).Y T T T ).[.[.*X{.[.T K t 6.&.&.-.=.=.=.=.=.=.=.=.=.=.=.*.-.=.=.*.-.=.=.*.*.-.-.*.=.*.*.=.=.=.=.=.*.=.&.=.*.*.>.&.&.&.&.&.#.w w 9 B V C V V V V V /.V V V V V V V V V ",
"H V V n 2 1 f f s.d.d.Y.d.Y.Y.d.f.= = 1 1 n + 1 < : < 1 < 1 < : 1 < 1 < 1 < 1 < 1 < < 1 2 2 < 1 1 < 2 < 1 < 1 1 2 2 n < 2 2 2 2 2 y 2 2 A 2 n 2 n A 2 n y 1 2 n A y A y A A A A A A A S A A A A y P A A A y y y 2 2 y 2 1 1 > 1 > 1 2 2 2 y y y A A A P P T T R W E 7.).W 9.[.[.{.OX[.W U A 2 2 2 S S A y A A y y A y y y 2 y 2 2 2 y 2 y y S Z y u u 2 y f y u u - $ $ o @ # h | F.F.Q.!.E.T.H.T.l.l.z.k.z.z.z.l.l.l.z.z.v.H.T.F.R.Q.Q.I.F.| j 7 $ o o $ 1 y u y y y y 1 u u y 0 y A > o | !.l.v.V.V.V.V.W.W.~.j.o j I S S A A Z S S Z A Z y A Z y n y 2 N y Z N y y Z Z y 2 2 Z 2 Z Z y 2 y y y Z y 2 y 2 2 2 : : y S E [.{.[.7.[.7.W 7.7.W [.W W W [.W 7.7.W 7.9.7.9.9.9.9.9.9.9.W OX{.9.OX9.{.9.Z.{.OXOX@X@XOX9.OXOXOXZ.OX9.9.#X5.4 t i r i t e r r t e e e e e e e e e q q q q q u 0 q 0 0 0 q 0 q 4 0 q 4 0 9 0 0 9 0 4 0 9 % 0 0 0 0 0 0 0 4 4 9 0 0 0 0 0 4 0 0 4 0 % 0 0 5 q 0 q 0 q 4 q 9 q q 0 0 q 0 q q q q q 5 0 q q q q q q q q q q q q q q q q q q q q q q q q q q q u q q q q e e q u e q e q e e 9 e e e e q e e e e e e t e t e t t t G t t ^ ^ ^ ^ C ^ #.^ ^ ^ #.^ #.#.#.#.#.#.#.#.&.#.&.#.&.#.&.&.&.&./ &.&.&.&.&.&.&.&.&.&.&.&.&.&.&.&.&.&.&.&.&.&.&.&.&.&.&.*.&.&.&.#.&.#., b v ).Y Y l n n < l < ; < : ; ; : ; < ; < < D F M Y T T T T W {.|.*X|.*XT K G >.=.=.=.=.=.=.=.-.-.*.=.=.-.-.-.-.*.=.*.-.*.*.-.-.-.*.-.-.*.-.=.=.-.*.*.=.=.=.=.&.=.=.&.*.*.*.&.#.w 9 9 D D V V V V H V V V V V V V V V V V ",
"V V H D n 1 y g f s.d.d.d.Y.Y.d.s.- X = 1 1 < 1 1 1 1 < 1 : 1 < < 1 < 1 1 < 2 2 < 1 2 2 < 1 1 n 2 1 2 2 2 n n 2 2 2 2 2 2 2 n 2 2 2 2 n 2 2 y Z A A A n A A A A n 2 2 2 2 1 > 1 > > < , 1 > 1 , 1 1 y A S P P P U W R W 9.{.{.OX+XOX@X@X$X@X$X+X$X$X$X@X$X@X+X@X@X@X@X+XOXOX+XOX+XOXOX[.+X$XOXE S 1 : 2 P A y y P y 2 2 y Z y 1 Z 2 2 Z Z y 9 Z y 2 2 y 2 A y y u u P j o 7 h 3 @ @ # $ 7 7 | j.j.F.F.F.Q.Q.E.Q.Q.T.T.Q.F.F.S.j.j.h * @ o o . o o 1 u u u y 2 2 2 2 y y y y 1 u u u y u - o C.K.l.m.m.N.N.V.V.W.iXh o u I F y Z Z y y S Z y A y y y y 2 y N y Z Z Z n y y Z Z 2 Z y 2 y n y N y 2 2 Z 2 n y 2 y y y y > & + : 2 P W [.{.[.W R W [.E E E W 7.7.W 7.W U 7.E W 9.9.9.9.7.9.{.OX{.{.Z.9.9.9.9.8.Z.OX{.Z.9.OXOX8.9.9.8.{.5.0 G r r t r i e e e e e t i q e q 5 e e q q q q q q q 0 q q 0 q q 0 0 0 0 4 q 0 4 4 0 0 0 0 4 0 0 0 4 0 0 0 0 0 0 0 4 0 0 0 0 0 0 0 0 4 4 9 q 0 q 0 q 0 q 4 q 0 q q 5 q q 0 q 0 q q 0 q q q q q q q q q q q q q q q q q q q q q q q q q q e 9 q q q e u q e q q q e q 9 u q e u e q e i e e u e e e u t e t t t t t t @.t C #.^ #.^ ^ #.^ #.^ #.#.#./ #.#./ #.#.{ &.#.&./ &.#.&.#.&.&.&.&.&.&.#.&.&.&.&./ &.&.&.&.&.&.*.&.&.*.&.&.&.&.&.&.&.&.*.&.&.&.&.@.9 n < ).Y M n < < < < < < ; ; < : ; : ; < < < M F Y T Y ).Y Y ).{.*X{.{.[.T J t #.&.=.=.=.=.=.=.*.-.-.*.=.-.-.*.*.-.-.-.=.=.-.*.-.-.-.*.-.-.*.=.=.-.=.=.=.&.*.=.*.*.&.*.*.*.&.&.#.w 9 9 B V V V H V V V V V V V V V V V V V ",
"V C D H Z n 1 1 f s.d.Y.Y.d.Y.d.f.p = 1 1 1 n 1 : 1 : 1 1 > 1 1 1 < 1 < < 2 1 < 2 1 1 < 2 n n 1 n 2 2 1 2 2 2 2 2 1 2 2 2 1 < 1 1 1 1 : 1 : : : : : 1 2 2 A A P F I I T E W [.[.OX{.{.+X+X=X=X=X$X=X$X$X$X$X$X$X$X$X+X@XOXOXOXOX{.OXOX{.OXOX{.OXOXOXOXOXOXOXZ.{.OX{.OX{.OX{.{.{.[.OX{.{.9.{.[.{.OXOXW A & : y A 2 y 2 y 2 y 2 y 1 y y , > y > > 2 y y 2 2 u 2 A u S u o # S.t.+.+.+...~ 6 3 @ @ @ o o o . o o o X o o o o X   .   . . $ * A j S u f A f 2 2 2 n 2 y 2 y y y y 0 y y u u u $ o I.T.v.m.B.V.N.V.V.W.yXg o P u S A y y u y 2 y A y y y 2 y 2 y y N Z Z y 2 2 Z Z y Z y 2 2 2 y y 2 2 2 b 2 b y 2 2 2 2 2 2 Z y 2 > : : + : A T W {.[.7.R E 7.W E E W 7.7.9.7.9.9.9.W 9.[.W W W W +X[.9.9.OXOXOX{.OX{.9.{.+X{.{.OXOX9.8.1.4 @.e t e i r t e e i e e e e e e e q e 5 q q q q q 5 q 5 5 0 0 0 q q 0 q 0 0 0 9 0 q 0 0 0 4 4 0 0 4 4 0 0 0 4 4 4 0 4 0 0 4 0 0 4 0 % 0 5 0 q 4 q q 0 q 9 q 0 q q 0 q 0 q q q 0 0 q 0 q q q q q q q q q q q 9 u q q q q q q q u q e q q q q q q q q 9 e q q e q q q e q q e e e u e e 9 e e e i t e e i t t t t t t t ^ t ^ C #.#.^ #.#.#.#.#./ #.#./ #.&.#.#.#.&.#.&.#.&.&.&.&.&.&.&.#.&.&.&.&.&.&.&.&.&.&.&.&.&.&.&.&.&.&.&.&.&.*.&.*.&.*.&.&.&.&.&.@., Z v Y Y M v < < < < < < ; < ; ; ; < < : ; < n A F Y ).T ).T T {.|.[.{.|.5.G G >.>.=.*.=.*.=.=.-.-.*.-.=.*.*.-.*.-.-.-.=.-.-.-.*.-.-.*.=.=.=.=.-.=.=.=.=.=.=.=.=.&.&.*.*.&.&.%.#.w B 9 V D D V V V V V V V ^.V V V b V V V ",
"C V C D D N 2 > f f s.d.d.Y.Y.d.s.- = 1 2 1 1 1 1 1 2 2 1 2 1 1 2 1 < 1 1 : 1 : 1 < : : : : : + + : : : 1 1 1 2 P n S P P P I Y E W W W 9.OXOX+X+X$X@X$X$X$X$X%X+X$X$X*X$X$X+X$X$X+X$X+X@X{.+X{.@X+XOXOXOXOXOXZ.OXOXOXZ.OXOX{.OXOXOX{.{.{.OXOX9.OX{.OX{.OXOXOXOXOXOXOX{.OXOXOXOX{.[.W OXOX[.9.{.[.{.{.{.OX7.S : 1 1 y A y 2 y 2 A y y 2 y 2 2 y 2 y 2 0 y 1 u 1 1 u 0 o  .t.~ o.X.X.X.+.+.t.L.1.@ O u 1 u 1 1 - - > > 1 > u 1 y j A A u u y A y y y 2 y y y > y 2 2 y y 1 y 2 y 2 y 2 S u S o $ F.l.T.b.N.V.V.V.W.~.iX- o 0 & 0 S y 9 u y > 2 y 2 2 N 2 y y y y y 2 y Z y Z 2 y Z Z 2 2 2 y n 2 2 y 2 y 2 2 2 > 2 2 Z y 2 y Z y y Z y 2 1 & & : 1 P R [.{.7.W 7.E 7.W W 9.W 9.7.9.9.OX9.W {.[.{.{.9.{.9.9.{.9.{.{.{.OXOXOXOXOXOX{.@X5.0 i t i r r e i r t e t e e e i e e e q e e q e q q q 9 0 0 q q 0 4 0 9 4 9 4 0 4 0 0 0 4 0 9 0 0 0 0 0 0 0 0 9 0 0 0 0 0 0 0 4 0 0 9 3 0 0 q 0 q q 0 q q q q q q q q q q 0 q q q q q q q 9 q q q q q q q q q q q q q q q q q q q q q q q q q q e q q e q u q q e u e q e u e e u e e e i t u e i e C t t t t i t ^ ^ G ^ ^ #.^ ^ ^ #.#.^ #.^ #.#.#./ #.#.#.&.#.&./ #.&.&.&.#.&./ #.&.&.&.&.#.&.&.#.&.&.&.&.&.&.&.&.&.&.&.&.&.&.&.&.&.&.&.&.&.&.*.&.&.#.#., N n H Y M < n n < < l ; < ; : ; & ; < < < < A Y D Y T T Y T W [.*X|.*X{.).J G |.>.=.*.=.=.=.=.-.*.=.-.=.-.*.-.-.-.*.-.-.-.*.-.-.*.-.-.=.=.=.=.-.=.=.=.=.&.=.=.=.*.&.&.&.&.&.$.^ w 9 v V V V V V V V V V V V V V b V V V V ",
"V V V H V D V y 1 j j s.Y.Y.Y.d.s.= + : : : & 1 < + < + & 1 1 1 1 1 2 2 A A A P P I T U E E W [.[.9.OXOX[.OXOX+X+XOX{.+XOX{.{.OXOX{.OXOX{.OX[.OX{.OXOX{.OXOXOX{.OX@XOX@X+X@XOX$XOXOX+X@X+X@X@X@X@X@X+X@X+XOXOXOXOXOXOXOXOXOXOXOX$X{.@X$XOXOXOXOXOXOXOXOXOXOXOXOXOXOX{.OXOXZ.[.9.[.OXOXOX[.9.Z.[.9.9.W 9.[.W [.OXW P 2 : 1 2 n y 2 y y y y 1 2 y > 2 y 1 1 y y u u u o 7 t.X.X.o.[ [ X.X.~ +.4.@ * S y u 1 u u u y u u u u y y u 1 1 y u y y 2 y > y y y y y y y y y > n N 2 y y y y y 2 u P u X 7 ~.l.v.V.m.N.W.W.iXhXg o @ 4 @ # u u u y y y 2 Z 2 y 2 y y y y y 2 2 y N y n 2 2 y 2 2 2 2 2 Z b 2 2 2 2 2 , 2 2 2 2 2 2 Z 2 2 y 2 2 2 y n y y 2 1 & : y P R W 7.9.9.W W 9.9.9.9.[.{.9.[.{.[.OXOXOX+X@XOX+X@X@X@X+X@X{.9.W E E R R G q G r t e e r e t e t e t e e r e e e e q q e q q q q q q q 0 5 q 0 0 0 0 4 q 0 0 0 0 0 4 4 0 0 4 0 4 0 9 0 4 0 0 0 4 0 0 0 0 0 0 4 0 % 4 0 q q q 0 q q q q q q 0 q q q q q 5 q q q q 0 q q q q q q q q q q q e q q q q q q q q q q q q e q e e q q e u q q e q e e e q e e e 9 e e e e e e C e i e e t t t t C ^ @.@.^ ^ ^ ^ #.^ ^ #.#.^ #.#.#.#.#./ &.&.#.#.&./ &.&.&.#.&.&.&.&.&.&.&.&.&.&.&.&.&.&.&.&.&.&.&.&.&.&.&.&.*.&.&.&.&.&.&.&.&.&.*.&.&.&.>.C , 2 n < n < v n n < < ; < ; ; , , ; , < < < ; M P H Y K T ).T T *X|.[.|.|.T J @.#.&.>.&.-.-.*.=.*.-.-.=.=.-.-.*.*.-.*.=.-.*.*.-.-.*.-.*.*.=.=.=.-.*.=.=.=.*.=.*.=.=.=.&.&.&.$.#.t 9 9 b b V V V V V V V V V V V M V N V V b ",
"V V V V D V D Z n f L f.d.%Xd.L j f L P P U P U W W W W 9.W W 9.W [.OXW 9.Z.[.9.9.Z.).9.9.W 9.[.9.[.W OXOXZ.[.OXZ.9.{.{.OXOXOXOXOXOX{.+XOXOX+XOX+XOX@X+X+XOX+X@X@X+X$XOX@X@X+XOX@X$XOX$X@X@X$X+XOX@X@XOXOXOXOXOX@X@X@XOXOXZ.OXOX{.$X+X{.OX@XOX+XOXOXOXOXOXOXOXOXOXOXOXOXOXOXOXOXZ.OX{.[.OX[.{.9.W 9.9.9.9.9.W E 9.{.OX7.I 2 1 > > y y > > y y 1 2 2 > y y y u 1 u - @ F.X.~ X.[ X.X.[ X.+.| @ $ u y y 2 y y y y u y y 1 2 u u 2 y y u 2 2 2 y > y 2 1 > > 2 y > y 2 2 y 2 2 2 > 2 > y y u 2 u 1   | Q.l.b.b.V.~.~.h @ # 3.1X9X3.@ * u u u y y A 2 Z Z y y Z y y y 2 2 2 2 2 y 2 Z 2 y 2 2 2 2 y 2 y 2 2 2 y 2 y y 2 2 , 2 2 y 2 2 2 2 A 2 2 y 1 y y y 2 1 > : 1 y P I U 9.9.[.7.9.W W W E W R P T I P P S 2 2 2 1 2 2 > > > > : > > % q G i t i r i r i i e t e r i e i e q e e e q e q q q q q q q 0 0 9 5 q 0 9 0 4 9 4 0 0 0 0 0 0 0 0 9 0 4 0 0 0 4 0 0 0 0 % 0 0 4 0 9 4 0 q 0 q 0 q q 0 q q q 4 q 0 q q q q q q 9 q q q q q q q q q q q q q q q q q q q q q q q q q q q q q q u q q q q q e q q u q e e q e q e e u e C e e e e t t t t t t ^ ^ t t ^ @.^ #.^ ^ #.#.^ #.#./ #.#./ #.#.#.#.&.&.#.#.#.&.#.&.#.&.#.&.&.&.#.&.&.&.&.#.&.&.&.&.&./ &.&.&.&.{ *.&.*.&.&.&.*.&.&.&.&.&.&.&.&.&.^ % n M n n M M < < < < < < < : ; ; : ; < < < < n M H T Y Y T T ).[.[.[.[.{.T G C >.>.=.>.=.=.=.=.=.*.-.*.-.-.*.-.-.*.=.=.-.-.-.-.*.-.-.-.=.=.*.=.=.*.*.=.=.=.&.=.*.&.&.&.>.&.#.t w 9 9 , b V V V V V V V V V V V V V V N b v ",
"V V V V V H D D D n M U f.f.f.f.P U W 9.9.OX9.).W OX[.).W 9.7.W W 9.W W U W E E W W W 7.9.[.[.Z.9.Z.9.{.[.+X9.OXOX{.OXOXOXOXOXOXOXOXOXOXOX@X@XOXOXOXOX@X+X@X$X@X@X@X+X@X$X@X$X@X@X+X$X@X$X@X@X$X@X@X$XOX@X$X+X@XOXOXOXOX@XOXOXOX+X{.{.+XOX@XOXOX@XOXOXOXOXOX{.OXOXOXOXZ.OX9.Z.9.{.{.Z.{.{.Z.W 9.9.9.9.W 9.9.[.9.7.R E [.{.[.E P y > : : 2 2 2 y y 1 1 y y y 1 u A X h rXk.k.o.X.~ X.X.| t.# @ u y & y u > y 2 u 2 2 1 u 1 y 1 1 y > > y y 2 2 2 > 1 y y y 2 2 A 0 2 y > y > > y 2 1 y 1 1 A 2 u - o C.Q.l.T.~.j.@ # 2.>XP.a.P.1XA.o o u u y y 2 y n y Z Z Z y y N 2 y 2 y y Z Z 2 2 Z y 2 2 2 y y 2 2 y 2 2 2 Z y 2 y 2 2 2 2 2 2 2 2 > : : < 1 1 : : > : > > : : : & 1 1 > & & : : > 1 1 : > 1 2 1 2 2 y 2 Z y y A A y A A Z y u u 0 q t t t r r r e r e e t e e e e e e e e e e q e q q q q q q 0 0 q q 4 4 9 0 0 0 0 9 0 9 0 0 9 0 0 0 % 0 0 % 9 0 0 0 4 4 % 4 0 0 0 0 0 4 0 5 9 q 4 4 9 q 4 0 q q q 5 q 5 9 q q q q q q q q q q q q q e q q q q q q q q q q e q q e e q e q e e q q q q e e q q 9 e e q e u e u e e e e u e e i e t C t t t t ^ ^ ^ ^ ^ C ^ ^ #.#.^ #.^ #.#.#.#.#.#./ &.#.&.#.&.#.&.&.#.&.&.&.&.#.&.&.&./ &.&.&.&.&./ &.&.&.&.&.&.&.&.&.&.&.&.{ &.&.&.*.&.&.&.*.&.*.&.&.&.#.9 b v < n < n n < v < < ; < ; : : ; : < < < < M P H ).T Y ).Y W [.[.{.|.{.).J G #.>.=.=.=.*.=.=.=.=.*.-.-.-.-.*.-.-.*.-.*.-.-.*.=.*.-.=.=.*.=.=.*.=.=.=.*.=.*.=.*.*.&.&.#.#.t e 0 % , v V V D V V V V V V V V V V V N b b b ",
"V V C ^.V D D D H H H Y Y Y Y L 2 U Z.W W W W [.W W 7.9.3.9.W 7.W W W W 7.W 9.7.9.9.9.9.9.9.9.9.9.9.9.9.Z.9.OXOX9.Z.{.9.8.{.Z.9.9.OXOXOXOXOXOX@X+X@XOX$X@X@X$X@X$X@X$X@X$X@X@X$X@X$X@X@X#X+X@X@X+X#X+X@X@X#X@X#X+X@X@X+X@XOX@X@X@X{.@XOXOXOXOXOXOXOXOXOXOXOXOXOXOXOXOX{.OXOX{.OXOX{.[.9.9.9.9.9.9.9.9.9.9.9.W 9.7.W W W W W W [.9.W T A > : 2 1 1 0 2 1 0 1 u 1 & o U.k.k.k.z.k.k.X.X.+.# $ u y 1 u y : y > y 1 2 1 y y y y 1 y 2 y 2 2 2 2 y 2 2 y y 1 > 2 2 1 1 2 2 2 2 y y 2 y y 1 1 y 2 y y P @ o C.Q.Q.| o 5 4.p.t.q.t.y.P.1X:X4 o u u y y y y Z y y y y y y y y y Z A y y y y 2 2 y y N 2 2 2 > 1 < 1 > > : , 2 2 2 > 2 y 2 2 S P P P I I T I R W E W W 7.9.9.9.{.9.W R P u 2 2 y A y A A A Z A A A A y A 2 A A 2 y A 2 2 y y % e i t t w r i t e r r e t r e r e e e e e q e q e e q e q q q q 0 0 0 q q 4 9 0 4 0 0 4 0 0 % 4 0 4 0 0 0 4 0 0 0 0 0 0 9 0 9 4 0 4 0 0 4 0 0 5 9 q 9 q q q q q q 9 q q q 0 q q 9 5 q q q q q q q q q q q q q q q q q q q 9 e q q q q q q q q q e e q q q e q e q q e e q e e q i e e e e t e e t t t t ^ ^ C ^ C #.^ ^ #.^ #.^ #./ #./ #.#.#./ #.#.&.#.#.&./ &.#.&.&.&./ / &.&.&.&.#.&.&.&.#.&.&.&.&.&.&.&.&.&.&.&.&.&.&.&.&.&.&.&.&.&.*.&.&.&.&.&.&.#.^ , Z n M Y M < < v < < v < ; < ; < < ; < < < < A M F T Y T T T W |.[.{.[.[.T K C >.>.=.=.*.=.=.*.-.-.-.-.*.-.=.=.*.-.-.-.-.*.-.*.-.-.*.=.=.=.=.=.=.=.*.=.=.&.=.*.*.*.=.&.#.t 6 q % @ < b V V V B V V V V V V V V V V b b b , ",
"V V H V V H V V C C /./.|././.K F R [.7.9.W 7.W 9.9.9.9.9.9.9.9.7.W Z.W 9.W 7.W 9.W 9.9.9.9.9.7.9.9.9.OXOXOXOXOX9.OXZ.9.OXOXOXOXOXOX{.OXOXOXOXOX@X@X+X@X+X$X@X$X@X+X@X@X@X$X+X+X$X@X$X+X@X$X+X@X+X@X@X+X@XOX@XOX@X@XOXOX@XOXOXOXOXOXOX@XOXOXOXOXOXOXOXOXOXOXOXOX9.OXOXZ.{.OX{.OXOX{.[.[.[.9.9.9.9.9.9.9.9.9.7.9.W 7.7.W 7.7.7.W 7.W 7.W W T y : & > 2 u y y u u X 7 ~.z.k.k.k.c.v.z.U.8 o u y 1 y y 2 y 2 > 1 y 2 2 2 > y 2 2 2 y 2 y 2 2 2 y 2 2 2 2 2 2 2 2 2 1 1 2 2 y y 2 y 2 2 y 2 2 y y 2 y u X 7 ZX3.o 7 2.$.2.q.a.e.a.a.P.>X>X3 o $ o $ 1 u P u A Z Z > 1 > 1 : 1 : 1 : > < 1 > > 2 2 A u 2 A P P P T R E E E E E W 9.{.[.Z.{.9.OX[.Z.[.W W W W E W W W W W W 9.W W W W W W P A > & : 1 2 2 y 2 2 2 2 2 2 : : : 2 2 1 : & , % e t t ^ t t t t t t r t r t r e r r e e t e e q e e q e q q q q 0 9 q q 9 q 4 9 q 4 0 4 9 0 0 0 0 0 4 0 % 0 0 0 4 4 9 0 0 4 0 4 9 0 0 4 0 9 4 q q q q 5 q 0 q q q 5 q 0 q q q q q q 0 q q q q q q q q q q q q q q q q q q q q q q q q q q q q e q q e q e u e q e 9 u e e e e e e e e e e t e e i t C ^ t @.t C ^ ^ ^ #.^ ^ #.#./ #.#./ #.&.#.{ #.#.&.#.&.#.&.&./ &.&.&.#.#.&.&.&.&.&.&.&.{ &.&.&./ &.&.&.&.&./ &.&.&.&.&.&.&.&.&.&.&.*.&.&.&.&.&.&.>.&.#.9 n M ).Y Y x n v < < < < ; < < < < < < < < < M Y P Y T T Y T T [.{.[.[.[.T K G %.=.*.*.*.*.=.=.=.=.-.-.=.=.*.=.*.-.*.*.-.*.*.-.*.*.*.=.=.>.>.>.=.=.=.=.*.*.=.&.&.*.%.( Q 7 5 * & > , b V C B V V C V V V V V N V V b : > : ",
"N V V V V V V H /.K |.XXXXXX|./.K T [.9.9.W 9.9.9.9.8.9.9.9.[.W W 9.9.7.W 9.W 9.7.9.9.9.9.9.9.7.9.Z.9.9.9.9.[.Z.[.f.{.+XOXOXOX{.OXOXZ.OXOXOXOXOX+X@X@X@X@XOX+X@XOX$X+X$X$X@X@X$X+X@XOX$X@X@X+X@X@X@X@X@X@X@XOX@X+XOXOX@XOXOX+X@X@XOXOXOXOXA.OXOXOXOXOXOXOXOXOX{.OXOXOX{.{.{.{.{.{.{.[.Z.9.9.9.9.7.9.9.W W 9.W W W 7.7.W W 7.W 9.7.W E E W W 9.8.9.P : & 1 u 1 - X C.T.k.c.c.v.c.k.E.U.o - u y u y 1 0 1 2 y 2 y 2 y y 2 y > y > 2 2 2 2 2 1 2 2 2 > 1 2 2 y 2 y y 2 y 2 2 > y 2 y 2 y y y y y y f A u o . o 7 2.) _ ' %.q.r.r.t.y.D.1X1X4 o U 1     & P P I I R R 7.[.W 7.9.9.OX{.OX$X=X$XOX@X+X$X$X{.+X9.9.9.W W W E E R R R W W E P I I U R P I E Y I I I Y E I Y I P I T T I E T E W W W P A < : + O : : 2 2 : , 2 : : : : > > 2 % 9 G t t t t r t r t t t t t r r r e r e e e e e e q q w q 0 q q q 4 q 4 q 9 q 4 q 0 0 q 0 0 0 0 4 0 9 0 4 4 9 4 9 0 4 4 9 9 4 9 4 0 4 4 % q 9 q q 4 9 5 9 q q 0 q q 0 q q q q q 0 q q q q q q q q q q q q q q q q q q q e e q q q q e q q q q q q u q e q e q q e e e e q e e B i t e r C t t t t t t ^ ^ ^ ^ #.^ #.^ ^ #.#.#.^ #.#.#.#.#.#.#.#.&.#.#.&./ #.&.#.&.#.&.&.&.&.&.&./ &.&.&.#.&.&.#.&.&.&.&.&.&.&.&.&.&.&.&.&.&.&.&.&.{ *.&.&.&.&.=.&.&.#.&.C % b M Y Y Y L l l n < l ; < < ; ; < ; < < < < F P M T ).).T T ).[.).[.[.].5.K G >.&.-.*.*.*.=.*.=.=.=.-.=.=.-.*.=.-.*.-.*.*.*.*.-.=.*.&.&.=.=.&.=.=.&.&.&.*.&.&.&.&.` ^ 5 u 7 - & : , b V V V V V V V V V V V N b V n , & 1 ",
"V V D V V V C V C /.|./.XXXXXX].T Y 9.[.9.W 9.Z.Z.9.8.9.9.9.9.9.7.8.8.9.9.W 9.9.9.9.9.9.9.9.9.9.9.[.9.9.9.9.9.OXOXOXOX{.9.{.{.[.9.{.OX{.OXOXOXOXOXOX@X@X+XOX$XOX+X@X@X@X+X@X$X@X$X@X@X@X@X@X@X@X$XOX@X@X@X@X@X@X@XOX@X+X@XOXOXOXOXOXOXOXOXOXOXOXOXOXOXOXOXOXOXOXOXOXOXOX{.{.[.Z.{.{.9.{.9.9.9.9.7.9.9.W W 7.7.7.9.7.7.7.E E W E 7.7.W W E U W 7.R 9.{.W P 1 1 o o Q.H.z.c.k.c.v.m.yX$ o u f u 1 y y y y y 1 > 2 1 y y 2 2 2 y 2 2 2 y 2 y y n 2 A y y y y y y y y y y 2 y 1 > > 2 1 1 > : > : : : & - 1 o 4 1.) ) ` ` _ 2.q.i.r.r.a.a.>X9X7 o IXIXZ.  O +X7X&X@XOXOXOXOX@X@X9.7.W 7.7.7.7.T U I T E I R I Y E I R E E P R Y U E E W E U I Y E R E E I U Y U U R E I Y U I R E Y R I R Y T Y E E R E R P A : O O & : < 1 > : : > : 0 % 9 t t ( t i ^ t t t r t ^ r r r r r r e e e e e e w e q e q q 5 q 0 q 4 q q 9 q 9 q 9 4 0 4 0 0 9 0 0 0 0 9 4 9 0 0 9 9 4 0 0 0 4 4 9 0 4 4 q 0 0 q 0 q 9 q 0 0 5 q q q q q q q q q q q q q q q q 9 u q q q q e q e 9 q q 9 q q q q u e q e q e q e q e q q e q e q e e e e e e e e t e e t t t t ^ ^ ^ ^ @.^ @.t #.^ #.^ #.^ #./ / #.#.#.#.&.#.&.&.&.#.&.&.&.&.#.&./ &.#.&.#.&.&.&.&.&.&.&.&.&.&.&.&.&.&.&.&.&.&.&.&.&.&.&.&.&.&.*.&.*.&.&.&.&.&.&.&.&.#.0 Z M Y Y (.L l < < < < < ; < + < ; ; < < 1 < A Y H Y T T Y T E ).[.|.).[.).J @.6.>.=.*.*.*.-.=.-.*.*.-.=.*.=.-.*.*.*.*.*.-.-.-.*.*.=.*.=.=.=.=.=.=.&.>.*.*.>.>.&.#.^ e 5 0 > - 1 2 b N V V V V V V V V b V V N b b b : 1 - ",
"B V V D V H V D K /./.XXXXXXXX/./.H W 9.9.9.9.9.9.9.9.9.[.9.[.Z.9.[.8.9.8.9.9.{.9.Z.9.W 9.9.Z.9.9.9.9.9.9.9.[.W 9.OX9.{.Z.{.OXZ.OXZ.OXOXOX@XOXOX@XOXOX+X@X@X{.$X$XOX$X@X$X@X@X+X@X@X+X@X$X+X@X@X@X@X+X@X+X@XOX+X@X@XOX@X@X+XOXOXOXOXOXOXOXOXOXOXOXOXOXOXOXOXOXOXOXOXOX{.{.Z.{.9.OX9.9.9.Z.9.9.9.7.W 9.7.9.7.W 7.E W W W 7.7.W 7.U 7.7.W W W W W E W R 7.8.7.8.@ g Q.z.z.k.z.v.v.E.Q.. S u u y 2 2 y 1 y y y y y y y 2 y y 2 2 2 y y 2 > > : > : : : > : : > & : 2 1 2 1 y A S P P I P R R E W 9.9.9.$Xu o I ) ) ) ` _ _ _ } q.i.r.i.a.p.:X9XX   +XIXJXO   R OXW 7.W E E 9.9.7.9.9.9.W W 7.9.9.7.E E W E E E E R P R E T E E R E R R W R I E R W E Y I Y I Y E I R I U T Y U E I E E E E E U I Y E Y R E E R R P A 1 + + : : < : > > 0 e G t t ^ ^ r i t t t t t t w t t r e w t t e e e q e e q q q q q q q q q q 4 q 4 q 4 q 0 0 9 4 4 0 4 0 0 0 0 0 4 0 4 0 9 9 0 4 0 9 4 0 % 9 q q q q q q q 0 q q q q 0 q 0 q q q 0 q q q q q q q q q q q q q q u q q q q q q e e q e q q q e q q q e q q 9 e q u e e e e u u e e e e i t t t t t t C t ^ C ^ ^ ^ #.^ ^ #.#.#.^ #.#.#.#./ #.#.#.{ #./ #.&.&.&./ &.&.&.&.&.&.&.&.&.#.#.&.&.&.&.&.&.&.&.&.&.{ &.&.&.&.&.&.&.&.&.&.&.&.&.*.*.&.=.&.&.&.&.&.#.#., n M ).Y ).v n n < < < < < < ; ; < < < l < < M F H T Y ).Y T ).[.[.[.[.].K K G &.&.=.*.-.-.-.*.-.-.*.*.=.-.=.-.*.-.-.-.-.*.-.=.*.*.=.=.&.&.&.&.&.&.&.&.&.&.#.&.#.^ e 4 0 - : > < 9 B V V V N V V V b V V V V N b b b : - 1 ",
"V V V V H H V V C /.|.XXXXXXXXXXT K W [.[.[.).Z.{.8.{.9.9.9.9.{.9.9.9.9.9.[.[.{.[.9.9.9.9.Z.Z.{.[.9.[.9.9.9.9.W 9.OXOX+X+XOXOX{.OXOX+XOXOXOX+X@X@X+X@XOX@X@X+X@X@X$X@X$X+X@X$X@X@X$X@X$X+X@X@X+X@X@X@X@X+X@XOXOXOXOXOXOXOXOXOXOXOXOX{.OXOXOXOXOXOXOX{.{.OXOXOX{.9.OXOX{.Z.OX9.Z.9.Z.{.9.9.9.9.9.9.9.9.7.W 7.W E 7.W 7.W E W E E 7.7.E W E E W W W E 7.7.R 7.Z.o h !.z.k.c.c.v.V.~.h X u u 2 : 1 2 > > > & & : & & : > & 1 1 > y 2 y u A P P I I T R R W W 7.[.[.9.[.[.OXOX{.{.{.{.[.{.9.[.9.{.9.Z.9.W o 5 1.) ) ` ) _ _ ` _ %.q.a.u.a.L.1.o X A   ;XPXLXf . W $XZ.7.9.9.7.9.7.W 9.7.7.W W 7.E 7.W R W R E T E T R E R E E E T E R E W R R E Y R T R U Y E Y R U E P E E I U E I I E E E E I E R P E U I T Y U R E W T I A < & + @ > % 4 G t ^ t ^ ^ i ^ t ^ t t t t t t r r t r w w t e e e e e e q q q q q q q 0 q 9 q 0 0 q 4 4 9 0 q 9 4 9 4 4 9 9 0 4 9 9 4 4 4 0 4 9 q 0 4 q 0 q q q 0 q q q 5 9 q 9 q 4 q q q q q q q q q q q 9 q q e q q q q q q e q q q q e q u q q e e q u e q e u e e q e q e e e e e e e e t w t C t t t t ^ @.t t ^ ^ #.#.^ #.#.#.^ #.#./ #.#.#.#.&.&./ &.#.&.#.{ #.&.&.&.&.&.#.&.&.&.&./ &.#.&.&.#.#.&.&.&.#.&.&.&.&.&.&.&.&.&.&.&.&.&.&.&.&.*.&.*.&.&.*.&.&.&.&.#.9 b M ).Y Y M < v < < < < < ; : < < < < < < < M Y M T T T Y T T |.[.].[.[.T J t >.&.-.*.*.=.=.=.=.*.*.-.-.*.*.*.-.*.*.*.*.*.&.*.*.-.*.&.#.#.#.^ #.#.#.#.#.C ^ ^ t w 9 % > > , , b N V V V V N V V V V V V V V v V M v : 1 - ",
"V V V V V V V H /.K |.XXXXXXXXXX).).T [.{.9.W OX{.Z.9.9.9.OXZ.9.OX[.7.9.9.[.Z.[.[.9.9.[.9.[.9.9.Z.[.Z.OXOXOX{.[.9.{.OXOXOXOXOXOXOXOX@X@X@X$X@X@X@X@X@X$X+X$X@X$X@X$X$X@X@X$XOX$X@X+X@X@X@X@X@X@X+XOX@X+XOXOXOXOX+XOXOXOXOXOXOX+XOX{.+XOXOXOXOXOXOXOXOXOXOXOX{.@XOXOX9.{.[.9.OX8.{.8.9.9.W [.W W W W W 9.7.W 7.W 7.7.W 7.7.7.7.9.9.W 7.W W W 9.9.[.W 7.7.8.8.U X j.T.z.v.v.v.b.T.yXo - S f y y y S P P P I R R R E E 7.7.9.{.9.Z.9.[.9.9.[.Z.Z.9.9.[.9.9.9.9.9.9.9.[.W 9.W 9.W 9.W 9.W 9.9.9.9.9.[.9.+Xo @ 3.@.( ) _ _ ` _ ' _ ` $.p.u.3 o Z.GXVXW   %XLXKXP   OXZ.7.9.9.9.8.U 9.9.7.9.9.9.9.9.9.7.R E E U E U W E R T U Y E U R R W E E T R E R U R R T T U R T E I E E E Y E R E E R E E W E I W P T E R T E E U I Y I R U T P S < @ 0 t @.^ ^ ^ t ^ r t t t ^ t t r ^ t t ^ w t r r t r e e e e e e q q 6 q q q q q 4 4 9 q 9 q 9 0 0 0 9 4 9 0 0 4 0 4 0 4 q 0 9 0 0 0 4 4 % q q q 0 4 q 0 q 0 q 0 q q q q q 0 q q q q q q q q q q q q q q q q e q q q q e q q q q e e u q q e q q e e q q e e e e e u e e e t e i e t t ^ t t t ^ C ^ ^ #.t ^ ^ ^ #.#.^ #.#.#.#.#.#./ &.#./ #.&.&.#.{ &.&.#.#.&.#.&.&.&.#.&.&.#.&.&.&.&.&.&.&.&.{ &.&.&.&.&.&.&./ &.&.&.&.&.&.&.&.&.&.*.*.&.&.&.&.&.&.&.&.@.9 b L ).Y ).n l < < v ; ; < < ; ; < ; < < < < A P F Y ).).T T ).[.).[.).|.T K G #.=.*.-.*.*.&.=.*.*.-.*.*.*.*.*.*.*.*.&.*.=.*.*.*.*.&.&.#.^ ^ #.C K #./.#.C C w 9 9 % , , b 2 b V V C V V N N V V M V v V V V V V V b : - 1 ",
"V V V V V /.V H /././.XXXXXXXXXX/.K H 8.OXoX[.[.{.9.9.Z.{.{.[.9.Z.W 9.W OXW 9.W W 9.9.W 9.9.9.9.9.[.OX9.{.Z.9.Z.9.9.9.{.{.[.[.Z.OXOX@XOXOX$X@X+X@X+X@X@X@X@X@X@X@X$X@X$XOX$XOX@XOXOXOXOXOX@XOX+XOXOXOXOXOXOXOXOXOXOXOXOXOXOX{.[.OX{.OXOX{.OX{.OX{.OXOX{.{.OXOXZ.Z.8.9.Z.OX8.8.OX9.Z.OX9.+XOX{.{.{.9.9.9.9.9.{.[.9.7.7.W E E U I R I P P P y A 2 1 y > & : 1 $ o j.H.z.z.m.b.N.V.~.  j 9.OXOXOX9.[.9.[.9.W 9.W 9.7.W 9.7.7.W W W 9.9.7.9.7.7.9.7.W 9.W [.9.9.9.9.W 9.9.9.[.9.9.9.9.9.9.9.9.9.9.9.9.9.OXW o 3 2.( ` ` _ _ $.$.$.) 2.i @ @ nXPXqXqXPXf.  Z.LXIX= $ Z.OX8.Z.9.Z.8.9.OX9.9.U 9.9.7.E W E T W R W W 9.7.W R E E E E R R E W E E U W W E Y E U Y E E I U R R E U T R R Y E E E E R I R W E R Y E T I E I Y T R I Y Y I P R T G 4 t @.^ ^ ( ( t ^ ^ ^ ^ t t t ^ ^ r w ^ ^ t r w w e r r 6 e e e w e q q q q q q 9 q q q q 4 9 4 q 4 4 q 4 9 0 0 9 9 4 0 0 4 9 4 0 q 4 0 0 q 9 q q q q q q q q q q q q q q q q q q q q q q q q q q q q q q q q e q q q q q q q e e e e q e q e e q e e q u e e u e B i e e i t e t t t t t @.t ^ @.^ @.^ #.^ #.^ #.#.#.#.#./ &./ #.&.&.#.&.&.#.&.#.&.&.&.&.{ / &.&.&.&.&.&.&.#.&.&.&.&.&.&.#.&.&.&.&.&.&.&.&.&.&.&.&.&.&.*.&.&.&.*.&.*.&.&.&.&.&.#.&.#.@., n H Y (.).L n n < < < ; < < ; < ; < < n < < M H M Y Y Y Y T T [.[.).[.).T G t >.>.=.*.*.=.=.=.=.=.*.*.*.*.=.=.*.=.*.=.=.*.=.*.-.=.&.#.^ t C #./.#./.C C C B N b 9 N 9 b b b V V V V V V V N V V V V V V V V V V b v : - - ",
"V V V V V V V V C /./.XXXXXXXXXX|.H V ).[.[.[.Z.{.Z.OX9.{.9.[.Z.9.9.OX+XW OX9.9.9.9.Z.[.9.9.9.9.9.9.9.[.9.9.[.[.OX9.{.9.9.OXOX[.OXOXOXOXOXOXOX@XOX@XOXOX+X@XOX+X+X@XOXOXOXOXOXOXOXOXOXOXOXOX{.OXOXOXOXOXOXOXOX{.OXOXOXOXOXOXOXOX+XOX{.+XOXOXOXOXOXOXOXOXOX{.OXOXOX@XOX{.{.{.9.{.7.E E E T P Y P P A A A y 1 1 1 : & & : : : : : : > > > 1 1 > y 2 Z y y y u 1 $ l.H.v.v.m.N.V.W.Q.o > 0 1 y I 7.W 7.W 7.9.7.9.7.9.9.W 7.7.9.9.7.7.7.9.7.9.9.9.9.9.9.9.9.9.9.[.7.{.9.{.9.9.[.{.9.{.{.9.OXOX9.OX9.7.OX9.@XI o i 1.) _ ( ) ) ) ) 1.* o 7.IXqX*X0XzXbXW     U IXIXO 1 @X{.9.9.9.@X9.9.{.Z.9.W 3.9.W W W W E E E W E W W E R W W R U W E 7.U E E R U E U R U E E U E Y E E U Y E E R E E E E W 7.W E 7.E W E R U R Y E E P P T U I T T I I I G q q w G t t ^ t @.t t ^ ^ ^ t w ^ ^ ^ w ^ r t r r w w w w 6 e q q e q q q q q q q q q 0 q q q q 9 9 q 9 4 9 4 q 4 9 0 4 9 4 9 4 9 4 4 q 4 q 4 q q q q q q q q 0 q q q q q q q q q q q e q q q q e q e q e q q e q e e e e q e 9 e q e q e e q e e e e e e t e e e e e C e e t t t w t ^ t ^ ^ ^ ^ ^ #.^ #./ #.^ #.#.^ #.#.#.#.#.#.#.&.&.#.&./ &.&.#.&.&.#.&.&.#.#.&.{ &.&.&.&.&./ &.&.&.&.&.&.&.&.&.&.&.&.&.&.&.&.&.&.&.&.&.&.&.*.&.&.&.&.&.&.&.&.>.#., N M ).L ).x < < < < < , < ; : < ; < < < < < P P F T E T T ).T ).7.7.].[.R I G #.>.&.=.=.=.=.&.=.&.&.=.=.=.=.&.&.&.&.&.&.#.&.#.#.#.#.w w w /.#./.|.|././.C B B N V V V V b V H V V V V V V N N V V V V V V V v V n < < = 1 ",
"V C V V V D V V H H /.|.XXXXXXXX).J b b W +X+XW [.9.OX9.{.OX9.Z.8.9.9.9.OX9.9.9.9.[.9.9.{.9.9.7.9.9.8.9.9.Z.[.9.9.{.{.9.Z.9.9.Z.Z.{.{.OXOXOXOXOXOXOXOX9.{.{.OX{.OXOXOX@XOXOXOXOX{.OXOX9.OXOXOXOXOX{.OXOXOX+XOX@X+X@X+X$X$X$X+X&X@X@XOXOXZ.{.[.{.9.7.W R E P P P u P y 2 2 2 2 2 > 2 > > : 1 2 2 2 y 2 2 y 2 2 2 2 2 2 2 y 2 2 2 > 2 2 > 2 2 2 2 2 2 y 2 y y $ - F.z.z.z.c.N.V.W.Q.. o > P y y & y R [.OX{.7.7.W [.9.W 7.9.9.9.9.9.9.9.Z.9.9.9.9.9.9.9.9.OX9.[.{.9.{.9.OX9.9.9.{.OX9.{.Z.9.9.[.Z.OX9.OX{.$Xo @ 1. .( ` ` ) 1.1.@ o 9.FX0X+X%XbXf.+   U oX  %XLXW   OX+XZ.7.9.OXOX{.{.OX9.7.9.9.7.[.7.7.7.E 9.7.7.E W E U 7.7.E 7.E {.W E E R E E E E E E 7.7.E U R W W E E E E W W W W E E W W W E E W R R E T T R T R T T T Y I Y I U R T I G G e e q t t @.^ ^ ^ ^ ^ ^ ^ ^ t ^ t ^ t r w r w 6 6 e r w e e e e w q q w q w q 6 9 4 q 0 4 9 9 4 4 9 4 9 9 q 4 9 q 4 9 4 4 9 4 4 q 0 q q q q q 4 q q q q q q q q q q q e q q q q q q q e q q e q e 9 e e q e e 9 e q 9 e e e e e e e e e e e e e e e e e e t e e e t e t t ^ t ^ ^ ^ ^ ^ ^ ^ ^ #.#.#.#.#./ #.#.#.#.#./ &.#.#.{ #.{ &.&.#.&.#.&.&.&.#.&.&./ &.&.&.#.#.&.&.&.&.&.&.&./ &.&.&.&./ &.&.&.&.&./ &.&.&.&.*.&.&.&.*.&.&.&.&.&.&.&.{ &.C < n L (.Y Y L l n l < < ; ; < < ; : < < < < < D H P Y ).T T ).T ].].W [.).T J e |.&.&.&.#.&.#.#.#.#.#.#.^ ^ ^ ^ ^ w ^ r t w w t w C G C 9 B C /.|.|././.#././.V V V V V V V V V V V V V V V N V V V V V V V b V v V v < = f ",
"V V V V V V V H V /././.XXXXXXXXXX/.H v , < P =X+XOX9.{.[.9.9.9.9.9.9.OXOX{.9.8.{.[.7.[.9.9.9.[.OX{.OX9.9.9.9.OX9.Z.{.9.9.9.[.9.8.7.9.W [.9.9.[.OXOXOXOXOXOXOXOXOX@X+X$X$X+X$X$X$X$X$X$X@X@XOX+X+XOX{.[.9.W W W I I P P A A y 1 > 1 > 1 1 1 : > : 1 2 2 2 1 2 2 y y y A D A A n y 2 n y y Z 2 2 2 2 2 2 2 2 2 2 2 2 2 2 2 > 2 2 2 2 2 2 2 y 2 y y 2 2 y 1 . . - C.z.z.v.b.V.V.W.tX. 8.o > P 1 u y : & > P 7.OXOX[.9.9.9.9.7.9.9.9.9.9.9.9.{.Z.[.{.Z.9.{.{.Z.{.{.{.9.OX9.OXOX{.Z.OX{.OXOXOXOXOXOXZ.9.OX{.9.@Xo 4 ( 2.` `  .1.@ * &XKX+X%XqX;X+   L bXPXHX*X  W UXu P $X9.[.7.$X8.OX[.9.9.9.7.9.8.{.9.9.7.9.7.E 7.7.E 7.7.E U 9.9.W {.9.E W 7.9.W 7.W W 7.E E W E E E 7.9.W W R W W W [.W W W 7.[.7.W W [.7.W W W W R E E E R E R T U I R I T I I I R I G e 9 9 w t t t ^ t @.^ ^ ^ t ^ w w ^ t t w r w r w e w e w q q w w q q w w q w q q q q q q q q q 4 4 9 q 4 9 4 9 9 4 9 9 q q q q q q q w q q q q q q q w e q q q q e q e q e q e e q q e q e e q e q q e q e e e e e e u e e e e e i e e e t t e e e t t t t t t t ^ @.t ^ @.^ ^ #.^ #./ ^ #.#./ #.#.#./ #.&.&.#./ &.#.&.#.#.&.&.&.&.#.#.#.&.&.#.&.&.&.&.&.&.&.{ &.#.&./ &.&.&.&.&.&.&.&.&.&.#.&.&.&.&.&.&.&.&.&.&.&.&.{ &.&.&.&.&.&.&.^ , n Y Y (.).v n < < < ; < < < + < < ; < < < < M Y F T Y T Y T T ).7.).).E T I 9 w C ^ w w w w w w w w w w C B t C w B C C e C B B C C F C N V J /./.K /./.C V C V V V V V V V V N V V V V V V V V V V V V b V V V v , : 1 - ",
"V V V V V V V V C /./.|.XXXXXXXXXX/.H b D Z 1 1 I +X$X9.{.9.7.{.9.9.[.8.8.8.5.J R I T 1.5.I K T 5.8.8.9.9.9.W 9.9.9.9.9.[.{.f.OX[.+XOXOX[.+X{.+X$X+X+X@X+XOXOX{.[.9.W W R T U P P P P A y y 2 2 1 2 1 1 1 1 2 2 2 2 2 y 2 A 2 A y y y A A A n P A A Z n A A A 2 A A Z Z A A n 2 A 2 y 2 2 > , 2 2 2 y 2 2 , 2 2 2 2 2 2 , 2 2 2 , n 2 2 2 2 N N y , A A X * I @ F.T.F.b.b.V.W.~.rXo ,X3.o u y 2 A Z A A > : y P [.{.OX{.[.[.[.[.[.9.9.9.{.9.OXOX{.9.OX9.{.{.OXZ.OXOXOXOXOXOXOXOXOXOXOXOX@XOXOXOXOX$XOX9.{.=XI o i 1.) 1.@.o o SXVX+X%XpXf.X   zXVXzXqXzXPXzXX f.nX  $X+XOXOX{.OX@X{.{.OX@X9.9.OX8.OXOX9.{.7.7.9.9.9.7.7.W 7.7.9.7.7.W 9.OXW 9.{.7.W 7.E E W 7.7.8.W W 9.9.7.9.W [.9.7.[.[.[.9.W 7.[.7.7.W 7.7.7.R 7.W W W E E R E W R Y R I R I I I I I G I G @.G e 9 5 q e t @.^ ^ t ^ ^ t t w ^ t w w w w w w w q w q q w w 9 q q q w q q 4 4 q q q q q 9 9 4 9 q 4 q q 4 4 4 q q q q q q q q q q q q q q q q q e q q e q e q e e q q e q e e e 9 q e e e e e e e e e e e e e e e e e e e e t i t t e t t t t t t t ^ C ^ t ^ @.^ ^ #.^ #.^ #.#.#.^ #.#.&.&.#.&.#.&.#.&.&.#.&.&.&.&.#./ &.&.&.#.&.&./ #.#.&.&.&.&.&.&.&.{ &.&.&.&.&.&.&.&.&.&.&.&.&.&.&.&.&.&.&.&.&.&.&.&.&.&.&.#.&.&.&.&.&.#., n Y ).Y Y n l < < < < < ; ; < ; < ; < < v < P F P T T /.T T T 7.].W ].).T Y y B B w B B B C C C B C C C C C C B B B N V B D V B V C V C N b V V H H C C V V V C V C V V V V V N V V V V V V V V V V V V V N V b b < : - - ",
"V V V V V H V M C C K /.XXXXXXXXXX/.H N n A 2 P : 1 T OX@X{.{.9.OX{.8.5.R I 5.5.5.5.5.5.5.5.5.@.R I I R W Z.OXOX{.9.9.9.W W R E T I P P P P A P y 2 Z 2 2 2 2 2 2 2 y 2 y 2 2 A Z 2 y A P A A A A A A P A A A y A A n A A 2 A A P A y n n A y A n n A A A A 2 P y n A n n n P L f 1 1 1 & + : 2 2 b 2 2 2 2 2 2 2 2 2 2 N 2 2 2 2 2 2 2 N 2 y y Z Z y 1 . U i # 3.I.!.~.~.~.~.!.A.@ i L.o y u y y A A Z Z y Z > : > P W +X$XOX{.{.{.{.OX{.OX[.{.{.OXOXOXOXOX{.@X{.Z.OXOXOXOXOXOXOXOX@XOXOX@X@X+XOX@X@X@X8.Z.&Xu o 1.1.1.o o SXgX%X%X;XP   A AXVX%X*XbXVXGX%XX   A   W $XOX@X$XOX$X@X{.8.Z.{.@X@XZ.9.9.9.Z.8.9.8.7.8.9.7.8.7.7.9.9.[.W [.OX[.9.{.9.9.9.9.{.8.9.{.9.9.8.9.9.9.{.9.9.9.9.9.9.7.9.9.7.7.W 7.7.7.7.7.[.7.W E R R R R T Y R I Y T T I Y T T T T I R I I 1.5.5.@.t w q e w w t ^ t ^ t w w r r w r w r w 6 w q e w q q w q 6 q w q w q q q 4 9 w 4 q q q 4 q 4 9 q 9 4 q q q q q q q q q q w q w q e q e q e q e e q e e q e e e e q e e e e e e e e e e e e e e t e t e e t w e t t B r r t C G t t t t t @.t ^ t #.^ ^ #.#.^ @.#.#.#.#.#.#.#.#.#./ #./ #.#.{ #.&.&.#.&.#.&.#.&.&.&.&.&.&.&.&.&.&.&.&.&.&.&.&.&.&.&.&.&.&.&.&.&.&.&.&.&.&.&.>.&.&.=.&.&.&.&.&.&.&.&.&.>.&.$.&.#.#.#.^ > b L Y Y (.v L n < l < < < < ; < < < : < < < F Y H Y T Y T ).T 7.).].).W T F N N B B C C C B V N B Z V V V V N V V D n D D D V C V V V V N N v v b V N V C V C V H V V M V V V N B V V V N V V V V V v V b V Z N < : & - a ",
"V V V V V V V V V V C /.|.XXXXXXXX|./.N b n y 2 2 u 2 1 R $X}.OX8.5.R I @.6.].].6.].}.}.6.}.}.|.5.G y > 2 y L 2 2 1 2 1 2 2 2 1 1 1 2 2 2 1 2 2 2 2 2 2 n 2 A A A A A 2 2 A 2 n A y A n 2 A 2 A P 2 2 2 2 P P y A P n y A y A n 2 A P 2 A n 2 n y A P 2 A f 2 2 2 A 2 L 2 1 1 1 & - - & & o O > y 2 2 2 2 Z 2 y 2 2 y n y 2 n y n y 2 2 2 Z Z y y 2 y u o I r 3 # # 7 7 8 g 7 $ # 4.P.p.@ y S y Z y Z u Z y y S Z A 2 > > P W {.@X@X{.[.[.OXOX{.@X+X{.@X@X@XOX$XOX@X@XOXOXOX$X@X@X+X@X@X@X$X$X@X+X@XOX@XOXA.#XZ.$ > 8.# o aXMXZ.%X;X1   W LXqX%X%X0XnX*Xo o 8.nX1   P ;X+X+X$X#X#X$X@X{.OXOXA.@X@X{.8.@XOXA.OX9.Z.8.9.{.8.OXOX8.{.@X{.OXOX{.OX8.{.{.9.OX{.OX{.8.{.A.9.8.8.A.8.{.9.9.9.8.7.9.8.8.7.7.7.7.3.E 7.7.E 7.7.7.7.[.].9.[.9.[.[.9.9.W W E E W T W R E T 7.5.R R R 5.5.5.1.G e w q w t t ^ t t t r t t t w e w w q 6 q q w q w q 6 w q q 6 q q q q 4 q 4 q q 4 q q 4 9 q q q q q w q q q q q e e e q q e q q e e e e e q e e e e e e e e e e e e e e e e e e t e t e t e e t t e t i t t t t t t t t t ^ ^ t @.^ ^ @.^ #.#.#.^ #.^ #.#.^ / #.#.{ #.#.&.#./ $.&.#.&.#.&.#./ #.&.&.&.$.&.$.&.&.&.&.&.&.&.#.&.#.&.&.&.>.&.&.&.=.&.>.&.&.=.&.=.&.$.$.#.#.#.#.#.#.^ ^ ^ ^ ^ ^ w w w w ^ G C e , n M Y Y ).L l l < < < ; ; : < ; : < ; < < < F F P Y T Y ).T T ].).R 7.).T J n D B Z B B D V D B V D B D C D D V D V D V V D D D D D V N Z Z , , , b B V B B V /.C V V V b V V V V V V V V b V b V V V V V D b 2 : & - d d ",
"V V V V V V D V V V C /./.XXXXXXXXXXH b , y 1 : 2 : 2 1 & y P > u B G 5.].6. X X X.X X.X.X X Xu.5.G 0 : : 1 2 1 n 2 2 2 y y 2 2 2 2 2 2 2 2 2 2 2 2 2 2 2 2 f n 2 2 2 n A 2 P 2 2 y n f A 2 y n y A P 2 n 2 2 2 n y P 2 n 2 2 A y n n A n y P n A f 2 2 1 2 2 f 1 - 1 f 1 = = p - f f f + O : 1 2 b n y 2 2 2 n n y 2 2 2 2 2 2 2 2 y Z Z y Z Z y F 2 y o i p.2.2.( 8 4 3 7 8 1.2.p.t.>Xi @ S S Z S Z y Z S A y S y Z S F 2 2 1 A E $X=XOX{.{.OX$X{.@X@X@XOX@X@X#X+X$X$X$X$X$X$X@X$X@X$X#X$X$X$X$X$X$XOX=X@X@X=X9.o $ X -XJXZ.%X0Xf   $XKX;X@X%XqX%X1 . # #XPXPXJX&   aX=X$X$X$X$X#X#X@X#X@XOX@X@X@X9.OX9.{.#X$X@X#X#X@XOX8.9.{.OX9.8.@X@X0.8.@X8.A.8.{.0.OX{.A.0.A.A.{.OX8.8.8.8.9.{.OX{.8.OX{.OXOX@X@X@X@X$X#X$X$X@X=X$X@X@X*XOX{.{.[.OX9.9.].].7.E E E W E E T R R R R T R 5.5.5.5.5.1.K t e w w w w w w w w t r r r w w q w q e q w q q w q q q q w q q w 9 q q q q w 4 4 4 6 q q w q 6 q w e q e q q e e q w e e q e e e e e e e e e e e e e e t e t e t e t t e e e t t C t t e G t t t t t t t t t t t t ^ @.t ^ #.^ C #.#.^ #.^ #._ #.#.#.#.#.#./ &.&.#.&.#.#.&.{ &.#.&.&.&.#.&.$.&.$.&.&.&.&.$.&.&.&.&.&.&.$.$.$.#.#.#.#.#.^ ^ ^ ^ #.^ ^ ^ ^ ^ ^ #._ @.#.#.6.6.6.].6.#.5.@.t e 9 9 q , , b L ).Y Y L x < v < ; < < < ; < < < < < < < M Y D T Y T T Y T E ).R ).].T P b Z D V V V B V B V Z V D V D V V D V C D V B D C D B C C B Z C y 9 , , N N V V V V V V V V V V V V V V V b V V b V v V V M v b b > : & - d a ",
"V V V V V V V D H /.C /.|.|.XXXXXX/./.C F P Y E 9.W [.[.{.5.F u G K K 6.|. X.X.X.X.X.X.X.X.X.X X6.K u , : 1 2 2 2 2 n A 2 2 2 2 2 2 2 2 n 2 2 2 2 2 2 2 2 2 A 2 n 2 2 n n y 2 A n A n A A 2 n A 2 n n 2 2 A P n n A n 2 A A A A A 2 A y y A 2 n n 2 1 - - - 1 - - p = p p p f f j L j d - + & 1 2 2 y 2 y 2 2 y y 2 y 2 2 2 Z y 2 A Z A Z A y Z A 2 P u @ ( 2.q.q.q.t.q.' 4.6.q.2...w.P.2.o u u y y Z F S Z Z F S F S A A S S Z A y < S 7.$X=X=X{.*X@XOX@X+X@X@X#X$X$X$X$X$X#X$X$X$X$X$X$X=X&X=X=X$X-X-X#X<X@X-X8XP X W KX%XZ.&XP   Z.LX&X+X%X&XW   o 6.>X6.:XSXIXUX+ . nX&X#XOX#X@X#X#X#X@X@X@X@X8.}.@X=X#X8.7.7.8.7.OX7X7X#X#X#X#X#X#XA.#X=X:X,X=X:X:X7X:X,X7X2X7X8XsX8X8X7X#X:X&X,X=X-X-X-X7X-X,X=X=X=X=X#X$X$X@X$X}.@X@X@X}.OX{.{.{.{.{.[.[.[.W [.[.].[.[.{.[.[.7.[.7.[.R E T T T G J G G B 0 0 9 9 w q w w r w w w Q w w w w e w w w q w q q w q q q q 6 q q q q q q q q q q w e q q q q w q w e w e q q w e e e e e e e e e e e e e t e t t e t e e t e t e i e t t r t t i t t t t t t t t t t ^ @.@.t t @.@.^ #.^ ^ #.^ #.^ #.#.#.$.#.#.&.#.&.#.#.&.#.{ &.&.&.&.&.$.&.&.&.&.&.&.$._ #.#.#.^ #.#.^ ^ ^ Q w w ^ t t @.@.@.@.6.5.2.6.6.].}.}.}.}.0.}.6.0.}.}.}.0.8.}.}.}.}.}.{.}.}.].5.I 2 < n M ).Y (.M v < < < < < < : ; < ; < < < < < P H H Y T T T T ).T 7.R ).).R J , Z V V D D D D V D D D D V D D D B V D B C C C C C C C C C C C t B 9 , 9 N N N V V V V V V V V V V V V V V b b V V b V V V v v , : : - d p a ",
"V V V V V D V V V V V /./.XXXXXXXXXX|.).).{.+XOXOX+X{.[.E I I R #.6.|.6. X X,..Xi. X.X.X.X.X|.6.K S 0 > 2 n n 2 2 2 y 2 n 2 2 n n 2 2 2 2 1 2 2 2 2 2 2 2 2 2 2 A 1 A y n f n A 2 A 2 A 2 A 2 2 2 P y 2 P 2 2 A 2 2 A 2 n 2 2 n n y n n A 2 f 2 1 - 1 f j f j d j s j j j j s.f s.j f d & 1 2 n Z Z y Z n A y n y Z n y A Z 2 Z Z y Z 2 A Z Z A S P y S @ i q.:.} q.:.} ' ' ' %.q.q.q.y.L.# 0 P S F S Z Z F S S F A A F F S F S P F P S y 2 S T }.=X=X$X$X=X=X$X=X=X$X$X-X=X=X-X-X-X-X-X-X-X7X-X7X-X7X7X-X-X7X=X-XnX1 = pX+X;X= . qXKX%XZ.&X%X=   u 6.6.a.p.6.>XSXIXUXo o =X&X$X-X$X,X:X&X=X-X2X-X7XmX@XI # @ @ @ @ @ @ * I #X9X8X,X7XsXsX8XsXsXsXfXNXNXsXsXfXMXNXsXsXsX9XfXNXmXMX7X=X2X-X2X=X$X=X=X=X=X=X=X#X$X=X#X=X#X$X$X$X$X$X=X=X}.@X{.{.[.[.W [.T W F F F Z Z N 2 , > , , , , & : , > > , 9 9 9 9 9 9 q 9 e w w w w r r w w 6 w q w w q w 6 q q w q w q q q 9 6 q q w 4 4 q q q q w w q q e 6 q q e w e e e w e e e e e e e t t w e e w e e t e w e t t e t t t t t t t t t t t t t t t r t @.^ G ^ t ^ @.t ^ @.^ @.#.@.#.@.#.#.@.#.#.#.$.#.#.#.#.#.#.#.#.#.^ #.^ #.^ ^ ^ ^ ^ ^ ^ #.@.$.#.#.6.#.6.}. X}. X}. X X X}.}. X:X@X}. X#X#X}.}.6.@X0.}.{.}.8.}.}.[.8.[.[.[.@X}.[.[.[.[.}.[.[.$X).< v L ).Y ).l < < n < : ; ; , < < < ; < < < < F P H Y T Y T T T T ).R R R T P 2 N D Z D V D B B B B B B B C e C C t C C C C w C t w w w w t t t t w 9 % 9 , v b N N V V V V V V V V V b V V V Z V b b b v v , : & - - d a a ",
"V V V V V V V V V V C /./.|.XXXXXXXX|./.J ).Z.OX9.OXOX8.I I G @.K 6.|.].}.u.|.u.|.|.,..X X].6.K y > 1 A 2 2 A 2 n 2 2 2 n 2 n 2 2 n 2 2 2 2 < 1 1 < 2 2 < 2 2 < 1 2 n y 2 2 2 n 2 A A 1 2 1 A 2 y 2 2 A A 2 L A 2 A 2 n y 1 2 n 2 P 2 n A n n 1 = f f L s.s s.s s.s s.s f s.s.s.s.j f d : 2 A Z Z Z Z A n A A Z Z Z A Z A A Z A Z Z A n A F A A F S F S o i u.%.:.w.w.:.' ' ' 2.$.q.q.a.>X3 4 P S F S F F F F F F F F F P F F F F S I F F P F P y S 7.$X7X7X=X=X-X7X-X-X7X7X7X7X7X7X-X7X7X<X7X7X<X;X-X7X<X-X7X7X<X-X$X  P HXU   U AX%XZ.&X%Xo $ i 1.2.' q.p.i.p.9XPXUXSX. & MXMXaX8X<X,X,X7X7XmXBX7Xu o @ i p.p.1X:XL.4. .@ @ 3.fXSXNXdXdXdXmXfXNX9X9XNXsXdXdX9X9XdX9XsXdX9X9XsX9X9XmX9X2X,X-X7X7X7X7X8X7X7X2X7X=X=X=X}.{.{.[.W T T I G F S y 9 Z b N Z B Z Z N A Z D Z Z B Z Z N Z b Z b 2 N y b 2 9 b y 9 y 9 9 9 9 9 9 9 9 w w w w e w w q 6 w e e q w q w q w q q q w q 6 4 q e e 6 q w e e w e e e e e e e e e e e e e e e w t t w w t w t w t t t i t t t t t t t t t t t ^ t t t @.t ^ @.^ ( @.^ ^ ^ @.#.#.@.( #.#.@.@.^ ^ @.^ t ^ r r r w w w r ^ @.#.@.@.1.5.6.0.0.}.}.0.}.:X:X2X:X X2X2X}.:X}.#X:X}.#X:X=X}.}.@X}.}.#X}.#X}.$X#X#X{.{.}.{.[.[.{.{.@X}.{.{.}.}.$X{.}.[.[.*X{.[.{.[.{.].; n L ).Y ).< < < ; < : < ; ; , < ; < < < < , F F Y Y T I T T T ].T 5.T 5.T J B V C B C C C C t t C ^ w t w ^ ^ ^ ^ ^ ^ ^ ^ / ^ ^ / / ^ { / &.&.&.$.t q > : > 2 Z D V V V V b V V V V V V V N b D b b v < < : = f - p a a s ",
"V V V V V V V V V V V C #./.XXXXXXXX|.K T 7.OX9.{.OX8.I G G G 1.#.6.#.#.@.#.#.6.>.6.6.6.].@.C 9 > 2 n n n f 2 2 2 2 2 2 2 2 2 < 2 2 < 2 2 2 2 2 2 2 2 < 2 2 2 2 2 2 2 2 A 2 2 2 2 n A 2 A A A A 2 y P f 2 1 1 2 2 A 1 A y n P 1 n 2 n A n A f - d f s.d.d.d.d.d.d.s.d.d.s.s.f j j g - 1 A P D n A A D A D A A A A A Z A Z A Z A A F A F F A S F F S S I . i q.:.:.} :.} ' ' ' ' q.q.q.q.P.2.o I S S F S S S F F I P F P F G J I J P F I T I I T I T F S Z R =XvXcX7X2X-X7X-X:X7X7X7X<X7XaX8X7XaXMXnXsXMXmXmXsXMXmXAXJX$XX U   +XAX+X%XqXZ.X @ 1.1.) ` 2.$.q.i.p.4.NXPXPXPX+ o SXSX8XsXdXdXMXHXmX1.@ 4 :X5X1X>X XP.P.>X1X9XdXL.4 @ I FXSXsXfXNXdX9XNXfXNXBXNXNXNXSXNXNXNXNXBXNXfXNXvXsX9X9X2X0.5.T T J F F S Z u B Z y Z S B D F C F F F F I F J F F F F D F D F D D D Z V Z Z N N Z Z b Z N N 2 b v 2 b b , b b b 9 > 9 9 9 9 9 q q w q e e w w e w w e 6 w q w 6 w q w w q q w r w w e e e q 6 e e 6 e 6 w w e r e r e t r t t w t r t t t t t r w t t ^ t t G t @.^ ^ ^ @.@.^ @.t ( @.i t t i t r r w t w 4 6 6 q w w e t @.@.@.@.6.].}. X X}. X:X:X2X2X2X2X:X2X7X,X2X=X:X:X=X2X2X=X#X#X#X@X@X#X#X#XA.$X-X:X=X$X=X=X#X=X=X#X@X-X$X{.$X=X#X}.-X=X$X$X}.@X{.{.OX$X{.*X[.{.{.{.{.{.{.[.{.OX[.[.E < n M ).Y (.l L < < < < < < , < , : < : ; : < P P F J T T T T T 5.5.].].].5.G 9 w w t w w r w ^ ^ ^ ^ ^ ^ #.^ #.&.*.&.&.-.-.<.i.i.i.i.i. Xi.<.i.i.,.( 8 * * * : > N b Z D V V V V V V V N D N N b b : : : = - - p d p a s s ",
"V V V V V V V V V H C /./.XXXXXXXXXX/.|.T E {.OX[.OXW I G e G @.@.K K @.#.@.@.K #.#.K #.G y y 9 Z y 2 2 n 2 2 2 2 2 2 2 2 2 n 1 2 2 n 1 < 2 2 2 2 2 2 2 2 2 2 2 n 2 2 2 n 2 n 2 y 2 n 2 2 n 2 f L y 1 f - 1 f 1 2 f P n Z A Z 2 y y A n P n 1 = d j s.d.d.s.s.s.s.s.s.s s.s s d f = = A P P F S F A F P F F F F F D A F F F F S F P P F A A F S F G F I o i u.} %.w.:.w._ ' $.q.q.q.O.t.a.p.o u I F F F G P S G F F J F I F F F J I I J I J T T 5.T 5.7.7.5.I J 3.2XBXBXmXBXBXmXBXSXSXSXSXSXSXSXSXSXSXSXSXSXSXCXSXsXMXLXf X U JX;XZ.-XU   * 8.( ` ` ` ' $.q.u.a.a.6.BXJXPXIX1 - aXFXCXfXSXJX<X@ @ 4.>X>Xa.a.a.a.i.a.a.>X>X>X1X1XA.@ $ sXKXNXfXfXNX9X9X9X,X,X:X:X}.@X}.0.6.8.1.5.3.5.5.5.5.5.6.6.5.I G G T T K K T T K T T K K J I J J F F F F F F F F D D D D D D D D D D Z D D Z N N N Z b Z b b b b 2 b 2 2 , y N 2 9 9 9 , 9 9 9 9 9 9 9 9 e w e w e w w 6 w q w 4 6 w 4 w 6 w e 6 w q e e e r r w w e t r r e w w t e t t t t r t t ^ t t ^ ^ t t t t t e r t t e e 9 w 4 q e q q q e i G G G I 1.5.0.8.0.}.0.#X#X:X2X:X:X#X:X#X:X2X2X#X2X#X:X=X:X:X:X#X:X#X#X:X#X7X:X-X=X:X:X#X2X=X=X2X7X&X=X7X-X=X=X=X7X=X7X=X#X$X@X#X=X=X#X=X=X=X=X#X#X#X=X@X@X#X=X=X$X@X{.@X@X{.{.{.@X{.{.@X{.{.{.{.$XR & n M Y Y Y n v v < < < < < ; : < , < , 2 , , S C G K 5.T @.5.@.1.@.t t t Q w w ^ ^ ^ / / &.&.>.*.<.<.i.<. X<.i.i.i.i.i.i.i.<.i.<.<.<.<.i.<.i.<.i.%.( i 7 1 1 1 : < 2 n b Z b b V V V V V b b b 2 : : + - - - d p d a a p a ",
"V V V V V V V V V V C C /./.XXXXXXXX|./.T E {.{.{.9.I S S G K @.#.K #.@.5.#.@.#.#.|.#.C B 9 9 S 2 Z A y 2 2 n 1 2 2 2 2 2 2 1 n n 1 1 2 2 2 < 2 2 < 2 2 < 1 2 < 1 2 n n 2 2 y 2 2 A y A n P 2 n 2 = = = f j f - = A P y A A y A y A 2 2 P 1 & - s s f s.d.s s.s.s s s.s s f d d = 1 A F A A F F Y H P F P H P F F P F Y F P J P G S J F P J P F I F F T o i u.w.:.:.r.} ' ' ' O.q.q.q.q.t.>X3 y I S P G J T T R T R R R 5.7.].5.].5.[.}.].}.}.{.}.}.}.@X}.}.}.#X}.8.8.A.8XSXJXJXSXSXSXSXAXAXMXSXSXSXSXSXCXSXSXCXDXSXAXJXDX. P MX%XpXU o 7 6.) $.( $.' ` ..' %.u.i. X0.BXPXPXIX&   BXJXDXLX8.o i p.a.a.i.i.i.i.i.i.a.i.a.a.P.1X>XdXL.3 o 3.8.1.5.0.1.1.8.8.6.8.6.6.0.0.6.0.}.}.}.}.}.}.0.}.}.}.}.}.}.}.5.5.G K K K 5.T K K T T J J J P J H F F J F F H F F F C F D F D F D D Z B Z D D Z N Z N N Z n n N b b n b 2 b , 2 N y 9 N 9 , 2 9 9 9 9 9 9 q 9 9 q w w 9 w q w w 6 w q 6 6 w w 6 w 6 e r e w r r t t r t t t e t t e e e t e q e 4 q q q 9 q q q q e t i i G G G 5.5.6.5.5.8.0.}.p.}.#X0.#X:X#X}.#X#X#X#X}.#X#X=X@X#X:X#X#X}.@X7X:X&X=X7X<X7X7X$X-X7X8X8X2X7X7X7X2X-X,X7XcX7X7X-X$X7X7X=X=X7X=X=X2X#X=X-X=X$X#X7X=X=X#X=X=X#X=X7X#X=X-X=X$X@X$X=X#X@X$X$X@X@X=X$X=X$X$X@X$X$X@X$X$X{.=X7.: v Y Y Y ).M v < < < < < ; , , , > % , , % 0 C G G t w w w w q w ^ ^ ^ #.$.%.;.<.<.<.<.i.<.<.<.<.<.<.<.<.<.<.<.<.<.<.<.<.i.i.<.i.i.i.i.<.i.<.<.,.#.8 7 g g - - & : : 1 2 v b D M V b v < 2 < 1 & : & 1 - d d d d a s s a p ",
"V V V V V V V H V /.V V /.|.XXXXXXXX|./.#./.Z.Z.{.7.I P i G @.@.K @.@.@.@.#.@.#.6.].K @.N , y A Z y 2 Z n y n 2 2 2 2 2 2 2 1 1 1 2 2 2 < 2 < 2 1 < 2 2 < 2 2 2 1 n 1 n 2 2 2 n 2 n n 2 f 2 1 = f p f j f.d.f f = f P A A Z Z F P 2 Z P 1 - - d j s.s s.s.s s s s s s s d g f 1 n P Y F F I F F F T J I J Y T P K I I K T J I J K I I K T T I I J S T y o 4 u.:.:.:.w.} } ..' $.%.q.' q.t.>Xi * 8.5.5.5.5.].}.].}.].[.}.[.}.}.}.}.}.}.[.}.}.{.}.}.}.}.}.@X}.}.@X@X@X#XA.0.3.#XcXNXJXJXSXSXJXJXDXKXJXFXJXJXFXFXFXDXKXKXJXIX;X. Z.7XZ.o 5 4.@.@._ _ ` $.` ' ' $.q.u.p.p.6.BXUXPXHXI   MXKXU @ @.a.u.:.r.q.i.i.:.i.i.i.i.a.i.a.a.P.a.>X1X8 # I :X0.0.}. X0.}.}.}.}.}.u.}.}.}.}.6.}.}.}.}.}.|.u.|.}.}.}.}.}.|.6.5.@.K G K T T K K K H J H T H H H F H F J F F C H F D F D C F D D D V D D Z V N N Z Z b Z b n n b n b 2 2 b N 2 N y 2 b b y , y 9 y 9 9 9 9 9 9 9 e w w w w w w w 6 w w r w w w e e e e e e q 4 q 4 q e 4 e e q 5 e i u i G G I 1.I I 5.R 1.7.7.8.5.8.8.8.}.8.{.{.8.8.{.{.8.{.8.8.9.@X}.@X@X@X#X#X@X@X=X#X#X=X#X-X-X#X7X7X7X7X-X-X-X7X7X8XnXnX7X7X7X8X8X7X7X7X-X7X7X7X7X-X7X;X7X7X-X7X7X-X=X-X-X7X-X7X-X2X-X-X7X7X=X7X&X&X-X=X:X-X#X-X=X=X$X=X=X$X@X$X@X@X*X$X$X$X@X@X@X@X=X*X@X$X[.; n L Y (.Y M l < < , , , , % 0 4 9 q 4 6 q w w Q ^ ^ #.$.&.>.;.u.,.,.,.;.-.;.<.-.-.:.-.<.<.<.<.<.<.<.<.<.<.<.<.<.<.i.:.<.<.:.<.<.<.:.-.*.*.*.*.$.Q 7 7 d d g - - 1 - & : < < n v b v < 1 : : : - - - f d d d a s a a a p s ",
"V V V V V V V V C V V H K /./.XXXXXXXX/.K K ).OX{.R I G e G @.G @.@.@.@.@.5.#.6.u.6.#.6.G , : A y Z Z 2 2 2 1 2 2 2 n 2 2 2 n 1 < 2 2 < 2 2 2 2 2 2 < 1 2 2 2 1 < 1 2 2 n 1 2 1 1 1 - = - - - f j L d.d.d.Y.d.s.d - 2 P P S P A P A y 2 1 - - d s s s s s s s s.s.s s.s d - 2 A P Y I T T J I I P J I J I J J T I T K T I T I T R 5.T T T T 5.5.R 7.W . o q u.:.:.:.:.O._ ..' ..2.q.q.q.q.>Xp.@ R 8.8.].].}.}.}.}.}.[.}.}.}.[.}.}.{.}.[.}.}.}.}.}.}.#X#X}.:X=X2X:X2X2X2X2X7X2X:X@X#X8XJXLXJXJXJXLXKXJXKXLXKXJXKXLXSXJXLXLXIXU   Z.o * 1. .) _ ' $.` ` ` ) ` $.' ' a.i.p. XSXPXUXLXP   0 @ 1.a.w.r.i.:.i.:.:.i.<.i.i.i. Xi.a.y.u.y.a.>X9XG @ I #X}.}.6.}.0.}.0. X}.}.}.}. X}.}.}.}.}.}.}.}.}.}.6.}.].].6.}.}.].}.5.K @.K K K K T J Y J J F J J F F H F F F F C D D H D D D D C D D D B Z Z D V Z V D N Z Z N b Z n n b b 2 b 2 n b b 9 2 N b 2 b 9 , , 9 9 9 9 9 9 9 q 9 w 9 w q q q q w q e q e i B e e i G G @.I 1.G 1.1.5.1.5.5.5.7.7.5.R R R R 7.5.7.8.8.8.5.8.7.7.8.{.8.8.9.8.{.9.9.@X#XOX+X#X#X#X#X=X$X=X#X7X=X#X7X-X7XaX8X7X8X7X7XmXaX8X<XaXaX8X8XaX8XpXpXaXaXnX7XaX8XaXnXnXaX8X8XnXaX8X8X8X8X8X7X7XaX7X7X8X7X7X-X7X7X7X=X-X:X7X-X=X-X-X=X#X-X=X$X#X$X=X=X$X=X=X=X=X-X=X=X=X=X$X{.{.{.+XT + n n ).L ).l n < , , 9 % 4 9 q w ^ ^ #.#.u.u.;.u.*.>.>.&.$.%.&.&.&.=.-.;.<.<.<.:.*.-.:.-.:.<.-.<.<.<.-.<.<.<.<.-.:.-.-.*.*.*.*.-.-.*.*.*.-.-.*.$.Q 7 7 g d d d d d - 1 - = : < : : : : : = = = - p p d a a s s s s s a s p ",
"V V V V V V V V C V C ^.K /./.|.XXXXXX|./.I [.[.OXR S i B @.@.@.@.@.@.#.#.5.#.6. X|.6.5.5.}.W + : y A 2 2 2 n 2 n 2 2 2 1 1 1 2 < 1 2 1 1 1 1 2 1 2 2 2 1 2 2 2 : 1 1 1 : + + = = - f f s f j j s.d.d.d.d.Y.Y.d.s.= = f P P P A P P 2 1 1 - d s s s s s s.s s s s p p f - 1 A I T T T T T I R R 5.R R 7.R 7.5.5.5.].].8.8.].].8.].].[.].].8.8.].8.{.Z O S # u.%.<.:.w.:._ $.$.$.2.2.2.t.L.>X:Xo u }.}.8.].0.6.8.}.8.}.}.}.#X#X}.#X:X X2X2X2X2X6X2X8X7X6X9X2X3X2X2X6X6X3X2X8X8X7X9X8X:X#X=X8XSXLXIXLXLXLXLXLXLXIXJXHXSXBXmXmXBXo . * 1.1.2.` ` ` _ ` ` $.` _ _ ..%.$.u.a.u.p.JXPXLXIXu @ ( a.u.:.:.r.r.:.i.i.:.i.:.i.i.:.i.a.u.q.q.p.P.1X1X0 o 3.#X0.u.}.].}.}.}.6.}.}.}.}.}.}. X}.u.}.}.}.}.6.}.}.}. X6.].}.].}.}.}.].5.K K K K T K J J J H J J J J J H J F F F D F H C D D D D D D D D V D V D Z V D N N Z Z b b b n b N b Z b b Z b N b y N y N y N 2 N b , , > 9 9 9 9 9 9 % 9 , % % % 9 F G R 5.R I T I T R R E I 5.I T R I T R 7.5.E R R E R 8.9.8.7.7.9.9.8.OX{.8.8.{.8.7.@XOXOXOX$X$X$X-X-X=X7X7X7X-X7X7X7X7X8X7X8X8X8XaXaXaXaXaXaXaXmXaXMXsXsXaXaXmXmXmXaXmXMXmXmXmXaXaXaXaXaXmXsXaX7X8X8X7X8X8X8X7X7X8X7X7X7X7X-X-X7X-X-X-X7X-X&X$X=X-X-X-X-XcXcXcX7X=X=X$XOXW T F 2 : < O X O ; O O O ; n n Y Y Y < L , , , 9 6 w #.$.$.>.&./ / ^ Q 6 6 Q Q w 6 6 ^ w w Q 6 Q Q / / $.&.&.*.-.<.*.=.&.-.-.-.*.-.-.-.-.*.-.*.*.:.-.-.-.-.-.-.-.-.-.*.*./ e 7 g s s s g s d p d - 1 = = & 1 = = - - - d d a a a a s s s s s a s s a ",
"V V V V V V V V V V V C K /./.XXXXXXXX/.T J {.OX{.R I q t K @.@.@.K @.K #.#.>..X.X X6.6.G {.OXOXW 1 : y A 2 2 y 2 2 2 2 n 2 2 2 2 2 2 2 2 2 < 2 < 1 < 2 < 2 1 1 1 2 1 + = = 1 j f j L s.s.s j s.d.d.Y.Y.Y.Y.x.d.d.s.f p = 1 2 P P 1 1 d d d s s s s s s.s s j d d d f f P R W ].R 5.5.T 5.].7.].7.5.].].5.].7.5.5.7.5.8.].8.].5.8.].7.[.6.].].5.5.}.O I 8.@ p.%.q.w.w.%.` ' 2.2.2.4.6.) 5 @ o * > $X}.}.@X X=X2X2X2X2X2X2X2X6X2X6X2X7X2X7X2X2X7X2X6X2X3X7X9X6X7X8X6X8X8X6X8X2X7X7X7X7X8X7X#X#X$X7X;X-X7X-X:X-X#X2X:X:X#X#X2X8X#Xo u 6.1.) ` ` _ ` ` ) ` ) ` ' ' $.q.q.i.a.u.6.PXIXaXo i a.u.r.:.:.:.:.:.:.:.:.r.r.:.i.:.%.2.q.u.u...5 @ # 3 * @ 1.0.}.}.}.}. X}.}.}.}.u.}.}.}.}.}.}.}.}.}.}.}.}.6.}.6.}.u.}.}.].}.].}.].].5.@.K J J J J T J J F F F F F H H H H H D F F D F D D D D D D D D D N B D D N D D N D Z D N N Z N N b b b 2 Z b N b N b b 2 n b b 2 n , , , y 2 , N , b 9 N y N , , % O , Z F I I T T T E I W Y R W E E E 7.E E 7.8.{.{.8.9.7.9.@X9.@X@X@X@X#X#X=X-X-X-X7X7X-X7X7X7X7X7X7X7X7X7X8X8X8XaX8X8X8XcXaX8X8X8XmX8XaX8XMXaX8XaXaXaXMXsXaXaXaXmXaXaXmXaXaXmXaXaXaXsX8XaX8XaXaXaXaXaXaX8X<X7XaX7X7X-X7X7X7X-X-X-X-X-X-X7X7X;X=X$X[.R F 2 : % ; X ; : ; : < < 2 n b b n Z n b b + n l Y ).M < < , 9 w #.$.$./ Q 6 6 6 6 6 6 Q w w Q w Q w Q w ^ w Q ^ ^ w Q w Q ^ Q Q Q ^ / / #.*.*.-.-.-.-.-.-.-.-.-.-.-.*.-.-.-.-.*.*.*.*.*.*.^ 8 7 s g s s s s s a p d d f p - - - d p d d d s s a a a a p p p p a a a a ",
"V V V V V V V V V V H /.V /.|.XXXXXXXX].T Y [.9.9.U P e i @.@.@.@.@.@.@.5.>.,..X.X.X|.#.5.[.}.[.@XOXY : & A 2 A 2 n 2 A 2 n 2 2 1 n 2 2 1 2 2 2 1 2 1 2 2 < 1 2 2 1 : $ = f f j s.f.j s.s.s.s.s.s.d.d.Y.Y.x.Y.Y.d.d.f.s.j P j L 1 - - d d d g s s s s.s s j p d f u u P U 5.R 5.5.].7.7.5.8.7.5.8.7.5.7.].8.8.].[.].[.].8.8.].8.{.}.].8.}.].].0.8.[.  Z.W o 0.u.a. Xu.u.1.1.1.I i * o o * 9.HX+Xo 7X=X:X2X2X7X6X6X2X8X7X6X8X6X8X8X9X2X7X7X2X7X2X2X7X2X=X:X:X#X=X:X=X2X-X7X7X8X8XsXnXmXBXSXSXPXJXLXMX7X=X7X8X8XvX9X8X6X7X6X2X7X8XI o 1.2.2..._ ` ` ` ) ` ` ` _ $.` ' $.%.i.a.2.p.SXu @ p.q.;.:.r.r.:.:.:.:.<.:.w.q.q.%.} $.6.1.i 4 # # 3 i u.2.3 # 2X0.}.}.}. X}.}.}. X}. X}.0.}.6. X}.}.}.}.}.}.}.}.}.}.6.6.|.}.].}.].].6.}.].6.].@.J H K K K H J J J H H H H F H C F D C H D F D D D D D D D V D V D B D V D Z V N D Z B D N Z Z n Z Z b Z n b D b n Z n b b b b 2 b , , b 2 , b 2 b 2 , 2 b < , , y , & , y P T T [.[.9.E E ).7.7.7.7.[.[.[.[.{.OX}.OXOX$X$X=X$X=X2X,X-X-X2X&X7X-X-X,X-X7X7X-X7X7X7X8X7X8X7X8X8X8XpX8XcXaXnX8XaXaXsXaXaXsXaXmXaXsXsXaXmXaXsXmXMXaXMXmXsXaXsXsXmXaXaXaXpX8X8X8X8X8X7XaX8X7X<X7X7X7X7X7X-X<X7X-X=XcXcX-X[.P 2 + & , 1 : 2 2 2 b 2 < n < 2 < 2 < < < < < < v 2 v ; S b b A n 2 % , t #.^ Q 6 6 6 6 6 w Q ^ w w w w w ^ w ^ w w ^ w w Q w w w ^ ^ w ^ w ^ ^ w ^ ^ Q Q Q ^ / #.&.&.-.=.>.,.-.=.&.*.*.*.*.*.*.*.=.$.( 5 7 a s s s s s s s s s s s f a d a a a s s a p s a a a a a s a a p p - p ",
"V V N V V V V V V V V V C /./.XXXXXXXX/./.J 9.OX{.R G u G G @.@.@.#.@.#.#.|..X.X.X.X.X6.@.I 5.{.OXOX@X@XW + : A A 2 2 2 2 2 2 2 2 2 2 < 2 < 1 2 2 n 2 2 y 2 n 2 A y 2 & + L s.U d.s.d.s.L s.s.s s.d.d.Y.x.Y.x.Y.Y.d.d.f.d.s.f f - p d d d d s s s s s s d s f 1 1 P I 5.7.7.].5.5.].5.].8.].8.].5.].[.[.}.].[.[.8.}.].}.}.[.}.}.{.8.}.}.}.}.#X}.#X@X  +XW . o # # 3 3 # @ @ o o $ P &XHXIXIXPXGXo #X8X2X=X:X7X:X:X=X#X:X:X#X:X#X#X#X-X7X7X7X8X8XmXmXMXBXSXJXHXJXPXIXIXIXIXPXIXIXPXIXUXIXPXIXPXIXPXUXIXIXSX8X-X:X7X9XvX9X6X8X6X9XvX0 4 1.) ` ( ) ` ` _ ) _ ) ` _ ' _ ' ' q.q.u.4.i o 2.u.q.i.r.q.:.r.r.w.r.r.w.%.} ' ' 2.2.6 # @ * u i I 1.4.u.6.3 # 2X6.}.}.}.}.}.}.6.}.}.6. X}.}.}.}.}.}.}.u.}.}.}.}.6.}. X}.6.6.}.}.6.6.}.6.].].].5.@.J G J K K H H J F H H J F D H D D F F H H C H D H D D D D D D D D D D V V D N V V D D N Z b n V Z b V Z b Z n b b b 2 b b 2 n b b 2 v 2 b < , b b 2 b 2 b 2 2 b N y , , , : 2 Y ).[.[.{.[.{.[.{.@X{.@X$X$X#X#X=X=X$X#X=X:X=X$X-X=X=X=X7X-X:X-X-X7X7X7X7X-X7X7X7X;X8X7X8X7X8X8X8X8XaXaX8XaXaX8XaX8XaXaXsXmXsXsXaXsXsXsXaXaXaXaXsXaXMXsXaXaXsXsXsXsXsXaXaX8XpXaX8X7XpX7X8X7X-X7X;X;X7XcXcX-XR 2 O O : > A Z n n Z b n 2 n n < < 2 v < < < < < n v < < v < ; ; v n b n 9 9 w w Q ^ Q w w w w w w w w w w ^ Q w w w w w w w w ^ ^ w w w w w ^ w ^ w w w w ^ ^ ^ w Q ^ w w 6 Q Q ^ / / &.&.>.>.,.=.*.%.&.&.) Q 7 7 a g s s s s s s s s s s s a a s a s a s s s p a s a s a a a - - - - - ",
"V V b V b V V V V V V H C /./.|.XXXXXX/.T J 8.9.OXE P u G G @.G #.C #.6.6.,..X.X.X.X.X X}.5.K 5.7.{.{.OX+X$XU : : u F y A A A A A P A A A A A S A S P F S P A F S F u 1 - f j s.f.s.s.s.d.s s s.s d.d.d.d.Y.x.Y.Y.Y.Y.d.f.s.s s p p p s s.s s g g d d d - 1 = 1 1 F T T 5.5.7.].].5.].[.].5.].}.[.}.[.}.}.{.{.}.}.}.=X}.=X}.=X:X=X2X2X=X2X2X2X2X2X#X  *XU X I P S P j I 8.A.7XMXJXLXIXUXPXHXHXAXI 1 -X#X-X:X8X8XaXmXmXBXSXSXJXPXPXPXLXIXIXIXIXIXJXLXIXIXIXPXPXPXPXLXLXLXIXIXJXLXLXLXLXLXIXIXLXLXIXJXHXJXIXIXJXSX8X7X=X,X8X9XvX6X9X2X@ i 1.2.` _ ` _ ) ) ) _ _ ` ` ` ' _ ' $.t...3 5 6.' $.%.} %.:.%.%.%.%.} ' ' @.2.1.8 @ @ # i i i i i ( ` q.p.6.@ u #X5.}.}.6.}.}.}.}. X}.}.}. X}.}.}.}.u.}.}.].].}.}.}.6.}.].}.6.].}.}.}.6.6.].}.].}.5.5.@.J G J K J F J J H J J J F H C F C F H D F C H D F D D D D D D H D Z D D D D V D V N D V D n D Z D Z b D N N Z y N 2 n b n 2 b b b , 2 b n b n 2 N 2 n N Z Z Z Z D S F N 2 > 2 F T 7.{.=X=X$X$X$X}.@X$X#X#X#X@X#X2X=X&X:X=X:X-X<X=X-X-X7X-X-X7X-X7X7X7X7X8X;XaX7X8X8X8X8X8X8XaX8XaX8XsXmXaXmXsXaXsXaXmXsXsXsXmXmXsXsXMXaXsXaXMXaXMXsXsXsXaXsX8XaXaXsX8XsX8XaX8XaXaX7X7X=X8XnX8XI & O ; < A D n n Z 2 2 b < n v v b v 2 < < < < < < < < < < < n v < 2 ; ; O ; 9 4 q w 6 w ^ w w w w ^ w w w w w w w w ^ w w ^ w w w w w w w w w w 9 w w w w w w w w w w w w w w ^ w w ^ w w w w w ^ ^ / #.&.%.;.%.$.8 7 7 a s s s s s s s s s s s s s s s s s s a s s s a a s g - - - - * % # # ",
"N N V N V V V V V V V C /.C /.XXXXXXXX)./.J ).{.{.W I i t G G @.@.K @.#.6.|..X.X.XxX.X.X X|.6.5.I I }.@X$X=X$X$X7.y 2 S P A P F P S S S A A A A A A A A A S S A S S P A y - f j p s f f s s.s s s s.s.d.d.Y.Y.d.d.Y.d.d.s.s s s p s g s s s j s g f 2 n n P H H T J H J K T 5.[.}.[.}.[.}.=X#X}. X=X X=X=X2X2X2X7X2X2XzX2XzX2X2X2X:X=X2X:X=X$X#X#X9.  %Xf.X ;XqXpXVXSXAXAXAXVXnXaXnXqXqXqXVXIXIX-X  IXLXIXIXPXIXIXLXIXLXPXJXPXJXIXPXIXIXLXIXIXLXLXPXLXLXLXLXLXLXJXLXJXLXLXLXLXIXLXLXIXLXLXLXIXLXKXLXIXIXLXLXIXIXIXPXSXmX7X#X#X7X9XBX8.@ 1.1.) 2.` ` ` _ _ _ ) _ _ ` $.' _ _ q.r # 1...$..._ / $.' _ / } _ _ ' #.2.( 3 @ # i i 5 r i ( i i ( 2.4.p.0 o #X2X X>X.X2X6X.X2X X2X.X2X3X.XxX6X6X.X6X6X X X}.}.}. X}.}.}.}.6.}.6.].}.}.}.6.6.6.].}.5.5.K J G J J J J F C J F F F H F H H F H H F D H D H D H F D D D D D D V D V D D D D V D D D V D V D V Z Z N Z N n N N n b N Z n Z N n N Z Z N Z Z B D D D D D D F D D F H H F F A y N y T ].{.$X=X=X=X$X$X#X=X$XOX$X=X-X=X$X-X-X7X:X-X-X<X-X-X<X-X7X7X;X7X7X7X7X8XpX7X7X8X8X8XaX8XsX8X8XsX8XaXaXaXsXsXaXmXaXsXMXsXaXMXaXmXaXaXaXaXmXaXaXsXaXsXaXaX8X8X8X8X8X7XaX8X7X8XnXcX7.o O n Z Z Z Z n n n 2 n b n v v 2 v n < 2 < < < < < < < < < < < < < < < < < < , O 4 q 6 w ^ w ^ w w w w w w ^ t w w w w w w w w w w w w w w w w 9 w B w C ^ t @.#.#.#.^ @.^ w w w w w w w ^ ^ ^ ^ w ^ w ^ w Q Q ^ #.^ e 7 7 s s s s s s p s s s s s p s s s s s a s a s s p a p - - - * 3 4 4 4 5 ",
"N Z N N V N V V N V V V C /./.XXXXXXXX/.T J W {.{.9.U I B e G @.#.@.@.K #. X.X.XxXxXxX.X X X|.6.T G B 5.{.}.$X$X-X-XW & y P S S S A Z A A A A S A A S A A P S S P A A P P u - - - d d d s s s.f s s.s.s.d.d.d.d.d.d.d.s s s s s s j j s s d d f 2 y Z H /.K |./.|././.|.).5.5.].].}.2X2X=X2X-X=X=X2X=X=X:X=X=X=X#X$X#X$X=X}.=X#X@X#X#X:X=X7X-X7X7XmX  f.%XX %X;X%X%X%X%X&X%X%X%X%X%XqXVXVXHX0XP X   JXLXHXIXJXLXLXLXLXLXLXJXJXLXJXLXIXJXLXLXLXLXLXLXLXLXLXLXLXLXLXLXLXLXLXLXKXLXLXLXLXLXLXLXLXLXLXLXLXLXLXLXLXLXLXLXIXIXIXSXcX,X#X,XmXy o 1.2.` ` ` ` ` _ _ ( _ _ _ ` $._ ` 2.3 6 2. .` _ _ ` ' $._ _ ' _ ' $.1.e @ # u i 5 8 i r e i i i i 4 # @ @ @ u vX4X6XxX6X6X6X6X6XxX6X6X6X6X6X6X6XxXvX6XvX6X X}.6.}. X6.}.}.}.u.}.}.|.6.6.}.6.].].}.].].6.].5.J C G J F J J C H H C F J H F H F F F H D D D D H B D D D D D D D D D D D D D D H V D D D D Z D D Z Z Z D Z N Z N D Z Z B D D Z Z D Z Z D D D D H H F F D F F F D F H F H J I J F y > S T 5.{.=X7X=X=X=X=X=X$X=X=X-X2X=X7X-X2X-X-X-X7X7X7X7X7X7X7X7X;XaX7X8X7X8X8X8XpXaX8X8XaX8XnXaXaXaXmXmXaXaXsXmXaXsXaXaXsXmXaXmXaXMXmXMXmXaX8XaXaX8X8X7XmXcX7X7X7X7X7XvXnX7.O + A A n n n 2 b 2 v n v 2 n < v < v < < < < < : < ; < ; < < < < < < < < < < < < : % w w w w ^ w w w ^ w w w t t w t C ^ w w w w w w w w w w w w w C #.#.6.K #.|.>.>.>.|.|.>.>.#.K #.#.w w w w w ^ C w t ^ ^ w ^ Q Q w 3 3 * - g s s s s s s s s s s s p s s s p a s g s a a a - - - * 3 0 0 9 q w e ",
"N N N N b V V N V V V V C C /.|.XXXXXX/./.J E @X{.A.8.R G u G G C @.@.@.6.>. X.X.X.X.XxXxX.X X6.].@.G 9 I 7.@X@X@X@X-X-XU > y S y P S S P F A S P F A P S S S S F S S S S P A 1 1 1 - d f s s s j s s s s s f s.s.s s s s s s s s d d d d - 1 1 V V H ).|.XXXXXXXXXX|./.|././.].).E ].[.[.8.[.0.{.@X@X#X=X-X2X7XvXmXmXBXBXHXHXHXLXPXPXPXPXIXIXLXLXIX  W ;X  %XqX;X;X&X0X&X;X;XpXVXqXqXoXf     f qXX -XLXLXLXLXLXLXLXLXLXLXLXLXLXLXLXLXLXIXIXIXIXLXIXLXLXLXLXLXIXLXLXLXLXLXLXLXLXLXLXLXLXIXLXLXIXLXLXIXLXLXJXLXPXLXLXJXJXPXIXLXIXIXmX7X-Xo 4 0.2.` ` ` ` #.) _ ` _ ( _ _ ` ..r # ( ( $.) ` _ _ _ ' ` _ ` ' $.( # @ * i q i e 5 r i i i 4 @ @ # 4 G 1.o 8.6X4X4XvX4X6X6X6X6X6X6X6X6X4X4X6X6X6X6X4XxX6X6X6X.X].6.}.}.}.6.|.6.6.}.6.|.6.}.6.6.6.6.}.].].].}.5.K F G J J J J J J H F C H F H H F D H F F F D F D D D H D F D V H D D F D D D D C D D D D D D D D D D D D D D D D Z D D D D D D D D D D F F F F D F H F H H F C J J F F F J F H T J S F N y F ].}.2XcX-X7X2X$X=X=X=X=X-X-X7X7X:X7X-X7X7X;X7X7X8X7X7X8X7X8X7XpX8X8X8XaX8XaXaX8X8XmXaXaXaXaXaXaXaXaXsXnXmXaXMXaXMXaXmXsXaXaXaX8XvX8X8XmXcX8XvXvX8XnXcXBXcX+ O Z F 2 n n n b n < v n < n < v < < < < < < ; < < ; , : < , < < < ; < < ; < ; < < , % 0 q w w 6 w w w w w w w w w w t w w w w w w w ^ w w w w w 9 C @.#.|.>.u..X X X.X.X<..X.X.X X X.X|.|.>.@.#.C w w ^ t w w ^ ^ w w w w 6 3 - g d s s s s s s s s s p s s s p s s s d a a a a - - # * 4 5 w w w w w e ",
"N 9 b b b b b b N V V C C /.K XXXXXXXX/.K T R OXZ.{.{.5.G u u e @.@.@.@.@.].|. X.X.X.X.XxXxX.X.X X6.5.C % G R }.@X#X@X@X=X2X5.& y A S A S S S S S S S S S S S A A P P S S P P S y u 1 - = f f p = - = p p f s s s s s s s d j d f f 1 - - 1 1 A C K K XXXXXXXXXXXXXXXXXXXX|.|.).|.[.|.cXBXJXSXJXLXLXJXPXIXLXLXLXPXIXLXLXLXLXJXPXLXLXIXIXIXJXLXJXJXIXf u VXX = U f.f.f.f.U W P X         L ;XPXLXIXZ.A LXLXLXLXJXLXLXLXLXLXLXIXLXLXIXIXIXIXLXLXLXLXIXLXLXLXIXIXLXLXLXLXIXIXLXIXIXIXIXIXIXLXIXIXIXIXIXLXLXLXIXLXLXIXLXIXJXLXIXLXIXJXLXLXIXaXo i 2. .` ` ) ) ` #._ ( _ ` _ ` #.6 3 @.` ` ` #._ _ _ _ $.` $.2.6 @ # 5 i i 5 5 e q u q # o o # u I 1.8.@ q vX2X2X4X3X6X6X6X4X6X6X6X4X6X6X6X4X6X4X4X6X6X6X6X6XvXxX.X0.}.6.}.}.}.}.}.}.}.].}.6.}.].6.].6.5.].6.].}.].5.G J J H J F H J F H H H H H F H H F F H F C F F D H D D D F D D D D D F D D F F D D F D D D H D D D D D D D D D F D D F D D F F F D F D F F F F F F J F F F J J H J Y J T H H T J T T K F Z D F T [.=X7X7X7X-X=X-X=X-X-X7X-X7X7X7X-X7X;X8X;X8X7X8X7X8X7X7XpX9XaX8X8X8X8X8XsXaXaXaXaXaXnXaXaXaXsXmXmXmXmXmXmXmXmXBXBXBXGXBXBXBXvXmX8X8X7X=X=X{.[.. 2 A n n n < n < n n < < < v < < < < < ; < < < ; , ; < ; < ; < , ; < < < < < < < < < ; , 9 9 w w w w w w w w w w ^ w w w w w ^ ^ w w w w ^ w w w w C #.6.|.,. X.X.X.X.X.X.X.X.X.X.X.X.X.Xi..X,.6.#.#.@.w w w w w w w w w w w 4 4 - g a s s s s s p s s s s s s p s s s a a a a - - * 4 3 4 q w w w w w w w ",
"> , 9 , y 9 , b N V V V V /./.|.XXXXXX/./.J R OX@X9.9.P 9 > 9 B w C K K #.#.>.>. X X.X.X.X.XxXxX.X X X5.G 9 I R 8.@X@X@XA.@X#X=XW y y S S A P A S A S S A S S S P P y S S S u S P P 1 : + + = = + + = = = = = p f s f f f d d = - 1 = 1 < 1 n D /.K /./.|.XXXXXXXXXXXXXXXXXXXX|.|.|.*X=XcXSXJXJXKXJXJXJXKXLXKXJXLXLXLXLXKXFXJXKXKXJXLXJXIXLXIXLXAXIX%XX nXX 1 O X   X X X + f U W %XGXUXUXUXPXHXUXMX  IXPXLXJXKXLXLXLXLXLXLXLXLXLXLXLXLXLXLXIXLXIXLXIXLXIXLXLXIXIXIXIXLXIXIXLXIXLXIXIXIXIXIXIXIXIXLXIXIXIXIXIXLXLXIXIXLXIXLXIXLXJXJXJXJXLX@Xo I 1.2.` ` ` ` ` ` ) _ ` ` _ @.3 e ) ` #._ _ ` ' _ _ ) 1.( # @ 4 u e 5 5 5 5 5 7 # @ o 7 u P i i i * # vX6X X4X6X3X5X6X6X6X6X6X6X4X4X4X6X6X4X4X9X4X4X4X4X5X5X6X4X6X4X X6.|.u.}.}.}.6.6.}.}.6.}.}.].6.}.6.].6.5.6.}.].5.T J J G G J J J F J F H H H H F H C H H H C C F D F D F C H D F F D F D D D D D D D F D D F F F F D F D F D D F F F F F H F F H F F D D F H H H F F H J H F J J H H H J J H J J K K T K T T T F F F J E }.-X-X-X-X2X=X7X-X;X7X7X7X7X8X7X7X8X7X8X7X8X8X8X8X8X8XmX8X8X8XmX8XcXmXmXmXmXmXmXmXmXcXmX8X7X2X7X=X=X}.}.8.7.R 5.I T I T T I T T R : 2 F 2 n n n v < n v < < < < ; < , < ; < : < ; < , ; : ; < ; < ; < < < ; , ; < < < ; < , , % w w ^ w w w w w ^ w w w w w w ^ w w w w ^ w w w C ^ 9 w ^ 6.6. X X X X,..X X.X.X.X X X.X.X.X.X.X.X.X.X.X|.>.#.C w w w w w w w w w 4 * - d s s s s s s s s s s s s p s d s d s g - - - 4 % 3 q 6 w w w w w w w 9 ",
"7 u 7 0 0 0 > > 2 N V H V ^./.|.XXXXXX/.K K R {.9.R I S N , 9 9 9 B C i G G #.6.6.|. X.X.X.X.X.XxX.X.Xu.>.C C 5.T }.#X@X@X#X@X@X#X$XI : 2 F A P F A P P S S P P P u u P S A A S 9 2 , , : : > 2 < : : : : 1 1 1 1 1 1 1 1 1 1 : 2 2 < v n V V H /././.K K |.XXXXXXXXXXXXXXXXXX.XXXXX|.XX7X7XAXFXKXKXLXIXJXLXDXJXLXPXLXLXLXLXKXKXLXLXLXLXLXLXLXLXFXLXpXX qX+ Z.;X%X%X%X%XqXnXAXAXAXnXVXGXVXnXVXPXLX7X. BXPXIXJXLXLXLXLXLXIXLXLXLXLXLXIXLXIXIXIXLXIXLXIXIXLXIXIXLXLXLXIXLXLXLXIXLXIXLXIXIXLXLXIXLXIXLXIXLXIXLXLXLXIXLXLXIXLXIXLXIXLXLXLXJXLXIXu * 1.1.$.` ( _ ` ` _ ( _ ` _ ) # i ) ( #._ ^ ) / ) #.$.i # @ 4 5 e 5 q e i u 4 @ @ # 5 5 i i G 1.5 @ #X6X3X6X4XxX6X6X6X6X6X4X9X6X9X6X6X6X4X6X6XvX4X4X6X6X5X6X5X6X6X6X6X6X2X}.}.}.}.}.}.6.}.}.6.6.}.6.6.].0.].6.}.].6.].].6.5.K G J J J J J F J J J J H J F C H H C F H H F H F H H D F F F F F D D F D F C D D H F F C D H H F F H D F H F F H F F F F F F F F F H H F F J F H H H H J J H J J J K J J J T J K T K T ).K T T K K J F 5.{.zXcXcX7X;X2X;X7X7X=X7X7X-X7X8X8XcXcXmXvXvXmXvX8XcX9X8X7X2XcX=X=X}.[.9.8.7.5.5.E 5.5.W 5.7.].8.5.].].].].5.].].5.K ].5.)., D n n n < v v < < < < < < < ; ; : : ; < < ; ; & ; & ; : ; : ; & , ; & ; : ; : ; , : ; % % 0 6 w w w ^ w w w w w w w w w w w ^ w w w t w w ^ w w 9 w C #.>.].6.6.6.|.6.|.|.u. X X.X.X.X.X.X.X.X.X.X.X X X6.#.w w t w w w w w w 9 - - g a s s s s a a s s s s s s p s s a d d - $ 0 9 4 q w w w w w w w w w w ",
"8 h h 7 7 7 7 > > b b D H H /.|.XXXXXX/./.K T E T S Z > 9 v , N 9 N B B C t C @.#.6.>. X.X,..X.X.X.X.X.X|.K C /.T W OX=X#X#X:X=X=X$X7X=XI 2 A y A y y y y y y y u u u S I I P A S Z Z 2 , v N V N D b b b 9 2 < 1 1 1 < 1 2 2 b N N D D D D H V V H C /././././.|.XXXXXXXXXXXXXXXXXXXXXX|.*X7XMXKXKXDXHXLXKXLXLXLXLXIXLXLXLXKXKXLXLXLXLXLXLXLXLXHXJXUX+ U + ).qX;X%X;X%X%X;X%X&X%X;X;X;XGXGX;XE 1 . o &XUXHXLXLXLXLXLXIXLXLXLXLXLXIXLXIXIXLXIXIXIXIXIXLXLXIXIXIXLXIXLXLXIXLXLXIXIXLXLXLXLXIXIXLXLXIXLXIXLXIXIXLXLXIXLXLXIXLXLXLXLXJXLXLXJXIXAX. 7 0.1.` ` ` ( ` ` _ ` _ ) ` 6 ( ) _ _ _ _ _ ` ` 2.t @ @ q 8 u 5 8 e 5 0 @ o # u i 5 i u u i u @ 6.6X6X3X6X4X4X6X6X6X6X6X4XxX4X4X6X6XvX4X6X6X4X5X6X5X6X6X9XxX6X5X6X4X4X9X6X6X X X}.}.}.}.|.6.].}.].}.6.}.6.}.6.}.}.].].].|.6.5.5.K J J J J J J K C G H H J H J H H H F F H F J F H F H F H F D D H F H F J F D F F H D F F D H F H H D H D D H H H H H H H J H F F H Y F J F T J H Y J Y J J T /.J J J K K T K ).K T K T T T T T R T J F P 5.}.cX7XcXcXcX8XcX2XcX2X=X$X}.{.8.7.7.R R R R T R T T T T 5.7.].].8.].].[.].[.].].].].].].].}.].].}.].].].].].).].T , A n F n F n < < < l , < < < < < , ; : ; ; + , ; , ; ; ; ; ; ; & ; , ; < ; : ; < ; ; ; ; % 9 w w ^ w w w w w w w w w t w w ^ C w ^ ^ C w w w w w w 9 t G @.@.#.#.#.#.#.#.&.6.&.|.>.>. X.X.X.X.X.X.X.X.X.X X6.C w t w t w w w 9 3 3 - a s s s s s s s s s p s s p s s s a - - - * 4 q w w w w w w w w w w w w ",
"h h j h i h 7 7 0 > , V V C C /.XXXXXX/.|./.C C S Z , y V B H V b N 9 9 9 B C C C #.@.6.>.>.|..X.X.XxXxX|.>.#.C T J T [.W R I P P S A A A 2 2 y T [.{.{.{.{.@X$X$X-X7X=X@X7.R P Z Z V b n b D D V H D D V V N V D V Z D D D V D V D D V D V H V V H H C /.V C /./.|./.XXXXXXXXXXXXXXXXXX|.|.|.zXnXLXJXLXDXKXKXLXLXLXLXLXLXLXLXKXLXLXLXLXLXLXLXLXJXLXIX&X  = P %X;XqXqX;XpX0XqXqXpXqX+XZ.y *   o i 1XI u IXJXJXJXLXLXLXIXLXIXLXLXLXLXIXLXIXIXLXIXIXLXIXLXIXLXIXLXLXLXIXLXLXLXIXLXLXIXLXLXIXLXLXLXIXLXIXLXIXLXIXLXLXLXLXIXLXLXIXLXLXLXJXJXJXJXLXOXo i 0...` ' ) _ ) _ _ ( ` ` Q ) _ _ ^ $._ ` ) @.i o @ i 5 5 5 8 i 5 * o @ 0 i 5 5 i 5 i I 0 @ 3.9XvX2X2X6X3X6X6X6X4X4X6X6X4XvX4X4X6X5X4X6X9X4X9X6X6X6X9X5X4XxX4X4X4XxX6X6X6X3X4X3X X}.}.u.}.}.}.}.}.}.].].}.}.}.6.6.6.6.6.].].6.].5.K J G K T ].].J T J J H J Y J H H H J H H J J H H H H H F H D F F H H F F H F H F F F H H F H F J F J H H F H F H F H F H J H J J H H T J H J J J H J J T J T T T T T K K T R T T T T I T T I T T I I F u y J P F I T R T T T T T T 5.).5.5.7.].5.].[.].[.].].].[.].].8.].].5.].].].].[.].[.].[.].].].].].].].].].5.5.[.Z Z n D n n n n D n n v < ; < ; ; < ; : ; & ; & ; : ; , ; ; ; ; , , ; , ; : : ; ; , < ; , % , 0 w w w w w w w w w ^ ^ w w w ^ w w t w w w w w w w w q 4 w w G @.@.@.#.@.#.@.#.#.#.#.K >.|.u..X.X.X.X.X.X.X.X.X6.@.B w w C t w w w 3 * - d d s s s s s s p s s s s s p s p a - $ 4 0 q w w w w w w w w w w w w w ",
"h h i h h h j 7 u > > 9 V C /.|.XXXXXX|./.C , N , , b N V H V V V V N N B 9 B 9 C K @.@.@.|.>..X X.X.XxX.X X/./.K H < : 2 2 2 F y y A S S P S A 1 R $X-X$X@X$X}.&X@X8.8.T P A b 2 N D V D D D V V V D H H D D D D D D D V V D V V D D V V H V H V V H H C H C /./.K /./.XXXXXXXXXX.X.XXXzXXX|.=X-XMXLXKXJXLXDXJXKXKXLXIXLXIXLXLXLXLXLXLXLXKXLXLXLXJXIXIX+ =     X & j P u f u - $ . o @ * i 3.L.L.1XL.o LXLXLXLXLXLXLXLXIXIXLXIXIXIXLXIXLXIXLXIXIXIXLXIXLXIXLXIXIXIXLXLXIXLXLXLXLXLXLXIXLXLXLXIXLXIXLXIXLXIXLXIXLXIXLXLXIXLXLXLXLXLXJXFXJXJXKXLX8.o 1.1.2.( ..) ( ) ) _ _ _ ( ) ) _ _ _ ( @.) 5 @ @ 7 5 u 5 5 5 0 # o # u 8 u i i 5 i i 5 @ 1.vX6X2X3X6X3X6X4X6X5XvX6X6XxX6X4X4X4XvX4XvXxX9X4XxX6X9X6X6X6X9X9X4X6X4X9X4X4X6XxX2X6X6X6X2X X}.}.6.6.6.}.6.6.}.6.].}.}.}. X}.}. X X X2X2X6X2X}.}.|.].J F H T H H J J H J J F J J H H J J J F H J H J H H H F H H F H F H H C H F H F H F H F H F J H J H J J J J H F J F J H J J J P J J T J T J Y T H J F G S F F F F C F J K T 5.5.7.[.}.@X$X=X7X7X7X=X7.I F I T 7.|.[.].].].].[.].].].].].].].].].].].].].].].].].}.].5.].].].].].].].].].].].].].].].].].)., D A M n H M n n M n n n n < < ; ; , ; , ; , ; ; , % ; , , : ; ; ; , , ; ; ; ; , ; & ; ; ; % % w w w w w ^ w w t w w t ^ t w ^ t w w w w w ^ w w w w w q 9 w C G G K @.K @.5.@.@.@.#.@.#.#.>.>.u..X.X.X.X.X.XK @.w w w w ^ w w w 4 * - d s s s s s s s s s s s p s s p p = $ $ 4 5 9 w 9 w w w w w w w w w w w ",
"h h h h h h h h 7 u > 0 V H /./.XXXXXX|./.V v v N N V V V V V V H D V N B N B 9 B C G @.@.@.6.].,..X.X.X.X X>.|.K /.D v A S S P A A S S y Z A A S 2 & P -X=X@X#X@X8.R J F S Z N b V V H V H H V H V H V D D D V V V V H D V V V V V D H V H V V V H H H C V V C C C /./.K |.|.XXXXXXXXXXXXXXXXzX=XnXJXLXKXKXJXKXKXLXLXIXIXLXLXLXLXLXLXLXKXLXLXLXJXJXDXIX;X  W &XZ.$ % 3 # 3 # q 6 i 1.1.4.p.p.t.a.P.1Xo pXLXKXJXLXLXLXIXIXLXIXLXIXIXIXIXIXLXIXLXIXLXIXLXLXIXLXIXLXIXLXIXLXIXIXLXIXLXLXLXLXIXLXLXIXLXIXIXIXLXIXLXIXLXLXIXLXLXLXLXLXKXKXJXKXKXLXLXLX$ * 4.2...' ( _ ) ) _ _ ^ _ _ _ ) ` _ ( 2.i @ # 7 e 5 5 5 u # o $ 7 q u 5 e e i r G 5 @ 1.vX6X6X6X6X6X4XvX6X6X4X9X6X6XvX4X6XvXvX5X4X4XxX6X4X4X4XxX9X6X9X6X6X6XvX4X6X9X6X4X6X4X6X6X6X6X6X6X6X6X6X2X6X2X6X2X6X2X2X6X6X6X6X6X2X6X6X2X2X2X2X2X.X}.5.J T J K K F T J J H T H Y F H T J J J H J H F H H H C H F J H H H F H H F D F J J H F H F J H F J J J J J J J T J F P H C F A F D D F D F F F P J T ].].[.+X}.=X=X2X=X2X=X7X7X7XcX7X7X2X-X7X2X7X7X7X7XcX7X$X7.T J G T 7.].].].].].].].].].[.].].].].].].|.].].}.].].|.].].].].].].].].].].].].].].5.).T |.< Z D n Y Y ).).(.Y M M L x L M L l n l l ; ; ; , , ; , ; ; , ; , ; ; , ; , ; : ; , , % ; % % % w w ^ ^ w w ^ w C ^ ^ t w ^ ^ w ^ ^ ^ w w t w w Q w w w 9 0 0 4 q i t G G @.G @.@.@.5.#.@.@.6.6.}. X.X.X X}.6.1.e q e w w w w w q 4 3 - g d s s s s s p s s p s s p s s p - = $ * 4 0 q e q w w w w w 9 w w w w ",
"h | h h ~ h h h h 7 0 > V C H |./.XX/././.V v b D V D V V D V V V V V V V B V N 9 N C G @.@.#.#.u.u..X.X.X.X|./.|.).J V n A P D A A Z A S A A P A S P > * I -X#X7.R G S Z N N Z H V D V V V V C V H V D V D D D V /.V V D H H D C H D D V C H H V C V V C /./.V C /.V C /./.|.|.XXXXzX.XXXXXXXXX|.;XcXIXLXFXKXLXLXLXIXLXIXIXLXLXLXLXLXLXLXLXLXLXLXKXLXAXKXf P LXLX:Xp.p.2.6.1.4.6.2.2.2.2.q.q.u.q.L.9X* Z.KXJXKXLXLXLXIXIXIXLXIXLXLXIXLXLXIXLXIXLXIXLXIXIXLXIXLXIXLXIXLXIXLXIXLXLXLXIXIXIXLXLXIXIXIXIXLXIXIXLXLXLXIXLXLXIXLXLXLXLXLXLXKXKXJXJXLXLXMXo i 4. .` ) ) ` ) _ ) _ _ ^ ^ _ ( ( 1.6 # # 5 5 5 u u 4 # o @ * 7 i 5 e 5 i i I 5 @ 1.BX2X2X6X6X6X6X4X6X4X6X5X9XxX9X5X9X6XxXxX4XxX9X9X4X9X4XvX9XxX4X4XvX6X4X4X5XvXxXvX4X6X6X6X6X6X6X6X4X6X6X6X4X4X4X6X6X6X6X6X3X2X3X6X6X2X2X2X6X6X2X6X2X6XcX:XK T G J 5.K K I J T H J J T J H J J H J J F J F H F J H F H F J F J J I J T H P H F T J F S F S Z Z n Z V Z A Z D F J K T ].].{.{.{. X2X=X=X=X;X2X=X=X=X2X;X=X=X-X=X=X=X=X=X=X=X=X=X=X7X-X=X#X-X-X2X-X2X7XcXcXcXcX2X{.T S F J T W [.].].].].|.].].].].].].].}.].].].].].].].].].].].].].].].].].5.].].].]., D Z n Y ).).L ).Y ).Y ).Y Y M M L n v L M < v , ; < ; ; & O + ; < : ; ; : ; ; ; & ; ; ; , % 0 w w w w ^ w w ^ ^ t w w t w w w t t t ^ ^ w w w w w w w 9 4 # $ # * 0 q 5 i i G i G C G G @.@.@.@.6.6.u.0.1. .7 * # 4 4 q e w w q 3 $ 7 d d s s s s s s s s s s s s a d s a - - - * 4 4 4 w q w w w w w w w w w ",
"h h h h h h h h j 8 0 y N V H /.K |././.V V v V V V V V V V V V V V V D V D B N 9 9 B t K #.@.@.|.6.|. X.X.X|.>.|././.H n n M A A A A S A A P 2 y P y P P 1 * S I F Z b Z D D H D H H V V C V D V V D D D D D D C V V H V D B V D V V V V V V C V C V H V H V H C C V /.C /././.XXXXXXXXXXzXXXXXXXXXzXBXIXSXKXLXLXLXIXIXLXLXLXKXLXIXLXLXLXLXLXLXIXLXSXJXLXW & LXCX:X2.a.2.` $.$.$.2.2.` q.2.q.q.u.a.dXi u KXKXKXLXLXLXLXIXIXIXIXIXIXIXIXIXLXLXIXIXLXLXLXLXIXLXIXIXIXIXIXIXIXIXIXIXIXIXLXIXLXIXIXIXLXIXIXIXLXIXIXIXIXIXIXIXLXIXLXLXJXLXIXJXIXIXLXFXLXZ.. 1.1.$.` _ ` _ _ _ ) _ _ _ ( ) ) i @ @ e 5 u e 5 5 @ o 4 5 8 u 5 e i i e I # @ 5.vX:X3X3X4X6X4X4X4X6X4X4XvX4XxX9X6X6X9X4XvX4X9XxX9X4X6XvX4X4X4X9X6X6XvXvXvX4X4X4XvX6X6X6X9X9X4XvX6X6X4X6X6X6X6X4X6X6X6X6X3X6X6X6X6X6X6X6X2X6X6X6X6X6X6X6X2X}.}.5.5.G G K K J J T H J H J K T T T T K T J H T T J J Y H F F H A Z D N 9 , b b Z Z D J J T 5.7.[.{.}.*X=X=X=X=X=X=X=X=X=X=X=X=X=X$X$X}.*X$X=X$X=X=X=X}.=X=X$X#X=X=X=X=X=X=X=X=X-X-X=X=X=X7X=X2X2X-X-X2X2X-X7X7X2X7XvXcX7X$X8.T S S T 5.].].].].].].].].].].].].].].].].].].].].].].].].|.].].].].].T 5.[., < H n n L ).).M Y (.Y Y ).Y ).Y ).Y M M M n n v n n n < v , < ; O ; : ; O ; ; ; ; ; O ; % 9 w w w ^ w w w w t w w ^ w w w ^ C ^ t ^ w ^ ^ w w w w q 4 % $ $ - - - - 7 7 u 7 7 u 7 u q e u u i j 1.3.3.U j j g d 7 * # 3 4 0 0 # * - a d s s s s s p s p p p s s d a a a a - - - $ 4 0 q 4 w w w w w w 9 w w ",
"h h ~ h h h ~ h h h 0 0 9 C /.C /./.C H H V V V V N V V V H V V B V V D b N Z Z B , 9 C J @.@.@.#.#.>..X X X|.|.|.|.|.H Z 2 2 A A P 2 2 y n n A A y P y y y > & , , Z b D D D V V V V V V H D V V V D D D V D V /.V H V H D B V N M H V H V V N V V V C V C H V C /.H H C V C /./.|.XXXXXXXXXXzX*X|.|.-XAXIXJXIXLXIXIXJXLXLXLXLXLXIXIXIXIXLXPXLXIXLXKXJXKXf.- SXNX5Xq.i.%.q...' ' } $.2.2.q.2.p.q.a.1X:X. DXKXJXLXLXLXIXLXIXLXIXLXIXIXIXLXIXLXLXLXLXIXLXIXLXIXIXIXLXIXLXIXLXIXLXIXLXIXLXIXIXIXLXIXIXIXIXIXIXIXLXIXLXLXIXLXIXLXIXLXLXIXIXIXIXJXIXHXHXLXU @ 1.1.` ` ` ) ` ( ) ( _ _ (  .i @ @ i 5 5 5 5 % o o u i u i 5 e 5 i u i # o 2XvX3X4X2X4X6X6X6XvX6X6X6X6X6X6X6X4XvX4X4XvX4X4XvX4X4XvX9X6X5XvXvX5XvX4X4X6XvX4XvX4X4X6X6XvXxX4X5X4X4XvXvX6X6X6X6XvX6X6X6X6X6X6X6X6X9X6X9X6X6X6X6X2X6XcX2X6X6XvX X5.}.}.8.5.I T I J T T I I J F J F F F F F S D A F F J P T R T T [.+X|.{.*X=X}.$X=X$X=X$X=X=X*X@X@X$X+X|.{.}.@X}.$X$X{.$X@X$X}.}.*X@X$X*X+X*X}.}.$X=X=X$X$X$X$X=X$X=X=X$X-X=X=X=X=X=X,X-X-X=X7X7X-X-X7X-X7X-X-X-X7X7X<X7X8XvXcXvX7X#X5.I I T 5.5.[.].].].].].].].].].].].].].].].|.].].].].K |.].].].].T ].H < n M n M Y ).Y Y Y ).Y (.Y (.L (.Y Y ).Y ).Y L M n n v v n n b b < n 2 , y , 2 v , , % 9 w ^ w w w ^ ^ w w w w w w ^ w ^ w t w w w w w w ^ w 4 4 4 * - - g - g g - - 7 - 7 7 u 7 - u 7 7 7 j j j s.j.f.s.s.s.j g 7 - $ # $ @ $ - a d a s s s s s s s s s s p s a a p s g a - - - * # 3 4 4 w w w w w q w ",
"h h h h h | h ~ h 8 8 y > N H H /.C H /.V V V V V V V V V V D b D D D n n v n D Z y 9 C G @.@.@.5.@.@.5.}.}.|.]./.XX|.).N 2 Z y 2 A 2 1 1 1 2 2 2 2 n A 1 : 1 2 < b D D F D n b n D V D D V V D D D D n n Z D H V V V H V H N Z b M D D V b N 9 9 N N N V V H V V D H H H H M H J ).H /.T |.*XXXXX*X}.*X7XSXSXAXLXIXJXDXKXFXLXLXIXIXVXnX%X=X%XnXVXJXIXIXIX+XX MXNX9X2.i.q.' 2.' ` $...2.q.2.u.0.p.p.,X:Xo MXUXIXJXIXHXLXLXJXIXLXIXIXLXIXLXIXLXIXLXJXJXLXJXPXLXIXIXIXIXUXIXLXIXIXIXIXHXLXHXHXJXIXUXIXUXLXIXLXJXHXAXJXPXPXPXIXLXPXIXUXUXIXUXUXUXIXIXUXIXLX. u 1.2.) ) 2.) @.1.) @.@.( 1.# @ 4 4 4 4 u * . & y u u u 5 e i i i i @ @ #X6X3X6X2X4X6X6X3X6XvXvX8X6X2X9X9XvX9X9X4X6X6X6X6XvX4X6XvX6X6X6X6X6XvXvXvXvXvXxX9X6XvX4X4X4X5X6X6X6X9X4XvX6X9X6XvXvX8X9X6X8X6X9XvX4X3X3X3X6XvX6X3X9X9X9X6XvX9XcXvX8X}.8.5.8.}.5.G F F P I I J I T T T T ).[.}.[.[.+X*X=X=X$X=X*X$X=X{.{.*X}.*X[.{.*X[.}.*X}.*X{.*X=XOX+X$X@X@X{.$X}.{.$X=X$X=X=X$X=X@X@X$X+X@X$X$X=X#X=X#X=X=X=X$X=X$X&X-X-X-X7X-X-X-X=X-X=X$X$X-X=X-X-X-X7X-X-X;X-X-X7X;X<X;X7X7X;X8X8X8X7X=X=X[.T T F T ].].[.].5.].7.5.7.].].].].].].5.5.].|.].].].].].6.].].T N < v n M Y Y Y Y ).Y Y Y M Y (.Y ).Y Y Y Y (.).Y M M M v v < v n n < 2 n n n v v 2 9 9 w t w w ^ ^ w w w w w w w ^ w w t w w w w w w w w 4 3 # - - d f d d d g d d - a d d - - 7 d - d g g j s.f.s.d.d.d.s.s.j s = = - $ $ = - s s s s p p s s s s p s s a a s s s p s p s a - - - # 4 4 w w w q w w w ",
"h h h ~ h h h h h h 7 1 > N V V V V V V V V V V H V V V N D b n D 2 ; X X ; X X . o % u G @.G @.5., o o o % G |.|.|.XX|.F O         X + 1 + :   X   X   X + : n Z Z F < ; O O O O O v D D D D Z n ; X   X . ; b V V D D D b X O X X O O < 2 Z 9 B 9 9 B B N V D H H n b ; X   O X X , ; ; O O ; ; D ).=X;XcXAXAXJXSXJXFXKXJXIXnXOXO     + X O   . + P AXUX;X. SXNXdXq.i.q.' _ ....$.2.2.2.6.( 3 4 @ @ # X & ;XUXPXLXLXLXLXLXJXIXIXIXIXIXIXLXLXLXJXLXIXJXLXIXIXIXLX;XP f + & + f P ;XUXIXHXLXUXAX;Xf A 1 P nXUXPXPXHXLXUXIXHX%XU P f A & + = + 2 2 f U +XOXo 1.1.@.1. .i # # @ # # I 0 o 4 u 5 7 i % o o X   O o * u i i i u o 0 2X7X3X6X2X6X6X6XvXcX}.G 0 & O & o > G }.vXvX6X9X6X6X4XvX6X9X9XvXvXvX7X2X}.8.5.}.2X9XvX9X6XvX4XvX6X3X9XvX9XvX7X2X}.8.5.}.=X8XvXvXvX9XvX6X9X2X8X6X2X8X2X#X#X5.}.=X2X2X7X7X8X-X#X=X=XcXcX$X+X[.$X=X=X=X$X=XOX$X+X-X=X+X{.[.).T Y R T [.[.[.*X}.=X$X@X$X{.$X{.$X=X$X{.[.OX{.{.*X*X$X$X$X{.@X}.$X$XOX+X+X+X=X=X$X@X#X}.=X#X-X#X=X=X#X-X;X@X$X+XE W R T OX$X-X7X=X-X-X$X7X7X=X-X7X;XcXaX8X7X;X;X7X8XaX7X8XnXpX8XcX;X7X7XcXBX7XcX$X7.R T T ).7.[.[.[.[.].].[.R ].].].].5.].K |.].].].K K ].].).Y D 2 2 l M L Y ).).).).).).M ).(.f.Y (.Y Y Y Y ).Y Y Y Y A n v n n < n n M v , 9 9 t w 9 e w w w w w w w w w w w w w C t e C w w w e 3 3 - 7 f 7 j f j g s s s s s s j j j f j j g f s.s.j.Y.Y.Y.C.d.d.d.s.s s - = a = = - d f d s p s s s p s s p s s a a p s s p s a p p a - - $ 4 4 w 9 w w 9 w ",
"~ h h h h ~ h h h h 7 7 , b V V V V V V V V V V V V V V V V D v ; X A ;XPXHXUXGXnXI o @ I @.G u o > 7XUXBX[.X b /.|.|.V O 2 E ;XnXHXHXPXUXHXPXHXPXGXcX=XY +   1 n F X X R GXPXHXnXA X n F Z D X X W nXGXnX;XP X ; F F S <   P zXnXGXcXT   : Z G C e e B 9 N b V F Z X X A +XzXGXPXHXPXPXUXPXnX*XW <   2 {.7XHXAXCXMXAXDXKXLXW X X W nXUXPXPXPXHXGXOX+   W nX  MXNXmXq.u.w.$.2.' 2.2.1.G 3 o o u P 8.{.Z.Z.P   = +XLXJXJXJXJXLXIXIXIXLXIXLXIXLXLXLXIXIXIXIXIX;X1     1 P +XZ.+XP P   = nXUXUX;X    P P P 1   1 HXUXIXUXqX1 X X 1 L P P f.+X9.+XP L P 1 =   . @ 3.3.1.* o S P OXP 2 . o * P 5 0 5 * .     P P Y A & o u G 1 o u mX8X6X2X3X4X6XvX#XI . X 1 P 9.+X[.OXR u . $ :XvX6X9X3X6X6X9X6XmX6X#XS o o @ & o O X o S 8XBX9X9XvX9XBXvXvX2Xu @ o o o @ @ o o u }.2X8X2X2X2X=X7XvXBXR + o o o . 1 W IXIXLXIXJXPXJXHX9.: X X X   : P ;X=X$X$X=X{.2 : X . . . o O o O . . X   + Z [.+X$X$X+X@X$XP + .   .     O S =X=X$X$X$X;X9.:       2 f.=X=X#X=X$X@X@X=X$X7X=X[.U 1 O     O . O O     + P 7X;X-X-X=X-X7X;X-XW P P L 1 - + & 1 P 2 P E $X;XcX8X8X7X8X8XnXmXcX+XP P + O O 2 2 1 n A I ].[.}.5.[.].].].].].].].].5.5.].5.[.7.T n X X ; < < k n F Y Y Y ).L ; < L L Y ).).Y Y Y Y Y Y n < O O O 2 W ).Y Y Y J 9 9 9 % % % % e e w t ^ w t w t 9 % @ @ @ % % 9 e % * $ 7 - j f = = = p f j s d j f d f 1 = = = X X X = = p = p j d.C.d.f.s.d d d f - = + = f f s f s s s p s s s p s s p s p s p a a p a a a - - - * 4 9 w w w w ",
"h h h h h h h h h g 7 0 9 V b V V b V N V V V V V b V b D b D X . nXUXUXPXPXUXPXUXUXcXo @ G I 0 : HXUXUXIXUXcXO C |.J ; *XUXUXUXUXUXUXPXPXUXUXUXUXUXUXUXUXPXE X 1 :   zXUXUXPXUXUXUXY   Z Z < ; ;XUXUXUXUXUXUX[.. Z 2 2   W UXUXUXUXUXUX$X  9 G @.G @.t C 9 9 2 2 . 2 nXUXUXUXPXUXPXPXUXPXPXPXUXUXPXcX+   U MXFXDXCXSXDXKX&   ;XPXUXUXUXUXUXUXUXIXUXUX-X    . AXSXNX4.i.q.} ' ` 2.1.4 o y -XHXUXIXUXUXUXUXUXPX1   AXIXLXLXAXLXLXLXLXIXIXIXIXLXIXLXIXIXIXVX1   P $XHXUXIXUXUXUXUXIXGX1 X UXqX  W HXUXUXUXUXHX= + nXUXU   y VXHXUXPXPXUXUXUXUXUXUXUXUXPXPXHX@X& o i * X 7XIXLXUXUXUX+X  > 5 0 5 * o   O GXUXUXUXUXPXU . @ o ,XMX0.0.2X6X9XvX6Xu . X *XHXUXUXUXUXUXUXUXUXGXy o 2XNX5XxX9XvXvXvX5.o . y $XvXHXPXHXHXHX+Xo o #X9X2X2X2X2X8XS o & @XGXHXPXGXHXHX-XP o   -XIXPXJXJXPXIXE   E BXHXJXnXE   A IXKXAXJXJXJXOX  E nXHXHXzXP . u ;X-X;X1   1 U $XnXGXGXHXHXHXPXGXHXnX;X[.:   . =X+X;X[.. . E =XHXGXHXnX+X.   T =X$X;X).. y HXGX;X1   W 2X#X#X=X#X=X-X=X9.: . o A +XnXHXHXGXJXIXGXnXU . . -X7X-X7X;X+X&   o : - A P W f.W P 2 f 1 O   X P 8XnXcXcXnXE O   . & 2 n A P Z n A 2 : O . : Z [.[.[.}.].5.].5.].].].].5.[.W ;   : A P L ; X 2 L + ; = ; X = L L n   X L n n n n n 1 X X 2 L F A X X n ).Y W 7.> o . > S y : o % e t ^ w w B o o 1 Z y S y > o @ y 0 - g j =   1 1 -   = j d j f = X   + f 1 f U W W f.P f f = X     = s.j j j d     X = =   X = f j s p s p s s s s a s p s p p s a s s a a a - - * % 4 q q w w ",
"h h h h h 8 h h h h 7 0 , N N N V V V V V V V V V N V V D b v O =XUXUXUXPXPXPXPXPXUXUX8X. P P o {.UXPXHXHXPXUXP n T X +XUXUXHXUXUXPXHXPXUXUXPXPXPXUXHXPXPXUXUXn X   +XPXPXIXPXIXHXUXHXO A T X =XPXPXHXPXUXPXPXUXP . R & 1 UXUXPXPXPXHXIXIXP o 5.@.@.@.@.C e 9 > O : UXUXPXPXPXPXUXIXPXIXUXUXUXUXIXUXUXUXW   U KXAXSXCXLX$   GXUXUXUXUXUXPXUXUXPXUXUXUXUXVXX   MXSXNXu.q.q.' ' 1.i .   nXUXPXUXUXUXPXPXPXPXPXUXPXA $ SXJXJXJXKXJXIXIXLXIXLXIXIXLXJXIXIXf.  + nXUXUXPXUXPXPXHXUXPXUXUXUXX P   W PXUXPXHXPXPXUXUX+ 1 W   qXUXUXPXUXPXUXPXPXUXPXPXUXUXUXPXUXPXUXUXy X X pXUXUXPXUXPXUXUX+Xo i q 4 @ o   UXPXPXPXPXPXPXUX1 o 2XLXKXJXHX7X0.-X@Xo   nXUXUXUXPXPXUXPXUXUXPXPXUXUX+ 0 9XvX9X9XBX=Xo   +XGXUXUXUXUXUXUXPXUXUXUX1 o SXBXBXPXBXo . ;XUXUXUXUXPXUXUXUXUXUXnXT   Z.PXUXIXUXP   ;XUXUXUXUXUXUXnX  &XLXLXIXIXE X ;XUXUXUXUXUXUXnX  [.nX&   ;XUXUXUXUXUXUXUXUXUXUXUXUXUXPXUXUX;X& X ;X+X  : HXUXUXUXUXUXUXUXUXA . @X;X$X  E UXPXUXUXUXP o 2X2X}.#X=X;XOX+ . A nXHXUXUXUXUXUXUXPXUXUXUXUXHX. o 7X;X8XP . 1 MXHXIXUXUXUXUXUXUXUXUXUXUXUXGX=X    ;XnX;X.   W nXGXUXUXUXUXUXUXUXUXUXPXHXcXP   X F 7.].].}.].5.].5.].T ].].o . zXUXUXUXPXHXW   P R S X   =XUXUXUXUXGX).  1 P A Z A X < nXPXUXUXUXHXn X n A y A o + BXUXUXUXUX7Xo % e e e % o y nXUXUXUXUXUXUX$X  X y - j = X 8XUXUXUXnXX X U f X   $XnXGXUXUXPXPXUXUXUXUXPXUXPXPXnX+X= X d U =   P VXHXPXHXGX+X    j p s s s p s s s p s s p p s p s s s p p d d - - * 3 4 q q w ",
"h h h h h h h h j 7 u > 2 N B N N V V V V V V V V N V N b D O E UXPXUXHXPXPXUXHXUXHXPXUXy + I X GXUXUXPXPXPXUX*XO ;   UXUXUXPXUXUXUXUXUXPXPXPXPXUXPXUXPXPXPXUX-X+   UXPXPXPXIXPXPXHXPXP 1 P o JXUXUXPXUXHXPXUXUXnXo I o {.UXUXHXPXHXUXPXIXJXo 1.@.#.^ @.@.t Z y o nXUXHXHXPXPXUXUXUXLXIXPXPXHXUXPXUXPXUXUXOX. Z.SXNXLX9.  HXUXPXUXPXUXUXUXUXPXPXUXPXPXUXIXHXX 1 9XSXp.u.u.$.2.4 o U UXPXPXPXUXUXUXPXUXIXPXPXUXUXGXX u A.JXJXKXJXLXIXIXLXIXLXLXLXIXUXA   $XUXUXUXUXUXPXPXUXPXPXUXPXPXUX;X    UXPXUXPXUXPXPXUXUX;X+   W UXHXUXUXUXUXUXUXPXUXUXUXUXUXPXPXPXUXUXUXHXy 2 UXPXPXPXUXPXPXIXUX@ * 5.# @ . GXUXHXPXPXUXPXPXUXGX. u 0.JXSXHXPXPXmX. 1 UXPXUXUXUXUXPXUXUXHXUXUXPXPXPXaX@ G 6.9X9XG o S UXUXUXUXPXUXPXPXPXPXUXPXUXIX. S 9XUXPX. o PXUXUXUXPXUXPXUXPXPXPXUXUXUX+X  W UXUXGXX W UXHXUXUXUXUXUXUXW   W SXJXSX= P UXPXPXUXIXUXHXPXf.  E   GXUXIXUXPXHXPXUXPXPXPXHXUXHXPXUXHXUXUXUX  U : + UXUXUXUXPXPXPXPXPXUXPXy . =XI . UXPXHXUXPXUXHXo u 0.2X,X7XP . O GXUXUXUXPXPXPXUXUXPXUXUXUXPXPXUXHX. P -XE . OXUXIXUXPXUXIXPXPXPXPXUXPXUXUXUXUXUXUX1 O -X  & UXUXIXUXUXUXPXUXPXPXPXPXPXPXUXUXUXPXI   2 R S G T 5.[.[.[.].[., X HXUXUXPXHXPXUXUXR o I :   =XUXHXHXPXUXUXUX+X  y & >   2 PXPXPXHXPXPXUXUXY   F > >   UXUXPXHXPXHXUXHX. u S 0 o R UXUXUXUXPXUXPXHXUXGX  + f A X +XPXPXPXUXUXVX  f   P UXUXPXUXUXHXPXPXPXHXPXUXPXPXUXPXPXUXUXf.X =   $XPXPXUXUXUXUXUXIXO X f g a s s s s p s s p p s p p p s s p a p s a - - # # 4 w w ",
"h h h h h h h h 7 7 0 , N b N N N V V V V V V N N 2 b V n Z X nXUXUXUXUXPXUXPXPXPXIXPXIXGX. 2 y GXUXPXPXUXPXUXcXO   oXIXHXPXUXUXPXUXPXUXUXUXPXUXUXPXPXUXPXPXUXVX  E PXHXPXHXUXUXHXHXUXW & & > UXPXUXUXPXUXUXUXUXPX. u o zXPXHXPXUXUXPXHXHXUXy 5 $.#.) #.@.@.G , 1 UXUXIXUXPXUXUXUXUXUXIXUXUXUXUXPXUXUXPXPXUX7.o P mX7X  ;XUXPXPXUXUXUXHXUXUXUXUXPXPXPXHXUXUXnX. * L.2.0.p.6.5 o 9.UXUXPXUXPXUXUXUXUXPXPXPXUXUXPXUXo i ( A.IXJXIXIXIXLXIXLXIXLXIXIX2   GXUXUXUXUXUXUXPXUXUXUXUXUXHXPXUXPX  +XUXPXUXPXUXPXUXUXUXPXP   HXUXPXPXPXPXIXUXUXPXUXUXPXUXUXUXUXPXPXUXPXUX+X+XUXPXPXPXUXUXPXIXIXnX@ I 5.@ 2 UXUXPXPXPXUXUXHXUXIX@ t @.4.JXHXJXJX. y UXUXHXUXUXUXUXUXPXUXPXPXPXPXPXPXPX@ ( 1.:X5.. -XUXUXPXPXPXUXPXUXUXPXPXHXPXUXUXR @ G #X1 + UXUXUXPXUXUXPXUXPXPXUXUXUXUXUXUX;X  U UXqX  AXUXUXPXUXPXPXUXUXUXo i i BX7X. nXPXPXPXPXUXPXIXUXHX    W UXPXPXUXUXUXUXUXPXUXUXPXPXUXPXPXPXIXUXUXP     nXUXUXHXUXUXUXPXHXIXPXUXPX. 2 & P IXPXPXHXIXUXUXI # 1.6.2XO   +XUXUXIXHXPXUXUXPXPXPXUXPXPXUXIXHXPXIX$ 1 P . W UXIXPXIXUXUXPXPXUXUXUXUXUXPXUXUXUXHXUXJX  . + UXUXUXPXUXUXPXPXUXPXPXUXPXPXPXPXUXHXUXUX;X. I PX2X@XT F G J 7.R X ;XUXHXUXHXUXHXPXUXHX. I y + UXPXPXPXPXUXUXPXUXA & {.I . UXUXPXPXPXPXPXPXUXGX. I 5.. +XUXHXPXUXHXUXPXUX7.. I o P PXHXPXUXPXUXPXPXUXPXUXqX  P 1   UXPXPXPXUXPXPXn   1 PXPXHXIXUXUXUXUXUXUXUXPXUXPXPXUXUXPXUXHXUXY   P PXPXHXUXUXUXHXPXIXGX. j j 7 g s s s p p s s s p s s s s p p p p p a a - - * 4 9 4 ",
"8 h h h h h h j 7 0 > , N N N N N N N b V V N N N N V V b <   UXUXUXUXUXUXUXUXIXPXPXUXPXUXO . P GXUXUXPXPXUXUXHXP   pXIXPXPXIXUXUXUXUXUXUXUXUXUXUXUXUXUXUXIXUXzX  nXUXPXPXPXUXUXHXUXUX+X+ o 1 IXUXUXPXUXUXPXUXUXUXo * . GXUXPXHXUXUXPXPXPXUX@X@ $.$._ @.@.@.G @ 9.UXPXPXPXUXUXUXUXPXIXIXUXUXUXPXPXPXPXHXUXUXIX1 $ U o P UXUXPXPXUXUXUXUXPXUXUXUXUXUXPXPXPXIXUXI @ 1.^ 3 5 i @ aXUXPXPXPXPXPXUXPXUXUXUXUXPXUXUXUXUX@ i 2.( >XIXJXLXIXIXLXIXLXIXLXZ.  AXUXUXUXPXPXUXUXUXUXUXUXUXUXGXPXPXUX  nXUXHXUXUXUXUXPXUXUXUX+X+ UXUXPXPXUXUXUXUXUXUXUXPXUXUXUXUXPXUXPXPXPXUX;XzXUXPXPXPXUXUXJXPXPXIXo u I o ;XUXPXHXUXIXUXUXPXHXUX$ ( 2.( 4. X:X> O UXUXPXPXUXUXUXPXPXUXUXPXUXUXPXPXIXUX@ I 1.# . nXUXUXUXHXUXUXUXUXUXUXUXPXPXHXUXUX@Xo 0.#   HXUXUXPXUXHXUXUXUXPXUXUXUXUXUXIXPXUXOX  E P P HXUXUXIXHXUXUXPXIXIXI # 6.4.0 E UXUXPXUXPXUXUXPXHXUX    GXUXHXHXUXUXUXUXUXUXUXUXUXPXUXUXUXPXUXUXUX*X  1 UXUXPXHXUXUXPXPXPXPXUXUXIXU O   +XPXPXHXPXPXPXUX9.o 6.I @ o GXUXUXUXPXPXUXPXPXPXUXUXPXUXUXIXPXPXIXUXu > u X JXUXPXHXPXUXUXUXUXUXUXUXUXUXUXPXHXHXUXUXUXA   nXUXUXPXHXUXPXUXUXPXUXPXPXUXPXPXPXPXPXPXPXUX@Xo I 9XvXBXvXvX=X$X, : PXUXUXPXHXUXUXPXPXUX+ A & I UXPXPXPXPXUXPXGXPXnX. I . P UXUXPXPXPXPXUXUXUXUX$ u I . HXHXHXUXPXPXPXHXUXPX& 2 . GXPXPXPXPXPXUXPXPXJXPXIXUXP + 1 = PXHXPXPXUXHXUX+X  %XUXPXHXUXUXPXUXUXUXUXUXUXUXPXUXUXPXUXUXHXUXGX  nXPXPXHXIXUXPXPXHXPXIX& 5  .j 7 s p s s s p p p s p s p p p s s p p a a a 7 - * 4 q ",
"h h h h h j 8 7 0 > , , N V V N N V V N V V b V b V V N V , 1 UXUXUXUXUXUXUXUXUXUXUXUXPXUXW   Y GXUXUXUXUXUXUXGXP X GXPXPXUXUXUXUXUXUXPXPXUXUXPXPXPXPXPXUXPXUX$XX nXUXPXPXUXUXUXUXPXUX[.+ & 1 UXUXUXUXUXUXUXUXUXUX. : . nXUXPXUXUXPXPXUXPXUX$X@ ` } $.^ #.@.T o +XUXUXIXUXUXUXUXPXUXPXPXUXUXUXUXUXUXPXPXUXUXUXOXO P . ;XUXUXUXPXUXUXPXUXUXUXUXPXUXUXPXUXUXUXUX;Xo i 6.( 4 o P UXIXUXUXUXUXUXUXUXUXUXPXPXPXUXUXUXIXo r .._ 4.JXJXLXLXPXLXJXJXLXVX  W UXIXPXUXUXUXUXUXUXPXUXUXUXUXGXUXUXUX  VXUXUXUXUXUXUXUXUXUXUX;X1 PXUXUXHXUXUXUXUXUXUXUXUXUXUXUXUXUXIXUXUXPXUXnXqXUXPXHXIXUXUXPXUXUXUXI & S 1 BXUXUXPXUXUXUXUXHXPXUX@ r 2.} q.5X9Xo 9.UXPXPXUXUXUXUXUXPXPXPXPXPXPXPXPXUXIXo 1.5.o {.UXPXUXUXUXUXUXUXUXUXUXPXPXPXUXUXUX@Xo 8.. W UXUXUXUXUXUXUXUXUXUXUXPXUXUXUXPXUXUXHX  P + W HXUXUXUXUXUXUXUXUXUXE @ 5.6.o OXPXPXUXUXUXUXUXUXPXUX2   UXUXHXUXUXUXUXUXUXPXUXPXPXUXUXPXPXPXPXUXUX+X  Y IXUXUXPXUXUXUXUXUXUXUXUXUX;X  . W UXPXPXUXPXJXUX$X. 8.0 o 7XUXUXPXUXUXUXUXUXUXUXUXPXUXUXPXPXHXPXIXIXo u u : UXPXIXUXUXUXUXUXUXUXUXUXUXUXUXUXUXPXPXPXUXA X HXUXPXPXUXUXUXUXUXUXPXUXPXUXPXUXUXUXUXUXPXPXPX> 7 6.9XmXsXcX8XSX+ I UXUXUXUXUXUXPXUXPXPX& y 1 P PXUXIXUXUXUXUXPXUXHXO P   +XUXUXUXUXUXUXUXUXUXPXu u I . GXIXUXUXUXUXUXPXUXUX1 + : HXUXUXUXUXUXUXUXUXUXUXUXUX$X+ & P PXPXUXUXUXUXPX;X  qXUXUXPXPXUXUXUXUXUXUXUXPXUXUXUXUXUXUXUXPXPXPXX GXUXIXUXPXUXPXIXIXUXUXP 3  . .8 7 s s a p s s p s s s p p s p s p p p s p d - * 4 4 ",
"g h 7 h g 8 7 0 , 9 N N N V b V N V V V V N V V N V N V b X P UXUXUXUXUXUXUXUXUXUXUXUXUXUXqX  U HXIXUXUXUXUXUXHXU O HXUXUXUXUXUXUXUXPXUXUXUXUXPXPXUXPXHXPXPXUX1 + PXUXPXUXUXUXUXPXPXUXOX+ = y UXUXUXUXUXUXUXUXUXIX  1 . nXIXIXUXUXUXUXUXPXPX7Xo ) } } ` @.@.G o $XUXUXUXUXUXUXUXUXPXUXUXPXUXUXPXUXUXUXPXUXPXPXnX2   1 IXUXUXPXUXUXUXUXPXUXUXUXUXUXUXPXUXUXUXUXJXI # 6.0.u . HXIXUXUXUXUXUXUXUXUXPXUXPXUXPXPXUXUXHXo ( ..2.2.SXJXIXIXLXJXPXJXIXA X UXIXPXPXPXUXUXUXPXUXPXUXUXUXPXPXPXUXzX. PXIXPXIXUXUXUXUXUXUXUXnX+ PXIXPXUXUXUXUXUXUXUXUXUXUXUXIXUXPXUXUXPXUXUXnX+XUXPXPXUXUXUXUXUXPXUX;XX o W JXUXUXPXPXUXUXUXHXPXUXo ^ .._ O.>X@Xo JXPXPXUXUXPXIXPXUXUXPXPXUXUXUXHXPXUX@Xo I @ I UXPXUXUXPXPXUXUXUXUXUXUXUXPXIXPXUXUXW & 1 + GXUXPXUXPXUXUXUXUXUXUXUXUXUXUXUXUXPXUXUXoX  X W PXUXUXUXUXUXUXUXIXUX7Xo 6.1.o aXUXPXUXUXUXUXIXUXPXUXU 1 UXUXPXUXUXUXUXUXUXPXUXUXPXUXPXPXPXPXPXUXUXP   *XUXPXPXUXUXUXUXUXUXUXUXUXUXHX:   ;XUXPXPXUXPXIXUXcX  P   {.UXUXUXPXHXUXUXUXUXUXPXPXUXUXUXPXUXPXJXIX$X@ I > I UXPXUXUXIXUXUXUXUXPXUXUXPXUXUXUXPXPXPXPXIXP 1 UXUXUXUXUXUXUXUXUXUXUXUXUXPXUXUXUXUXUXUXPXPXPX=Xo 1.) 9X9XmXnXBX. *XIXUXPXUXUXUXPXUXUXUX+ P O E UXUXUXPXPXUXUXIXPXUXL 1   nXPXUXUXUXUXUXUXUXUXUXy - i   UXUXPXPXPXUXUXPXUXUXP X P UXUXUXUXPXUXUXUXUXUXUXUXUXnXu   I UXPXPXUXUXPXUXHX  GXUXUXPXUXUXPXUXUXUXUXUXUXUXUXUXUXUXUXUXPXUXUX+ PXUXPXUXUXUXUXUXIXJXUXE # .... .7 a s s s p s p p p s p s p p p p s p s p - - $ % 4 ",
"7 7 7 7 7 0 > > , N V v N b b b N V V V V b b V V b b N D X ).UXUXUXUXUXUXUXUXUXUXUXPXPXUXGX  Y GXUXUXPXUXUXUXPXW + PXPXUXUXUXUXUXPXPXPXUXUXUXPXUXUXPXUXUXHXP   + UXPXPXUXUXUXUXUXPXUX+XO & 2 UXUXUXUXUXUXUXUXUXUXX & . 8XUXPXPXPXPXUXPXUXUXGXo Q O.' / ^ @.u o nXUXIXPXUXUXUXUXPXUXUXPXPXUXPXUXUXPXUXUXUXPXUXUXE   =XUXPXPXUXUXUXUXPXHXUXUXUXUXUXUXUXUXUXPXUXUX7X@ 1.1.o +XUXPXUXUXUXUXUXUXUXPXPXPXUXPXUXUXPXUXZ.o 1.2.2.i MXIXLXIXIXIXLXIXHX  ;XIXPXUXPXUXUXUXUXUXUXUXUXPXPXUXPXPXUXP : UXIXHXUXUXUXUXUXUXUXUXGX& UXPXPXUXUXUXUXUXUXUXUXUXUXUXUXPXIXIXPXUXPXPXnXP UXPXUXUXPXUXUXUXUXUXLX+   ;XUXIXUXUXUXUXUXUXHXUXGXo ` } } _ :X1.o UXPXUXUXUXIXPXUXUXPXUXPXUXUXUXIXUX8X. u i . HXUXPXUXPXUXPXPXUXUXUXUXUXPXUXUXHXPXUX& 1 o $XUXUXUXUXUXUXUXUXPXUXUXUXUXUXUXUXPXPXUXUXIX    +XUXUXUXUXUXUXUXUXPXUXAXo @.1.o HXUXUXUXUXUXUXUXUXPXPXP Y UXUXUXHXUXPXUXUXPXUXUXUXUXPXUXUXPXPXPXUXUX    nXUXUXPXUXUXUXUXUXUXUXUXUXPXUXA   $XUXUXPXIXUXUXUXSX  + P UXUXPXIXPXPXIXUXUXPXPXUXUXUXUXUXUXUXUXIX@Xo 5 I $ +XUXPXPXUXUXUXUXUXUXUXUXUXUXUXPXUXPXUXPXUXHX  E UXUXUXUXUXUXUXUXPXUXUXUXUXPXUXUXUXUXPXUXUXUXUXJXo ( ` t.9X9XBX7X  VXUXPXUXUXUXUXUXUXPXUX: 2 + W UXUXPXUXUXUXUXPXUXUXU X X PXPXUXUXUXUXUXUXUXUXUXf * i . UXPXPXUXUXUXUXIXUXUX+X  +XUXHXPXUXPXUXUXPXUXUXUXPXUXUXW   W PXPXPXUXPXUXPXGX  nXUXUXUXPXUXUXUXUXUXPXUXUXUXUXUXUXUXPXPXPXUXUX2 PXHXUXUXUXUXUXUXPXPXUX9.# ..} ..h g g s a p p s s p p p p s s p s p s p a - 7 $ 4 4 ",
"0 0 0 * % > > > v v V V V b N V b V b V V V V b V N V b D X %XUXUXUXUXUXUXUXUXUXUXUXUXUXUXUX= P GXUXUXPXUXUXUXUXf.+ UXPXUXUXUXUXUXPXUXUXGX+ : 1 1 L P P + . O 1 + UXUXUXUXUXUXUXUXPXUXOXO + y UXUXUXUXUXUXUXUXUXUX  1 . nXUXUXPXUXUXUXPXUXUXIXo Q ' ' %.@.G e o GXPXUXUXUXUXUXUXPXUXUXUXUXUXUXPXPXPXUXUXPXUXPXUXOX  PXPXUXUXUXUXUXHXUXUXUXUXUXPXUXUXUXUXUXUXPXIXLXo G G . UXUXPXUXUXUXUXUXUXUXUXPXUXUXPXUXUXPX+X  u i 4 @ @ .     o f +XIXUXW X IXPXIXUXUXUXUXUXUXPXUXPXUXUXHXUXUXPXZ.  2 UXUXPXUXUXUXUXUXUXUXUXGXO HXIXPXUXPXPXUXUXUXUXUXUXUXUXUXPXPXUXUXHXPXPXqX  UXUXUXPXPXUXUXPXUXPXUX2   PXPXPXUXUXPXUXUXUXPXUX8.@ ' } } '  XI : UXUXUXUXUXUXPXUXUXUXPXPXUXPXnX-XI o @ 8.# P UXPXPXUXUXPXPXPXPXUXUXPXUXUXPXPXUXIX9.o u . PXUXUXUXPXUXUXPXUXUXUXUXUXHXUXUXUXUXUXPXPXPXP   +XUXUXUXUXUXUXUXUXIXHXIX. 1.u 1 HXUXPXUXUXUXUXUXUXPXPXU W UXUXHXUXUXPXUXUXPXPXUXUXUXUXUXUXUXUXUX8X: @   GXUXPXUXUXUXUXUXUXUXUXUXUXUXUX+X  *XUXPXPXUXUXPXUXHX    GXUXPXIXUXPXUXUXUXHXPXUXUXUXIXGX*X*Xf.P . o 5 6.1.@ ;XUXPXJXPXUXIXUXPXPXPXUXUXUXUXUXUXUXUXUXIXP   oXUXPXPXUXUXUXUXPXHXUXUXHXUXUXHXUXUXUXUXUXUXUXUXIX@ ( .._ 5X9XmX;X  nXPXUXUXUXUXUXUXUXUXUX1   O [.UXUXUXUXUXUXUXPXPXUX[.  X UXPXUXUXUXUXUXUXUXUXUXu 4 I X UXPXPXUXUXUXUXUXUXUX+X  ;XUXPXPXUXUXUXUXUXUXPXUXUXUXUX;X  f.PXPXPXPXUXUXPXUX  GXUXPXPXPXPXUXUXUXUXUXUXUXUXUXUXUXUXUXUXPXUXUX2 UXPXUXUXUXUXUXPXPXPXUX7.3 ..} ..8 g a a a s s p p s p s p s p p p p p p s a - - * 3 ",
", , , , > , 9 b V v V V b b b V V v b V V V V b V V V b D O *XUXUXUXUXUXUXUXUXUXUXUXUXUXHXUXE P HXUXUXUXUXUXUXUXW : UXHXUXUXUXUXUXPXUXUXnX                1 {.P + UXUXPXPXUXUXUXUXPXUXOX+ & 2 UXUXUXUXUXUXUXUXUXPX  : . cXUXIXUXUXUXUXPXUXUXUXo 6 q.} _ ^ @.u . PXUXUXUXUXUXUXUXUXUX1   + 9.UXPXUXUXUXUXPXUXUXUX+X1 UXUXUXUXUXUXUXPXPXUX;X  *XUXUXUXUXUXHXUXUXUXIXu 0 * E PXPXHXUXUXUXUXUXUXUXUXPXPXUXPXUXGXU       X 5.@X=X$X+X&X+XP     $X1 +XIXUXPXUXUXUXUXUXUXPXUXPXUXPXUXIXBXu   . 2 UXIXPXUXUXUXUXUXUXUXUXHX  ;XUXUXPXUXIXUXUXUXUXUXUXUXUXUXUXPXPXUXUXPXPXoX  ;XUXUXUXUXPXUXIXPXJXUXW + UXPXUXUXUXUXUXIXPXUXUXo 6 %.} } _ P.G u UXPXPXUXUXUXUXUXPXUXPXUX+X  . o @ i 6.I @ <XUXUXPXUXUXPXUXPXPXUXPXPXUXPXUXUXUXE o u u : UXUXUXUXUXUXUXUXUXHXUXUXUXUXPXHXUXUXUXPXPXUX;X  W PXUXUXUXUXUXUXUXUXIXUX& u * P UXUXUXUXUXUXUXUXUXPXUX2 +XUXUXUXPXUXUXUXUXUXUX+X= A 1 1 P U P o . @ i   UXPXUXUXUXUXUXUXUXUXUXUXUXPXUXVX  *XUXUXUXUXUXPXUXPX  X UXUXUXPXUXUXUXUXUXPXUXUXUXW             $ I 0.6.G o nXPXPXUXUXUXUXUXPXPXUXnXnXqXzX;XGXGXnX$X: o O ;XUXPXPXUXUXUXUXUXUXnX    . E IXUXPXUXUXUXUXUXUXIXo ^ ..' t.BX8X$X  PXIXUXUXUXUXUXUXUXUXUXHXGXGXUXUXPXUXPXUXUXUXUXUXUX+X  + UXPXUXUXUXUXUXUXUXUXUXu 4 i X JXUXUXUXIXUXUXUXPXUX;X  nXUXUXUXUXUXUXUXUXUXUXUXUXUXUXGX  W PXPXPXPXUXPXPXUX  nXUXUXHXUXUXUXUXPXUXUXUXUXUXUXPXUXUXUXPXUXPXPX2 PXPXPXPXUXUXUXUXUXUXUXW 3 O.} _ ~ g a a p s s p p s p p p s p s p s p p a a - - 3 4 ",
"N N N N b b b V V v v V V b N N b V V V V b b V V V N V n X ;XPXUXUXUXUXUXUXUXUXUXUXHXUXUXUXnX: HXUXUXUXUXUXUXUXf.P UXHXUXUXUXUXUXUXUXUXVX1 A 2 2 U W P O   : 1 P UXPXUXPXUXUXUXUXPXPXW + + f UXUXUXUXUXUXUXUXUXGX  u o nXUXIXPXUXUXIXPXPXPXUXo 8 %.' ' @.1.0 . JXUXUXUXUXUXUXUXUXHX  P P   cXUXUXUXUXUXUXPXUXUX*Xf.UXUXUXPXUXUXPXUXUXUX    O UXUXUXUXUXUXUXUXUXLX+X. . ;XUXPXPXUXUXUXUXUXUXUXUXUXUXUX8Xu       O BXUXPXUXUXUXUXUXUXIXUX+XX   VXUXHXUXUXUXUXUXUXPXPXUXUXUXUX7Xo @ @ I 1 Y UXHXPXUXUXUXUXUXUXUXUXHX1   HXIXUXUXPXUXUXIXUXUXUXUXUXPXPXHXUXUXUXUX$X@ . X UXUXUXUXUXIXUXIXPXPXUXUXPXPXUXUXUXUXIXUXUXUX@X@ 2.} } } }  X0.o IXPXUXPXPXUXPXPXUXUXUXUXP   u R 4.2.6.i o SXUXHXUXUXUXUXUXPXUXHXPXHXUXUXHX=X. @ i 0.o #XUXUXUXUXUXUXUXUXUXUXW   IXUXPXUXUXUXUXUXHXUXPX  E HXUXUXUXUXUXUXUXPXPXIXE & . Z.UXPXPXUXUXUXUXUXUXPXUX= *XUXPXUXUXUXUXUXUXUXUXW         X     O I 5.I   UXPXIXIXUXUXUXUXUXUXUXUXUXUXUXPXX $XUXPXUXUXPXIXUXUX  +XUXUXUXUXUXIXUXPXUXUXUX+X          L 1   . o @ 1.1.. HXUXPXUXPXUXUXPXPXUXPX                o 1 P O ;XUXPXPXUXUXUXUXPXUXY $ E P   GXPXUXUXUXUXUXUXPXUXo Q q.} 2.9X9X$X  UXPXPXPXUXUXUXPXUXUXIXUXUXIXUXPXUXUXUXUXUXUXUXUXUXnX  O UXPXUXUXUXUXUXUXUXUXIXA 4 I . HXPXUXUXUXUXUXUXPXUXnX  HXUXPXUXUXUXUXUXUXUXUXUXPXUXUXUX  E UXPXPXUXUXHXUXUX  E IXPXPXUXPXPXUXUXPXPXPXUXUXUXUXPXUXUXPXHXUXnX  PXUXUXPXUXUXUXUXUXPXUX5.3 ' } _ | g a s s s p s s p p s a d p a a p s p p a - $ * 4 ",
"N N N b b b b V V V V V b V b b V b V V V b V V V b N D b X nXPXUXUXUXUXUXUXUXUXUXUXUXUXHXUXUX;XPXUXUXUXUXUXUXUXW Y UXUXUXUXUXUXPXPXUXPXUXUXUXUXPXUXUXUXIXnX&   P UXPXPXUXUXUXUXPXPXUXE = 1 2 UXUXUXUXUXUXUXUXUXAX  y . $XUXIXUXUXUXUXIXPXPXUXo 8 2.} $.( ( % I PXUXUXUXUXUXUXUXUXGXX U Y   cXPXUXPXUXUXUXPXPXPXW zXUXUXPXUXUXUXPXUXUXGX  P   nXUXUXUXUXUXUXUXUXUXqX    nXUXPXPXUXUXUXUXUXUXUXUXUXSX* o * I > 1 PXUXPXHXPXUXUXPXPXPXPXUXUXW   PXUXUXUXUXUXPXUXPXUXUXUXUXpXo @ 5 ( 2.1.0 W IXUXPXUXUXUXUXUXUXUXUXPX1 . o P 8.W GXUXUXUXIXUXUXUXUXUXUXUXzXI 9.u o 4 1.. $XUXUXPXUXUXUXIXPXUXPXUXPXUXPXUXUXUXUXUXUXJXo 6 q.} } } } 5X}.. HXUXPXUXUXUXUXUXUXUXPXUXUX-X. o i 1.2.4 I PXPXUXPXUXUXUXUXUXPXUXUXUXPXI o o i ..2.1.o nXPXUXUXUXUXUXUXUXUXHX    Y UXUXUXUXUXUXPXUXPXUX+ P GXUXUXUXUXUXUXUXPXUXUX;X    ;XPXPXUXUXUXUXUXUXUXPXUX  nXUXUXPXUXUXUXUXPXUXUX+X: f 1 2 P P 1 X . u u O IXPXPXUXUXUXUXUXUXUXUXUXUXPXPXUXA W UXPXUXUXPXUXUXUX  GXPXUXHXUXUXUXUXUXUXUXW     2 nXUXUXUXPXUXIXnX* o % . HXUXPXUXUXPXPXPXPXUXUX                . P E   nXUXUXUXUXUXUXUXHXUXW X E : . GXUXUXUXUXUXUXUXUXUX. 8 %.O.' 1X9X#X  UXUXPXPXUXUXPXUXUXUXUXPXPXUXUXPXUXPXUXUXUXPXPXUXUX;X  1 UXHXUXUXUXUXUXUXUXUXPX1 5  .o BXUXPXUXUXUXUXUXIXUXzX  GXUXPXUXUXUXUXUXUXUXUXUXUXUXUXUXP E UXPXUXUXUXPXPXUX    7XIXIXIXPXUXPXUXUXUXUXUXUXUXPXUXIXUXUXIXIXO   UXUXPXUXPXUXUXUXPXUXUXI 3 ..} O.8 7 s p p s p p p s s p p p p a a p p s p p - - * 4 ",
"b N b N b V b b V v V V V b N b b V b V V V V v V b V b v X zXUXUXUXUXUXUXUXUXUXUXUXUXUXUXHXUXUXUXUXUXUXUXUXUXUXW U UXUXUXUXUXUXUXUXPXHXPXUXUXUXPXPXHXPXPXUX7X  P UXPXUXUXUXUXUXUXPXIXY 1 1 2 UXUXUXUXUXUXUXUXUXGX  P . $XUXUXIXUXUXUXPXUXJXUXo 6 ..' } ^ @.@ P HXPXUXUXUXUXUXUXPXHX+ X O P UXHXUXPXUXUXUXPXPXUXE HXUXPXPXUXUXUXUXUXUX$XX P   *XPXUXUXUXUXUXUXUXPXIX    UXUXPXPXUXUXUXUXUXUXUXUXmXo # @.4.1.o nXUXPXPXPXPXPXUXUXPXHXPXPXUXGX  UXUXUXUXUXUXUXUXPXUXUXUX-X. 4  .q.' ' 2.# I UXPXIXUXUXUXUXUXUXUXUXLX1 u I 3 * . zXUXUXUXUXUXUXUXUXUXUXUX& @ # 5 1.2.2.5 o JXPXUXUXUXUXUXPXPXUXPXPXUXUXUXUXUXUXUXGXI # q.} } } } r.5XvX. U IXPXUXUXUXIXPXUXPXPXUXUXUXIXZ.o # @.o Z.UXPXPXPXUXUXUXUXUXUXUXUX$Xo #  .) ..%.2.e o UXHXUXUXUXUXUXUXPXUX+X  1 O UXUXUXUXUXUXUXHXPXUXf.  nXUXUXUXUXUXUXUXPXPXUXnX    HXPXUXPXUXUXUXUXUXUXUXGX  nXUXPXUXUXUXUXUXPXPXPXUXUXUXUXUXUXUXPXUXZ.o & y UXHXPXUXUXUXUXUXUXUXUXUXUXHXUXUXGXVXUXUXUXUXPXUXPXUX  PXPXUXUXUXUXUXUXUXPXGXX X W UXUXUXPXHXPXPXPXUXUX{.. & PXIXPXUXUXUXPXPXPXPXPXnXnX;XzXqXGXnXaX9.    & nXUXPXUXUXPXUXUXPXUXnXX   1 ;XUXUXUXUXUXUXUXUXUXAXo ( q.} ' >X8XI 1 UXPXPXPXUXUXUXUXUXUXPXUXPXIXUXUXUXUXUXUXUXPXUXPXUXqX  Y UXPXUXUXUXUXUXUXUXUXHX& i I o GXPXPXUXUXUXUXUXUXUXzX: HXUXPXUXUXUXUXUXUXUXUXUXUXUXUXUX;XY UXPXUXUXUXUXUXUX  & o u 9.E ;XUXPXUXUXPXPXUXUXUXUXUXGX7.3.7.o & . nXUXUXUXPXUXUXUXIXUXUX0 6 } } _ ~ g s p p p s p s p p s a a a a p s p p p p d & 3 4 ",
"N N N N N b N N N V b V N V b N V V V V V V v b V V V b n X zXUXPXUXUXPXUXUXPXUXUXPXPXUXUXUXUXUXUXUXUXUXUXUXUXUXf.Y UXUXUXUXUXUXUXUXUXUXUXUXUXPXPXPXPXPXHXUXJX  P PXUXUXUXPXUXUXPXHXUXU 1 + 1 UXUXUXUXUXUXUXUXUXGX  S . ;XUXPXPXUXUXUXUXPXPXUXo r ..} } ^ G * A HXUXUXUXUXUXUXUXUXIX;XOX;XHXUXUXUXUXUXPXPXPXUXPXE PXPXPXUXUXUXUXUXUXUX*X      =XUXUXUXUXUXUXUXUXUXUXX   UXUXHXUXUXUXUXUXUXUXPXHXZ.o 2.2.$.( o MXPXUXUXUXUXUXUXUXUXUXUXPXPXPX: PXUXUXUXUXUXPXUXUXPXUXUXP 3 2._ { } O.2.# I UXPXIXUXUXUXUXUXUXUXUXHX- e 1.1. .o 7XUXUXUXUXUXUXUXUXPXPXIXy 4 1.$...' ' 2.@ 8.UXPXGXUXUXUXIXIXUXUXUXUXUXPXHXPXPXUX$X@ Q O.} } } { >X5X9XI o PXUXJXHXPXUXUXPXUXUXPXUXUXUXPXaX& o o -XUXPXUXUXUXUXUXUXPXPXUXIX> 3 ) 2._ } } q.i @ UXPXUXUXUXUXUXUXUXUXE + P   HXUXPXPXUXUXUXUXUXUX;X  zXUXUXPXUXUXUXUXUXUXUXPX  O UXUXUXPXUXUXUXUXUXUXUX;XX nXPXPXUXUXUXUXUXUXUXUXPXUXUXUXUXPXUXUXUXHXI   1 UXUXUXUXUXUXUXUXPXUXPXUXUXUXUXUXUXUXUXUXUXUXUXUXUXUX  UXUXUXUXUXUXUXUXUXUXqX    nXUXHXUXUXUXUXUXUXPXUXPX+ + PXUXUXUXUXUXUXUXUXPXUXIXUXPXIXUXPXUXPXIX*XX A nXUXPXUXUXUXUXUXUXUXPXGXBXGXPXUXUXUXUXUXPXUXHXUX7Xo ) } } ~ >XsXU : UXPXUXUXUXUXUXUXUXUXUXUXUXUXUXUXUXUXUXUXUXUXPXUXUXnX  P UXPXUXUXUXUXUXUXUXUXHX& i I o HXPXPXUXUXPXUXUXUXUXnX2 HXPXPXPXUXUXUXUXUXUXUXPXUXUXUXUXPXPXPXUXUXUXUXUXUXUX. u i 5 # o P IXHXUXUXPXPXUXUXUXPXUX$Xo # # 5 i o 8XUXPXJXUXPXIXJXPXIXUXo 8 } ! O.~ 7 a s s p s p p p p s d p s d s a a p s a - * % 4 ",
"N , 9 N b N N b N N b V V N V N b b V b b V V V V b V V b   cXUXUXUXUXUXUXHXUXUXUXPXUXUXUXUXUXUXUXUXUXUXUXUXUXUXf.P UXPXUXUXUXUXUXUXUXPXUXUXUXUXUXPXIXIXPXUXUX  L UXUXUXPXUXUXUXUXPXUXY : = 1 PXUXUXUXUXUXUXUXUXHX  u . =XUXUXHXUXUXUXPXPXIXUXo 8 ' } ' Q G @ P PXUXUXUXUXUXUXUXPXUXUXUXUXUXPXUXUXUXPXUXUXPXUXGXE PXPXUXUXUXUXUXPXPXUXPXnXnXqXPXUXUXUXUXUXUXUXUXUXUXP   UXPXUXUXUXUXUXUXUXUXPXPXu 0 2.$.' i @ BXUXPXUXUXIXUXUXIXUXUXPXPXPXUX1 PXUXUXPXUXPXUXPXUXHXPXHX& i 2.} } [ } ` 3 R UXUXPXUXUXUXUXUXUXUXIXPX0 6 2.$. .o -XUXUXUXUXUXUXUXUXUXIXIX0 6 2.' } } } $.i o nXUXPXUXUXUXUXUXUXUXUXUXPXUXHXPXUXHX@ 4 O.} } { } q.5X5X6X7X@ u PXPXHXUXPXIXUXPXUXPXUXUXUXUXUXHX+   nXUXUXUXUXUXUXUXPXPXUXUX=X@ 1.$.} } { } $.@ E UXPXUXUXUXUXUXUXUXUXP     X nXUXUXUXUXUXUXUXUXUXnXX f.UXHXUXUXUXUXUXUXUXUXUX: f.UXUXUXUXUXPXUXUXPXPXPXoX  nXUXUXPXUXUXUXUXUXUXUXUXUXUXUXUXUXPXUXPXUX8X  1 UXUXUXUXPXUXUXPXPXUXUXUXUXUXUXUXUXUXUXUXUXUXUXUXPXUX  UXPXUXUXUXUXUXUXUXUXW   2 HXUXUXUXUXUXUXPXUXPXPXUXf.: PXUXPXUXUXUXUXUXUXUXUXUXUXUXPXUXUXPXHXIXUXf = nXUXUXUXUXUXUXUXUXUXUXUXPXUXUXUXUXUXUXPXPXHXUXHX0 3 q.} } _ 1X9XU 1 UXUXPXPXUXUXUXPXUXPXUXUXPXUXUXUXUXUXUXUXUXUXPXUXUXGXX P UXPXUXUXUXUXUXUXUXUXHX$ i  .o GXUXPXUXUXUXUXUXUXUXnX1 HXUXUXUXUXUXUXUXUXUXUXUXUXPXUXUXPXPXUXUXUXUXUXUXPXUX. i 2.1.@.0 u IXUXPXPXUXUXPXPXPXPXUX9.@ 1.$.2.2.@ R UXPXPXUXHXUXPXJXUXnXo ~ ..} O.| 7 a a p s p p s p s p p p p p a a a p p - - $ % 4 ",
"b N b b b N N V N V V b N b N N b b b V b V b V V b b V n   zXUXUXUXUXUXPXUXUX+X;XUXPXUXUXUXUXUXUXUXUXUXUXUXUXUXW Y PXPXUXUXUXUXUXUXUXPXPXUXPXPXPXUXPXPXPXUX;X  P UXUXUXUXUXUXUXHXUXUXW + O P IXUXUXUXUXUXUXUXUXIX  2 o nXUXUXUXUXUXUXPXPXPXPXo 6 2.} %.r 9 @ P PXUXUXUXUXUXUXUXUXUXUXUXUXUXPXIXUXUXUXPXUXPXUX+XW UXUXUXUXUXUXUXUXPXPXUXUXUXUXUXUXUXUXUXUXUXUXUXPXUX[.  UXUXUXUXUXUXUXUXUXUXPXPXP * 1.$.2.( o HXUXUXIXIXPXIXIXUXUXPXPXPXUXUX1 PXUXUXUXUXUXUXPXPXPXUXGX> i 2.} } } } $.4 I UXPXPXUXUXUXUXUXIXUXUXKX0 6 q.' $.o 7XUXPXUXUXUXUXUXUXIXUXIX* 8 2.} [ } } q.2.# & UXUXUXUXUXUXUXUXUXUXUXUXUXPXPXUXP @ _ } [ } } _  X5X5X9XvX}.@ > nXIXPXUXPXUXUXPXPXPXPXPXPXUXUXHX  $XUXUXUXUXUXUXUXIXPXHXUXOX@ 4.} } } } ' 2.@ -XUXPXUXUXUXUXUXUXUXUXVX;X;XzXPXUXPXUXUXUXUXUXUXUXHX+ A UXUXUXUXUXUXUXPXUXUXUXPXPXUXHXUXUXUXUXUXUXPXPXUXP   ;XUXUXUXUXUXUXUXUXUXUXUXUXUXPXUXUXPXPXUXIX;X  1 UXUXPXPXPXUXUXUXHXUXUXUXUXUXUXUXUXUXUXUXUXUXUXUXUXUX  UXPXUXUXUXUXUXUXUXUXP   1 PXUXPXPXUXUXUXPXUXPXPXPX;X+ PXPXPXUXUXUXUXPXUXUXHXUXIXPXUXUXPXHXPXHXUXP 1 nXUXUXUXUXUXUXUXUXPXUXUXUXIXUXUXUXUXUXPXUXUXUXP # @.} } } ' :X8XU 1 PXPXPXPXUXUXUXUXPXUXUXUXUXUXPXUXUXUXUXUXUXUXUXUXUXGX  P UXPXUXUXUXUXUXUXUXUXHX: u I . GXUXPXUXUXUXUXUXUXUXnXL HXUXUXUXUXUXUXUXUXUXUXUXUXUXUXUXUXUXUXUXUXUXUXUXUXUXo r 2.' ` i u UXUXPXPXPXUXUXUXPXPXPX9.# 2.$.} $.6 % PXIXPXPXUXIXIXPXIXU @ ` } } _ h 7 a a p p p s s p p p d p p p p s p p p - - # 4 9 ",
"N b b b V b b b N b N N N N b N V b V b V b V b v N b V b X nXUXUXUXUXUXUXUXUXP P UXHXUXUXUXUXUXUXUXUXUXUXUXUXUXf.Y PXPXUXUXUXUXUXHXPXUXUXUXUXUXUXUXUXUXUXGX+ . P UXPXUXUXUXUXUXUXUXUXnX    nXPXUXUXUXUXUXUXUXUXUXP X & PXUXPXPXUXUXUXUXIXJXUX@ Q } _ } t 0 % P PXUXUXUXUXUXUXUXPXUXUXUXPXUXUXUXUXUXPXPXPXUXUX+ +XUXUXUXUXUXUXUXUXPXUXPXUXUXPXUXUXUXUXUXUXUXUXUXPXUX;X  PXUXUXPXUXUXUXUXUXUXIXPX-Xo i 4.2. .o BXPXUXPXPXIXIXIXPXUXUXPXUXPXPXX PXUXUXUXUXUXPXUXUXUXPXUXU o G t..._ ` p.* U UXIXPXUXUXUXUXUXUXUXIXHX0 6 2.' ` @ ;XUXUXUXUXUXUXUXUXUXUXIX7 8 %.} { } } / a.1.o 9.UXUXPXUXUXUXUXUXIXUXUXHXUXUX=Xo  ...} } } } q.5X4X6X4X4X6X1.@ o $XUXUXUXPXUXUXPXUXUXUXPXUXPXUXP +XPXUXUXUXUXPXUXUXPXPXUXcXo i 2.' } .._  .@ BXPXPXUXUXUXUXUXUXUXUXUXUXUXUXUXUXUXUXUXUXUXUXPXPXUX1 1 UXUXUXPXUXUXUXUXUXPXUXUXUXPXUXUXUXPXUXPXPXUXUXUXX   nXUXUXPXUXUXUXUXUXPXHXUXUXUXPXUXPXPXUXHXUXOX  1 UXPXUXPXPXUXUXUXPXY IXUXUXUXUXUXUXUXUXUXUXUXPXUXPXUX  UXPXUXUXUXUXUXUXUXUXY     HXUXUXPXHXUXUXUXUXUXPXUXnX: HXUXUXPXUXUXUXUXUXUXHXUXUXUXHXPXPXPXHXPXUX1 1 nXUXUXUXUXUXUXUXPXUXUXPXUXPXPXUXUXUXUXUXPXUXOXo t q.%.} ' ..9X9XE + UXPXPXUXUXUXUXUXPXUXPXUXPXUXUXUXUXUXUXUXUXUXUXIXUXGX  Y UXPXUXUXUXUXUXUXUXUXPX= u I . HXUXUXUXUXUXUXUXUXUXnX2 HXUXPXUXUXUXUXHXUXHXUXPXPXPXUXUXUXUXUXUXUXUXUXPXPXUXo ( $.$.' 5 u UXPXUXPXUXUXUXUXPXPXUX+X@ $.O.} } 2.@ Z.PXPXUXIXPXIXUXnXo ( } } } ' h 7 g a s p s p p p p s s p p p p p p p p - # % 4 q ",
"b b v N b V v V b b N b N b N b N b N V V N b b N N N V v X nXPXUXUXUXUXUXPXUXY 1 UXUXUXPXUXUXUXUXUXUXUXUXUXUXUXf.P UXPXUXUXUXUXUXPXUXUXGXf : P P P Y W & . O 2 : UXPXUXPXUXUXUXUXPXPXUXPXHXUXPXUXUXUXUXUXUXUXUXPXUXBXPXUXPXUXPXUXUXUXUXPXPXUXo ( } } %.t 0 + : PXUXUXUXUXUXUXUXPXUXUXUXUXPXUXUXPXUXPXPXUXUXE   ;XUXUXUXUXUXUXUXUXUXPXUXUXUXUXHXUXUXUXUXUXUXUXUXHXUXzX  GXUXUXPXUXUXUXUXUXUXPXUXUXR o @ i 3.* Z.UXHXPXHXPXPXPXPXHXJXPXUXUX;X  HXUXUXUXUXUXUXUXUXPXUXUXUXu o # i 4.9XaX1 U IXPXUXIXUXUXUXUXUXUXUXJX0 6 q.' ` o ;XUXUXUXUXUXUXUXUXPXUXUXu 6 ' } { } a. X5X Xu o GXUXUXUXUXUXUXIXIXUXIXUXUXHXo 6 2.} } } } ' >X4X4X4X4X4X5X2.2.q o   GXIXUXUXUXUXUXPXPXPXHXPXPX;XoXUXPXUXPXUXUXIXUXPXPXUXUXu o i 2.$.2.5Xp.o GXIXPXUXUXUXUXUXUXUXUXPXUXUXUXPXUXUXUXUXUXUXUXUXPXUX2   nXPXUXUXPXPXUXUXUXUXPXUXUXUXUXUXUXUXUXUXUXUXIX;X    cXUXPXUXUXUXUXUXUXPXPXUXUXUXUXUXUXIXUXUX$X. o 1 UXPXUXUXUXUXUXUXUX  GXUXPXUXUXUXUXUXUXUXUXUXPXUXUXUX  UXIXUXUXUXUXUXUXUXUX;X  X   nXUXUXUXUXUXUXUXUXUXUXnX2 HXPXUXUXUXUXUXUXPXHXUXUXUXUXPXUXUXUXIXUXHX  1 nXUXUXUXUXUXUXUXUXUXUXUXUXUXPXUXUXUXUXUXUXUX. u 6.$.} } _ 2.fX7XU 1 IXPXPXUXUXUXUXUXPXUXPXPXUXUXUXUXUXUXUXUXUXUXUXPXUXnX  P UXHXUXUXUXUXUXUXUXUXUX1 . o . UXUXUXUXPXUXUXUXPXUXnX1 HXPXPXUXUXUXUXUXUX  nXUXUXUXUXUXUXUXUXUXUXUXUXPXPXIXo r .._ ` 5 u LXPXUXUXUXUXIXIXUXPXUXZ.# 2._ } O.2.i X W PXUXUXUXPX;X. 3 6.' } ' ..8 g a a p p p p p p p s a p p p p p p p - $ $ 4 4 w ",
"b b V b V v V b b b b b b b b b b V N N N b V b b V N N b X ;XUXUXUXUXUXUXUXUXU X GXUXUXPXUXUXUXUXUXUXUXUXUXUXPXW 2 UXPXUXUXUXUXUXUXUXUX;X  1 1 : = : = 1 P Z.y + UXUXUXUXPXUXUXUXUXHXPXUXUXUXIXUXUXUXUXUXUXUXUXPXPXUXPXPXPXPXUXUXUXUXUXHXIXAXo Q ' } } t 9 ,   HXUXUXUXUXUXUXUXUXUXUXPXUXUXUXUXUXUXUXPXUX@X. o ;XUXUXUXUXUXUXUXUXUXUXUXUXUXUXUXUXUXUXUXUXUXUXUXPXUXnX  ;XUXPXPXUXUXUXUXUXUXUXUXUXUXmXI . . o + +XPXUXUXUXPXIXUXUXPXUXPXGXo . nXUXPXUXUXUXUXUXUXUXUXPXUXPXnXS . o u =X2 E UXUXUXUXUXUXUXUXUXUXUXHX* 6 ' ' ` o 8XUXUXUXUXUXUXUXUXUXUXUXP 3 2.} }  X>X>X>X9X1.* u GXUXUXUXPXUXUXUXUXUXPXUXS @ 2.} } } } _ a.9X4X4X4X4XvX5X2X6.1.I 1   HXPXUXUXUXUXPXPXPXPXPXPXGXP UXPXPXUXUXUXUXUXUXUXPXUXIXW o @ # :XNXZ.o HXUXHXUXUXUXUXUXUXUXUXUXUXUXUXUXUXPXUXUXPXUXUXUXPXPXP   E UXHXUXUXUXUXUXUXUXPXIXUXUXUXPXUXUXUXUXPXUXPXE & . nXUXPXUXUXUXUXUXPXPXUX*Xu 2 E U E T W & . $ u 1 IXUXUXUXUXHXUXUXPXO +XUXUXUXUXUXUXUXUXUXUXUXPXPXPXUX  PXIXUXUXUXUXUXUXUXUXIX  : 1     +XUXUXUXUXUXUXUXUXnXL PXPXPXPXUXUXUXUXPXUXIXPXnXVXJXHXGXHXJX-XX . 2 nXUXUXUXUXUXUXUXUXUXUXUXPXPXUXUXPXUXUXUXUXUX{.. i 2.} } _ a.9X7XP 1 PXPXPXUXUXUXPXUXUXPXPXUXUXUXUXUXUXUXUXUXUXUXUXPXUX;XX 1 UXPXUXUXUXUXUXUXUXUXUXPXP A PXUXUXUXUXIXUXUXUXPXPXaX+ HXUXUXUXUXUXUXUXUX+ +XUXUXUXPXUXUXUXUXIXUXUXUXPXPXUXo Q q.} ` 5 u UXUXUXUXUXUXUXUXUXUXUX+X@ ` } } _ ..1.1               o 0.4.} } _ _ 7 g a a p p s s s p p p s p p p p p p p - - * 4 q q ",
"b b b b b b b b b b b N b N b b v v N N N V b b N V N b D X *XUXUXUXPXUXUXPXUXf.  ;XUXUXPXPXUXUXUXUXUXUXUXUXUXPXW 1 UXPXUXUXUXUXUXUXPXUXaX  .   . .   . o o 1 S + PXUXPXUXUXUXUXUXUXUXPXUXUXIXPXUXUXUXUXUXUXUXUXHXUXUXUXPXHXPXPXUXUXUXPXUXUX7Xo ~ ' } %.G B > . GXUXUXUXUXUXUXUXUXUXUXUXUXUXUXUXUXIXUXUXT X : O cXUXUXUXUXUXUXUXUXUXUXUXUXUXUXUXUXUXUXUXUXUXUXUXUXUXGX  f.UXPXPXUXUXUXUXUXUXPXUXPXUXUXIXUX=X2     : +X;XnXBXnXSXBXnXnXU . O . ;XUXUXUXUXUXUXUXUXUXPXPXPXPXUXUXHX-XX   O P PXPXPXUXUXUXUXUXUXUXUXHX@ ( q.' ) @ mXUXUXUXUXUXUXUXUXIXUXIXP 3 2.} } a.4X>X4X4X3XI @ 9.UXUXUXUXUXUXUXUXPXUXIXo i 2.} } { } q.5X5X4X4X6X6X9X8X0.% # o   2 UXPXPXPXUXUXUXUXPXUXPXUXJX  HXPXUXPXPXUXUXUXUXUXPXHXIXUXUXOXu o : P + PXUXPXUXUXUXUXUXUXUXUXUXUXUXPXUXUXUXUXUXUXUXUXPXPXUXE + + PXPXPXUXUXUXUXPXPXUXUXUXUXPXUXUXUXUXPXPXUXnX. I . ;XUXPXPXPXUXUXHXUXUXUXU   1 & O O + $ & R 8.9 : IXUXIXUXUXPXUXUXPXO A UXUXUXUXUXUXUXUXUXUXUXPXUXUXUX  ;XUXUXUXUXUXUXUXUXPXUXzX    +   *XUXPXPXUXUXUXUXUXnX: HXUXPXUXUXUXUXPXUXIXUX      O O o O o o 2 S & nXUXUXUXUXUXUXUXUXUXUXUXUXUXPXUXUXUXUXUXPXHXUXI @  .} _ q.5X9XcXE + IXPXUXUXPXUXUXUXUXUXUXW   2 ;XUXUXUXUXUXUXUXUXPXUX;X  + UXPXUXUXUXUXUXUXUXUXHXUXIXIXUXPXPXUXUXPXUXUXUXUXUX*X+ PXUXPXUXPXUXUXUXUX+ P UXUXUXUXUXUXUXUXPXUXUXPXPXPXIXo ( ' ' ~ 7 P UXPXPXUXUXUXUXUXUXPXUX=X# ` _ } ~ ( *   P nXHXUXUXGXOX. @ 2._ } ..~ g g p p p s p p p p p s p p p p s p p - - * % 4 q w ",
"b b b b b b b b b b v b v , v b v , v v b b V V V N b b Z X *XUXUXUXUXUXPXUXUXW   W UXPXUXPXUXUXUXUXUXUXUXUXPXPXY + UXUXUXUXUXUXPXPXIXPXPXzX-X;X;X;X;X-X-X@X> . X nXUXPXUXUXUXUXUXUXUXPXUXUXUXUXUXUXUXUXUXUXUXUXPXPXUXUXPXUXPXPXIXUXUXPXUXUX&X@ ..} } %.t B n . nXUXUXIXUXUXUXUXUXUXUXUXUXUXUXUXUXGXOX@ o i I O ;XUXUXUXUXUXUXUXUXUXPXUXPXUXUXUXUXUXUXUXUXUXUXUXPXIXHX  : UXPXIXUXUXUXUXUXPXUXUXGXPXUXPXPXUXUXW + & % @ @ @ * * # @ @ # i 3.0 P UXUXUXUXUXUXUXUXUXPXPXUXPXUXPXUXUXUXE   1 PXPXPXUXUXUXUXUXUXUXUXSX@ r ..O.` @ nXUXUXUXUXUXUXUXUXUXUXUXI 3 $.} _  X4X>X2X>X9X}.* I UXPXUXUXUXUXUXPXPXUXHX@ i } } } } } 5X5X6X4X4X6XvX7.. o I {.7XGXUXPXHXPXPXIXIXUXUXIXUXJXIXUX  nXUXUXPXUXUXPXUXUXUXPXJXHXPXUXUXUXHXP   1 UXPXPXUXUXUXUXUXUXUXUXUXUXUXUXUXPXUXUXUXUXUXUXPXPXPXW + X +XUXPXUXUXUXUXUXUXUXPXUXUXUXUXUXUXPXPXUXUXI o 8.o +XUXPXPXUXUXUXPXPXPXUXW   + O + + + $ & > i I . UXPXPXIXUXPXUXUXUXf + PXUXUXUXUXUXUXUXUXUXUXUXUXUXHX  ).UXUXUXUXUXUXUXUXUXVXUXHX+XW +XUXHXUXUXPXUXUXUXPX;X  GXUXUXUXUXIXUXUXIXUXUX  1 2 1 1 y > > u P I . nXUXUXUXUXUXUXUXUXUXUXP *XUXUXUXUXUXUXHXPXPXUXHX7 3 ....>X9X9X8X+X  UXUXUXUXUXUXUXUXUXUXUX  1 X E UXUXUXPXUXUXPXPXPXUX;X  X PXPXUXUXUXUXUXPXUXUXHXUXUXIXUXPXPXUXUXUXUXUXUXUXUXf.X GXUXUXUXUXUXUXPXPXA   UXPXUXPXUXUXUXUXUXUXUXPXPXPXIXo r O.' ..# E UXPXUXUXUXUXIXUXUXPXUX-X@ ` _ }  .3 . ;XUXUXPXUXUXUXUXSX4 3 .._ ..h - p p p f p s p p s p p s p p p a p - - $ $ # 4 4 % ",
"b 9 b b b b b b v v < < : < : < ; ; , b N V N N b V b b n X +XUXPXPXUXUXUXUXUXW o A UXIXHXPXUXUXPXPXPXPXUXUXUXHXP 1 UXUXHXPXUXUXUXUXUXIXUXUXUXUXPXUXUXUXIXUXBX+   zXUXHXJXJXPXUXUXUXUXUXUXPXUXPXPXUXPXUXUXIXPXIXUXUXUXUXUXUXUXUXUXUXPXHXHXUX7.# _ } } $.t B b X zXUXPXPXUXUXIXUXPXPXPXGXnXMX-X$XU u # 4 ( 2.i o 7XIXPXUXUXUXUXUXUXUXPXIXPXPXPXPXPXPXPXPXPXUXUXUXHXUXnX    nXUXHXUXPXPXUXUXUXUXUXUXUXUXUXUXUXUXGXP @ 1.@.) ~ Q r Q  ._ ~ ..$.i @ BXUXUXPXPXUXUXUXUXUXUXUXUXUXUXUXUXUXGX+ 1 PXPXHXPXPXUXUXUXPXUXPXGXo ) 2.} ` @ nXUXUXPXPXUXUXUXUXPXPXUXI 3 q.} } u.4X3X2X2X2X2X% R UXPXPXUXUXUXUXUXUXUXGXo i ' } } } a.5X9X6X4X9X9X2X  P nXJXIXUXPXUXUXUXUXUXUXPXUXUXPXPXPXIXAX  $XUXPXPXPXUXPXUXUXUXUXUXUXUXUXUXUXPXHX1 + UXUXUXUXPXUXUXUXUXPXPXPXPXUXUXPXUXUXUXPXUXUXPXUXUXPX+X& @ y UXUXPXHXPXUXPXPXUXUXUXUXUXUXUXIXHXHXHXPXu 4 4.o OXUXPXPXUXUXUXUXIXUXUXnXW W +XW Z.W f.W P . &   UXPXUXPXIXUXPXUXHXn   GXPXPXPXUXUXUXUXIXUXUXUXHXUXGX  + UXUXUXUXUXUXPXUXUXIXUXIXPXUXUXUXUXPXPXPXPXPXUXUX+X  PXPXPXHXPXLXIXIXIXUXUX: + + : O + : + X . 1 + ;XUXUXUXUXUXUXUXPXJXUXO + PXUXHXPXUXUXPXUXUXIXPX-X@ 2.2.9X3X8X7XOX  UXIXIXJXUXPXUXUXUXUXPX  I o W UXPXUXUXUXUXUXPXPXUX;X    nXPXPXPXUXUXUXPXUXPXUXUXUXUXUXUXUXUXUXUXPXHXPXPXUXP X GXIXHXPXPXUXUXPXIXU   PXUXPXUXUXPXPXUXUXUXUXUXUXPXUXo i } ..` # 7.UXUXUXUXUXIXUXIXPXUXUX-X@  .O.~ ..@ I UXUXUXUXUXUXUXUXUXnX@ ( ..~ 4 - - - p = p d p p p p p p p p p p p - = $ @ $ * 3 4 ",
"b b b v v 2 v < , < : : 1 = & + & % ; , N N V V N b D D n X W UXUXPXUXUXUXPXIX).X . GXIXHXPXUXUXPXPXPXPXPXPXUXnXf X HXPXUXUXUXUXUXUXUXUXUXIXPXPXPXUXPXUXPXPXUX+X  Y UXHXPXPXUXUXUXUXUXUXUXUXPXUXPXPXUXUXUXPXIXPXUXUXUXUXUXUXUXUXUXIXPXPXPXIXo ( ' } } $.t B b X =XUXIXIXPXUXUXUXUXPXUX& o o o # @ 6 ) q.} ' ) @ 7XIXIXPXUXUXUXPXUXUXPXIXPXUXPXUXUXUXUXPXUXUXPXUXHXUXGX  O u UXJXIXUXPXPXPXPXUXUXIXUXUXUXUXUXPXUXcXo 2.} ' } ' } O.} { } } O.2.# I UXPXPXPXPXUXUXUXUXUXUXUXUXUXUXUXPXUX+X+ PXPXPXPXPXUXUXUXUXUXUXBXo ` ' ' ' @ MXUXPXPXUXUXUXUXUXPXUXUXP # 2._ } u.>X3X9X2X2X7Xu E PXUXPXUXUXUXUXUXUXPXHX@ i } } } e.5X5X5X3X6X6XvXo I UXIXIXPXUXUXUXPXUXPXUXUXUXUXUXPXPXJXIX$XX o UXUXHXPXUXUXUXUXUXUXUXUXUXUXUXPXPXPXHX  UXUXUXPXUXIXIXUXUXUXPXPXUXUXUXUXUXUXPXUXPXUXUXPXUXPXE $ P   aXUXUXPXPXUXUXUXPXUXUXUXUXUXUXIXHXHXUX-X@ ) ..o W PXPXUXPXPXPXUXIXPXPXUXUXUXUXUXUXUXUXUXUXnX    GXUXHXUXUXUXPXUXUXP   $XIXUXUXUXUXUXPXUXPXPXUXPXUXnX    GXUXPXPXUXUXUXUXUXUXUXUXUXUXUXUXUXPXPXPXPXPXUXUXP   nXPXHXPXUXIXPXPXUXPXUXPXPXHXPXPXHXJXUXHX;X    *XUXUXPXUXUXPXUXPXUXUXX X +XUXHXUXUXUXIXUXUXUXUXIXo 5 1.p.dX9X8X=X  PXPXIXPXUXPXPXUXUXPXPX  I @ W IXIXIXUXUXUXUXPXHXUXf.. . +XUXPXUXPXPXUXUXUXUXUXUXUXUXUXUXUXUXUXUXUXPXHXUXUX:   HXPXUXPXPXUXUXPXUXP   ;XPXPXPXPXUXUXUXUXUXUXUXPXUXHXo ( } } ` * U UXHXUXPXPXUXUXUXUXUXIX=X@ ) _ O.i o HXPXUXUXUXUXUXPXUXPXUXu 3  .( # @ - + + - = = = p p p p p p d p p = = = = o $ $ - $ ",
"b b v b < : : : : & 1 - - d - 1 & , , v N N N V N b N b b ; A UXUXUXUXIXPXUXUXW &   Z.UXHXPXUXPXPXIXUXUXUXUXIXnXX   GXUXUXIXIXUXUXUXUXUXUXUXUXPXUXPXUXUXPXUXUX;XO   UXUXPXIXPXUXUXPXUXPXUXUXUXUXUXUXUXUXUXPXUXUXUXUXUXUXPXPXUXUXIXPXPXPXUXnX@ @._ } ' ' B B Z O ).UXPXIXPXUXUXPXPXPXUXu 4 ( 2.' q.' } } } } ) @ %XUXLXIXUXUXPXPXUXUXUXUX2 O P PXPXPXPXUXIXUXUXPXHXUX;X. I . aXIXUXUXPXPXPXUXUXUXUXUXUXPXUXUXPXPXBXo ( O.' } } } } } } } { } ..6 o JXUXPXPXUXHXUXUXUXUXUXUXUXUXUXPXUXUXqXX PXPXPXUXUXUXUXUXHXPXUX8Xo  .} } ) o nXIXLXUXUXIXIXIXIXUXPXUXI # 2.} } 2.1.1.5.#X2X8X> W UXHXUXIXUXPXPXPXPXUXPX@ ( ..} }  X5X3XxX6X6X6X$X. HXUXPXUXUXPXPXUXUXUXPXPXUXUXUXUXPXJXUXPX1 1   ;XUXPXPXPXUXUXUXPXUXUXUXUXUXUXPXPXHXPXP PXPXPXPXUXUXUXUXUXPXUXUXPXUXPXPXUXPXIXUXUXIXPXUXPXUXU * 1.* $ UXPXPXPXUXUXUXPXUXUXUXUXUXPXPXHXPXUXu 5 ..2.# I UXUXPXUXUXUXIXUXPXPXUXUXUXUXUXUXUXPXPXUXUX1   HXUXPXPXUXPXUXUXUXA   2 UXUXPXPXUXUXUXPXUXUXPXUXUX;X. O U IXUXPXHXUXPXUXUXUXUXUXUXUXUXUXUXPXUXPXPXPXUXUXO   nXPXPXPXUXUXUXUXPXUXUXUXUXUXUXIXPXUXPXPXPX;XX +XPXPXUXUXUXUXUXPXPXUXA   + UXPXPXPXUXUXUXUXPXUXIX7X@ 2.) L.}.8.W O nXUXHXPXUXUXUXUXIXUXPXo I o W IXPXPXUXUXUXUXPXPXUXI @ y * UXUXPXPXPXUXPXPXUXUXUXUXUXUXUXUXUXUXUXUXPXPXUXnX    nXUXPXUXUXUXUXIXUXP   Y UXPXPXUXUXUXUXUXUXUXUXPXPXHXo _ %._ ) # E UXUXPXPXUXUXUXUXPXPXUX&X@ 2.' ' 3 I UXPXUXUXUXUXUXUXPXPXUX@X# 2.2.r % & + & & + - = - d p p p p p p p p = = = = - - - - ",
"V b < < : : & : 1 - - d d d - 1 : , b v N b N N b V N b n < X PXUXUXIXIXIXUXUXf.& $ & IXUXPXPXUXUXUXUXPXIXUXIX+XO   ;XUXPXPXPXUXUXUXUXUXUXUXUXUXUXUXPXUXPXHXUX;XO   +XIXPXPXPXUXUXPXUXUXPXUXUXUXPXUXUXnXHXUXPXUXUXPXUXUXUXUXIXPXUXUXUXUXPXI # 2.} } } #.e B D : P UXPXPXPXUXUXUXPXPXUXI 3 2._ } } } } [ } _ 2.# E UXPXPXUXPXUXUXUXUXUX;XX 1 o nXUXUXPXUXUXPXUXUXPXUX@Xo 0.3 o IXUXUXUXPXPXUXUXUXUXUXUXUXPXUXUXUXGXo ( ' { O.} } ' } { } } ' `  .# - UXUXPXPXUXJXUXUXUXUXUXPXUXPXHXPXUXzXX GXPXPXUXUXIXPXUXUXUXUX@X# $.} } ( o nXIXPXUXPXUXUXIXIXPXJXIXI 3 2.} } $.1.1.5.@.R 8.> E UXHXPXPXUXUXUXIXUXUXBX@ i } } } >X5X4XvX6X6X6X}.o UXUXUXPXIXPXUXUXUXPXPXUXUXUXPXPXUXPXIX#X@ 1.> @ IXUXUXUXPXUXUXPXPXPXUXUXIXUXPXPXPXPXn GXPXHXUXUXUXUXPXUXUXUXHX1 & +XUXIXPXUXUXUXUXPXPXUXUXP 4 6.i @ 8XPXUXPXPXUXUXUXUXUXUXUXUXUXUXUXUX$X@ 1._ q.5 * UXPXPXUXUXUXUXUXPXPXUXPXUXPXUXUXUXPXIXPXUXE   zXUXUXUXUXUXPXPXUX1 &   UXUXUXPXPXUXUXUXUXUXUXPXUX9.o I o -XIXPXUXUXPXPXUXUXUXUXUXUXUXUXUXUXPXPXUXUXUX-X    +XPXUXPXUXUXUXUXPXPXPXUXUXUXIXIXPXPXUXHXPXPX= U PXPXPXPXUXPXUXUXPXUXP + . ;XUXUXUXUXPXUXPXPXUXPXJX@ i 2.( @.5.T O zXUXUXPXUXUXUXPXIXPXJX. I @ W UXUXHXUXUXUXUXPXPXIXP 4 I o BXUXPXUXUXUXUXUXUXUXUXUXUXUXUXUXUXUXUXPXPXPXUXP o . ;XUXHXPXPXPXUXHXUXP X X UXUXHXUXUXUXUXUXUXUXUXPXUX7X@ 2.} } ) 3 E UXPXUXUXUXUXUXUXPXUXIX-X@ ) _ O.# U UXPXPXUXUXUXUXUXPXPXUX7X# @.2.$.q 9 v v , < : : = - - p p p p p p p - = = - - - - a ",
"b , < + & - f d d d d g d d d + , v b b N N N V N V b N N 2 . PXUXPXPXHXHXIXUXP * 3.o -XUXUXUXJXLXUXPXJXPXUXUXP * : y UXUXPXPXPXUXUXUXPXPXPXPXUXUXUXUXPXPXJXUX+X* u . UXUXPXUXPXUXPXUXUXPXUXUXUXPXUX;X. . UXUXUXUXUXUXUXPXPXIXIXJXPXUXUXnX@ ( q.} } O.( B B V , X UXUXPXPXPXUXUXPXUXPXu 5 ..} } { { } { } %.2.0 P PXPXUXIXUXPXIXUXUXUXE @ 8.@ OXUXHXPXPXUXUXUXUXPXUXu # 2.2.@ P HXUXUXUXPXUXPXIXPXPXPXUXUXPXUXUXSXo ~ O.} _ } ..O...$.2.2.` ) i i o I IXUXPXPXPXUXUXIXUXUXUXUXUXHXPXUX;X  aXPXPXUXPXUXUXPXPXPXPXP 4 q.} } 2.@ 7XUXUXUXPXUXUXPXPXHXIXIX@ e ' } _ 2.1.1.1.1.3.E > 1 PXPXIXIXPXUXPXHXPXUX7X@ 2.} } %. X4X4X5X4X6XvX}.o PXUXUXPXUXUXUXIXIXUXUXUXPXPXPXPXPXPXnXo r 6.1.@ S LXIXPXUXUXUXPXUXUXUXIXIXIXPXPXUXUX2 VXPXHXUXUXUXPXPXUXUXPXI o & . UXPXPXPXUXUXUXPXIXPXIXu 4 q.2.3 o IXUXPXUXPXUXUXUXUXUXUXPXUXUXUXHXo 6 q.%.' @.@ UXUXUXUXUXUXIXUXUXUXIXPXUXPXUXUXIXPXPXIXUXE   +XUXPXPXUXHXUXPXUX1 1 . -XIXPXPXPXUXUXHXUXUXUXUXIXI @ 4.# @ UXUXUXHXUXPXUXUXUXUXUXUXUXUXUXUXUXUXPXUXUXo u + U UXHXUXUXUXUXPXUXUXPXUXUXPXIXUXUXPXPXUXPXPX1 1 UXIXUXHXPXUXUXPXUXUXP : $ * PXUXPXUXPXUXPXUXIXPXPXo i 2...6.5.].O +XUXUXUXIXUXUXIXUXHXLX. I o 9.UXUXPXPXPXUXUXPXUXPX* e 0.o P UXUXPXUXPXPXUXPXUXUXUXUXUXUXUXUXPXPXPXPXIXHX. u * 9.UXPXPXPXUXUXPXUXP 1   ;XUXIXIXPXUXUXUXPXPXUXPXPXA.@ q.} } _ # W UXHXPXPXUXUXUXPXUXUXJX-X@ $._ O.@ 3.UXPXPXPXUXUXUXPXPXPXUX7X@ @.} 2.^ 9 V b b v , , + + - d p p p p p p p p p f d - d p ",
", , : & d s d g g s s s s p - : : b N b v V b V N v v N 2 D O {.UXUXPXUXHXPXIX* 4 6.4 o PXPXUXJXIXIXPXUXPXUXJXo u i o BXUXPXPXPXUXUXUXUXUXUXPXPXUXPXUXUXHXUXPXu # 1.o 1 UXUXPXPXPXUXUXPXUXUXPXUXUXnXo > o & UXUXUXUXUXUXPXPXIXUXPXPXUXPX@ 3 2.} [ } $.( e V V b X ;XUXUXUXPXUXPXPXPXUXo Q ..} [ } } *.%.$.#.@.% . GXUXUXHXUXUXPXPXPXIXo 8 1.3 I PXUXPXPXPXUXUXPXUXHXo ( ' 2.( @ % UXUXUXPXPXPXPXUXUXPXUXUXPXPXUX7X@ ..} } } 6 6 6 6 r 6 4 4 4 4 1.u o I UXUXPXUXPXUXUXUXUXUXUXUXHXUXUXW . 2 UXHXPXUXUXPXUXHXPXVX4 8 } } } $.@ W UXUXPXPXUXUXUXUXIXUXIX@ ( q.{ } $.1.1.R 5.5.R u + GXUXPXUXUXUXUXPXHXUXI # ` } } } 5X4X4X4X6X4XvX=Xo BXUXHXUXUXUXUXUXPXUXUXPXPXUXPXUXUX$Xo 3 2.' q.( @ I IXUXHXUXUXUXUXUXUXUXIXIXHXPXHXUX+ +XUXPXUXUXUXUXUXPXUXHXu 7 I o AXUXPXPXPXUXPXIXIXIXHX% ^ $._ 2.@ I UXUXUXUXPXUXUXUXPXUXHXPXUXUX* @ ` %.{ } ) @ 8XUXPXUXUXUXUXUXUXUXIXUXUXUXUXUXUXPXPXUXPXA   P UXPXPXPXUXUXPXJXo U 7 @ IXPXPXUXHXUXUXUXUXPXUXJXo i 2.) # > UXUXPXUXPXUXUXUXUXUXUXUXUXUXPXPXIXIXIXu @ 1.q y IXIXUXUXPXUXPXPXPXUXUXUXUXUXUXUXPXPXPXPXUX1 + IXPXIXUXUXUXPXPXUXUXP * 1.o nXUXPXUXUXPXPXUXIXPXUX@ 8 } } #.5.]., n UXUXHXUXPXUXUXIXIXPXo I 3 P UXPXUXPXPXPXUXUXUXmXo 1.2.1.@ OXUXUXHXHXUXUXUXUXUXUXUXUXUXUXUXPXUXPXPXIX& @ 3.0 u UXPXPXUXPXUXIXIX1 y $ u UXPXUXIXUXUXUXUXPXPXPXUXu 4 } } } ~ 5 u UXHXIXUXUXPXUXUXUXHXLXZ.# ..} ' 3 I IXUXIXIXUXUXPXUXPXPXUX@X# 2.' } #.9 N v N N b , & + = p p a a p p p p p p p p p p p ",
": & - d s s s s s s.s s d - + : , N b b N b N b N N b N y Z ; & nXUXUXPXPXUX-X@ ( $.1.@ u UXPXPXIXIXUXPXUXUX0 4 ) 2.3 @ HXUXUXPXPXUXUXPXUXUXPXUXUXPXUXHXUXLXU @ ( 2.@.o u JXUXUXUXUXPXUXUXPXUXIXaXo 5 6.@.@ & HXUXUXPXUXUXUXUXUXIXUXBX> @ ) } } } } ' t C V V Z < . GXUXUXUXPXUXUXUX$X@ ` } } } &.>.6.6.@.C 9 y O < PXUXUXUXPXUXPXUX&Xo 2.2.@.@ =XUXUXPXIXIXPXIXUXu # ..' } ..( # o cXUXUXUXUXUXPXUXUXUXPXUXUXGXo 6 ..} } _ 6 4 4 > 0 * 0 y 0 u 0 3.i o > SXUXUXUXUXUXUXUXUXUXUXUXUXGXo u . nXUXUXPXUXPXUXUXUXI # ..} } } ..u . nXUXPXPXPXUXUXPXUXUXP # q.} } } 2.1.1.I 1.T I T X P UXPXUXUXUXUXPXUXGXo ( %.} ! %.>X4X4X6X6X4X6XvXo P UXUXUXPXUXUXUXUXUXUXUXUXUXPXGXP @ 6 2.' %.} $.8 @ P PXUXUXUXUXUXUXUXUXUXUXPXHXPXnX  O IXUXUXUXUXUXUXPXUXpX# i 6.@ A.UXUXPXUXPXUXUXHXUX=X@ ( } } q.i @ 8.UXPXUXUXPXPXUXUXPXPXUXIXu @ ..' } } } 2.# 1 UXUXPXIXUXUXPXIXUXUXIXUXUXPXUXUXUXUXIXLXo * o HXUXUXPXUXHXIX8Xo 1.1.@ 3.UXPXUXUXPXUXUXPXUXUX@X# $.%.' 2.# > GXIXIXUXUXUXUXUXUXUXPXUXUXPXUXIXIX8.# ( 6.1.o mXIXPXUXUXUXPXPXPXPXUXUXPXUXUXUXPXUXPXPXHXX   ;XIXHXUXUXUXUXUXUXIX@ 8 2.3 u GXUXPXUXUXUXUXUXHXPXo ( O.} $.@.].F   PXUXUXPXUXUXPXUXIX&Xo 1.u @ UXPXPXPXPXUXUXUXUXI # ) 2...6 o 7XUXUXPXUXUXUXUXUXUXUXUXUXUXUXPXUXIXUXI @ ) 6.i # JXUXPXPXPXUXPXUXo 1.I o 7XUXUXUXUXUXUXUXUXIXPXLX@ ( q.} _ ..u . UXPXUXPXUXUXPXUXUXPXIXu 6 ..} ' i @ PXUXIXUXUXUXUXPXUXUXUXI 3 ' _ } #.4 9 b N b b , , + + - - p a p p p p p p - p p p - ",
"& - d d s s s s s s s s p - & < , b b b v b V b N N b v N , C o & =XGXSXGX#Xo ( _ ' q.) @ 0 7XGXSXPXHXGX-X@ @ 2.' 2.2.3 @ I ;XnXGXBXHXHXPXHXPXJXHXGXGX8X8.* @ 2.} _ q.2.# # 7.nXBXPXUXUXHXHXaXu o 5 2.q.q.1.# @ 9.mXJXPXUXIXIXAXaXU @ 3 2.q.} } } $.#.w C V V b P : o 7.nXBXHXGXBXZ.@ i q.} } _ #.>.|.|.5.B ; 2 F % @ @XBXGXHXAXBX}.o 5 q.' q.4 @ 9.BXAXSXHXAX7XP # ` O.} } } 2.2.4 @ S 7XPXUXUXUXUXUXUXPXUXnX0 # 2.} } _ ..3 4 * & > > : : > * 0 i 6.1.% o I nXUXIXIXUXUXUXPXUXUX7X@ 4 0.5 o aXPXUXPXUXUXPX8.@ Q ..} { _ ` 1.o & 7XPXUXUXUXUXPXHXI o  .%.} } _ @.1.1.5.1.5.R 5.E . E HXUXPXUXUXUXnX@ 3 2.O.} } } >X4X4X4X4X4XvX9X2Xo W HXUXUXIXUXUXUXUXUXIXBX-XI o #  .q.} } [ } O.q.1.@ @ $XHXUXUXUXUXUXUXUXUXPXPXnX+ y o I UXUXUXUXUXUXUXUXu # 4.2.6 o HXIXUXUXUXUXUXIXGXo i _ } :.%.u.i o U BXPXUXPXPXPXPXUXPXAXu #  .' } } [ } 2.SXo P HXIXUXPXUXUXUXUXUXUXUXUXUXUXUXUXPXnX1 @ 3.% u UXUXPXUXUXIXy 3 2.2.r o -XIXUXPXUXUXUXIXUX7X@ 8 2.} _ u.2.# o W BXUXPXUXUXUXUXPXUXPXUXUXLXnXu @ i q.$.u.3 % HXIXPXUXPXPXPXPXUXPXUXUXUXUXUXUXUXPXUXP & u @ JXUXHXUXUXUXUXUX-Xo 1.2.2.@ P IXUXUXPXUXUXPXUX5.# 2.' } ' 1.1.I . y UXUXUXUXUXUXUXIX0 0 2.( o ;XUXPXUXUXUXUXUXaXo i q.} } ..i o 8.GXUXPXUXUXUXUXUXUXUXUXUXUXPXIXSXu #  .q.$.2.@ E IXUXUXUXUXUX$X# @.4.4 . SXUXUXUXUXUXUXUXIXPXP # 2.' } } ) S   E UXUXUXUXUXUXPXPXIX$X@ ) ' } %.2.@ 7.IXIXUXPXUXUXUXPXPXmXo 8 } } _ $.6 B v b v , b < < + & - p p p p p p p p p p p p p ",
"= d f s s s.s s s s s.s p = : , N b b b V b b b N N b b V b 9 F 0 @ u I u # 6 ' } } } ..~ 4 @ i I R I 0 @ 3 ~ ..} } ..O.6 3 @ * u j I R U I I U I i 7 $ # 6 ( %.} } } } ' 6 # # u U 9.8.8.u # 3 8 ' O._ } O.~ 6 @ 5 I 7.Z.8.R i # # 6 ..' } } { &.$.t w C V D b 9 I 0 @ # G P i 0 # 5 2.} } } ' @.|.|.|./.H v N B G 4 @ 0 I S G 0 @ 6  .O.} } ~ 6 # # P R I i # 3 ~ O.! } } } } 2.) 8 3 @ I @X8XBXPXIXHXaX8.4 # ~ O.} } _ ) 5 * > - : : : : : : 0 5 ) 1.2.6 # % P }.nXBXJXPXSX7XZ.# 4 ( 2.$.3 4 I ;XpX8X$Xu @ r _ } } O.} ` 1.i % # R =XcX8X8X8.I o 6 2.} } } } $.1.1.5.I 5.1.R 7.0 @ G =X8X7X7X0.3 3 _ ' } } } } 5X4X3X3X6X6X6X3XvX0 o P -XnXBXUXSXmXnX$X8.5 @ 3 6 _ O.} } [ } } { i.$.) e @ I #XHXUXUXUXUXUXUXIXmXu @ 1.q @ A.GXUXIXLXUXIX9.@ r ..' ` @ P MXIXUXUXUXUXSX0 # ( } w.} _ a.` i # u 7XPXPXUXUXIXJXaX4 # ( } } } } } ) ,XLXu o S 8XVXPXUXUXPXUXUXUXUXUXPXUXUXnXOX# @ ( 2.r @ 8.IXUXUXUX9.@ 6 %._ ` 4 @ #XUXIXUXUXIXIX-X# # ` } } } } } ) 8 @ 0 =XPXUXUXUXUXUXUXUXPXPX9.# @ r ' } } $.( @ S SXUXUXUXUXPXPXUXUXPXPXUXUXUXPXIXIXU @ e i @ I LXIXPXUXUXUXUX0 3 ' ' ' 6 @ =XUXUXPXIXUXUXBX@ 6 $.} } _ $.I u - . $XUXUXUXUXUXIX#X@ ( ' ` 3 > SXIXUXPXUXUXUXu # _ } } } } _ 6 @ i aXUXIXUXUXUXUXUXPXUXUXIXIX-X7 # r O.} } ` 3 @ AXUXUXIXPXPXu 3 2._ ` @ 3.BXUXUXUXPXPXIXPX7X@ r $.} } ' ) j =   zXUXUXUXUXUXIXUXnX@ 3 ' } { _ 2.3 o nXUXUXPXPXUXUXUXIXu @ $.} } } 2.q 9 b , b b b < < + + = p p p = p p p p p p - p p ",
"= d d s s s s s s s s s = : : b b N b b v V b b v V b b N N N e 1.@.6 3 6 ) ..} } } [ _ 2.2.( 4 3 3 4 8 @.q.%._ [ _ } } $.q.( ( e 5 3 3 3 3 3 3 3 4 i ( ` %.} } } } } ' ' 2.) ( 5 3 # # 3 5 ) ` _ } } } } } } ' 2.8 3 # # # 3 6 ( 2...' } } [ } $.@.B C V V D b 0 G 2.) ( 5 6 7 8 ..$.} { } } ` @./.|.|./.H V B 9 1.6.@.r 3 4 6 i $.2.} } } } ' 2.) i 6 3 3 8 ( ' _ } } [ } } Q ~ ......( 5 @ @ o @ o o @ @ 8 2.' _ [ } } 2.# > & : * : 1 & & 1 & * 5 2.$.2.` 8 4 # o @ @ o o @ @ i $.} %.$...8 3 @ @ @ @ 3 2.O.} } [ } ..Q i I 6.i 3 # @ @ @ # 3 ) .._ } [ } ..@.1.I I 1.I 5.5.1.6.@.4 # @ @ @ # 6 $.O.} } } } u.5X4X3X3X6X6X4X4X6Xp.@.3 @ @ o o o o o @ # i ( ..' O.} } [ } { / a.>X%.$.2.1.3 @ @ u I 7.9.8.I % @ 3 @.2.2.( @ o - P u u @ @ ( ' } ' } ) # o 0 u U P 4 @ 3  .q.} [ } ! 5Xp.` $.4 @ @ R 9.8.I @ @ 4 ..} :.} { } } q.JXKX9Xi 3 # o o u u U R E I U I S u o @ o 8 $.q.$.2.r # o u u o @ ( q.:.} ' 2.6 @ o u 5.I u o @ 4 2.' } } [ } q.$.2. .4 @ o @ I 3.9.9.7.I # @ @ i ..O.} } } } $. .# o i 8.-X8XnXGXHXHXSXBXmXmX=XZ.I o # i q.2.( @ o 8.aXcX8X#X@ #  .q.} %.' i o S 7XJXGXmXI @ 4 $.' } } ..) 5 u u u o u &X8XmX$Xu o ( ' } _ 2.@ o 8.vXSX8X9.* # ` O.} } } } _ ..1.3 o o U OX-X8XnX8X8X7X9.S @ @ 3 2.} [ } } O...3 @ 8.sX8X#X5 # ` ' } $.( @ o 7.mXHXSXcXZ.0 @ 6 q.} } { ..j A P : o u OXmXaXnX-XI @ 5 ` %.} } O.) i # o OXPXUXUXIXUXnX* @ 2.} } } } #.9 N v b 2 , , v v : & = = f p p p p p p p p p p p ",
"- d s s s s s s s s s d - : < N b N b N N b b b v V b V N 9 v B @.q.} %...} } } [ } } } ^ ' %.%.} q.O.' } } } [ } } } / %.' } ..} } ..%.q.' O.O....._ } } } } } { } } ' $.$.2.' ..' ..q...} O.' } } [ [ ! } _ ' _ O.q...2...} q.} } } } [ } } ' $.t B V H M V > 0 5 ..' O...' } O.} } } } } ~ _ @.T ).|.|./.H H B G $.%.} q.} O._ } } } } [ } } _ 2.%.' ' 2...} } } [ } } } ~ 3 3 ~ ..O.O.' ..` ` ( ( ) ) ' q.} } } } [ %.r 4 : & & & 1 & > & 1 & > % 4 ` ' _ O.q.$.) ( ( ) ) _ O.} } O.} { _ ......_ _ _ q._ } } [ } ' ` r i i ( 2.2...~ ' _ ..q.} } } } } } ) G I I R T I 5.1.1.@.$.2.' ` ` ` ..O.O.} [ } } '  X5X4X4X6X6X6X4X4X4X>X$.q.$._ ) _ ( _ ) ..q...O.} } } [ [ } :._ q.5X5X5X$._ } q.2.) 6 # @ 3 # 3 6 ( q.} } } O...` 6 3 6 6 Q ..q.} } [ O.} 2.( 6 3 # 3 6 ) q.} } } } } ' 9X5X2.' 2.2.6 3 # # 3 ( ) q.} } [ } :.} ` 5X8XNXfX$.$...) i 6 3 3 3 3 3 # 3 3 6 ( ( ..q.} } } } O.' Q 3 6 r ` } } } } } _ 2.2.Q 3 3 # 6 Q ) q.O.} } [ } $.a.$.#...2...Q i 3 # @ # @ 3 Q ^ ' q.} } [ } } } } 2.2.) 3 # @ @ o @ @ o @ @ @ @ @ # 3 Q ..w.} } q...6 # @ o @ @ 4 2.} } } { %.u. .# # @ @ @ # 6 2.O.} } } ..8 u 7 7 3.i 3 # @ o @ 3 ` O.} } } ..q.6 # # @ @ # 3 2.} } } } ! ~ ! ' ..2.` i # # @ @ @ o @ @ # 3 6 ` q.} } +.} [ ' ..2.i # @ @ # 3 ` %.} { } ' 2.( @ @ @ @ @ # 6 ( %.} } :.'  .u L f 3.1.3 # @ @ @ # 3 ( O.O.[ w.} _ ~ g 3.i @ @ u P I @ @ 3 2.q.} } } ' ( 9 v b b , b v b v , + = d p p p p p p p p - p p p ",
"= a s s s s s.s s s s s 1 + < N N b b b b N v V V v V v N N N 9 r ' } } } } { { } } } ( 6 $.' } } _ } } } } } [ { } } Q / } } } } } } } } } { _ } } } } } } [ { } %.%.^ 6 $.$.$.} } } _ { } } [ [ } } } } X.~ _ _ } } { / } } } } } { [ [ } ' $.^ B B D b V b : 7 7  ...} _ [ } } ! } } } } O.| j I K /./.H /.C C 9 @.#.' } _ } } } } { { } ' ^ r $.%.} } } { { } } O.} } _ ~ | | ~ ~ [ ! O.} } } } O.} ' } } { } [ } } ` 3 0 & : : & & & & & * & % > 4 4 ' ..} ' } ' ' _ ..} } [ } } ! { O.} } } } _ } O._ } } } } } 2.( u u q i 2._ ' %.} { } { } [ } } } ..) 1.1.I U T 1.G G 5.>X2.' } ' } } } } [ } } } } u.5X5X4X4X6X6X6X4X4X>X4Xq.' } } } } } } _ } _ } } [ } [ } w.} _ a.5X5X>X4X>X%._ %._ q.q.2.2.2.q.2...} } } } } } } q.} ' ' O.} } } } } } } q.' $.} q.O.....} } } } [ } _ a.5X5X9X_ ' } ..2.2.q.} O.} { } } } } / O.5X9X9X:X5X..O.} } O.} 2.q.2.2.q.q.q.} O.} q.} } } } } } } } $.q.} ' } } } } [ } i.q.' $.2.q...q.} } ' } } } } } 2.@.@.6.$.} ' } O.q.2.q.q...q.q.' } } } } } } } ' ' ^ 2.$.2.2...1.) ( ( ) ( (  .) ` ' O.O.} } } } } q.%.' ..( ) ..2.} } [ } } } 2.$.2.) ) ( ( +...} { } { } ..4 7 7 7  ...2..._ ( $.q.' } } } } O.O.....) ( ` 2.' } } { [ [ O.! Q ~ %.} ' $.....` ) 1.) ) ..2.q.' _ } } } ~ [ } ..~ ~ 2.2.(  .....} } } } } ..` 2.2.) ( ( ( 2.O.' } } } } _  .A f f I 1.2.2.) ) ( 2.O.} } [ } ~ _ | 8 7 j ..2.8 5 # 3 6 ( 2.} } [ } } $.w 9 v b N , 2 b v , & & = d p p p p p p p p p p p p ",
"= s s.s s s s s s j s f + : , N b b b N b b b b b V b V N b N N 9 ( $.} } } } %.' %.#.w q 4 #.$.} _ } } } { } } *.{ ^ Q 6 ^ *.%.{ { } } } } } } [ } { } } } } _ %.$.@.9 w 9 #.>.} { } } } } } } [ [ [ ..| ~ ~ | | ~ [ } } [ [ } [ ~ } } ..' ) e B B C V b n 2 > - j h | ~ ~ } [ ! } [ [ } _ | j j j A H C /.C V V V w #.$.' } _ } } } } } $.#.e w @.$.*.} } { } } { } ' ..O.k.S.S.k.X.O.~ _ } } [ } [ } } } [ } } } O.) 6 # & & : & : & & & & > : : : & 0 # i 2.$.' ' } } } { } [ } } { } _ _ ~ ..} } } { } } } } } $.( q q u u 5 ) ..} } } } } } } { } } $.)  .I I G G G 5.@X2X:X>X>X_ } } *.} { } } } } } $.5X4X4X3XxX6X6X6XxX2X4X5X>X_ } } } } } } } } } } [ } } } } { q.5X9XxX4X4X9X5X9Xi._ ' } _ %.} _ } } } } [ } } } [ } } } } } } } } [ } } O.[ >Xa.q.} } / } } [ } } { O./ ' vX5X9X5X5Xq._ } } ' } } } } } } [ } _ } 5X9X9X9XvXBX9Xq._ _ } } } } } } _ } } } } } } } } } } { } } w.} } } } } } [ } } } q.2.$.$.%.} } } } } } } [ } %.@.6.5.5.#.$.2.q.} } _ } } _ } } } } } [ { } } } $.#.( @.$.%.%.} ' } } } O.} } } %.' :.{ } [ } [ } } } _ %.$.} } } } } } } } } &.$.@.$._ } } O.} ~ } } } } [ X.~ 7 - - g h ) q.~ } } } } [ } O.[ _ | ~ .._ O.} O.} } } } } } } _ Q Q 3 ~ ' O._ _ O.} %.O.' } } O.} { } [ } } } _ | h 8 8 | .._ } } O.~ } [ } O.~ ~ ....O.} } O.X._ } { } } _  .j f L L f 1...' ' } } } } ! [ O.[ O.~ | - g 7 | _ O.%.q.O.q.} } } } } } _ $.9 9 N v N v b , b , & & - p d p p p p p p p p p p = ",
"p p s s s s s s s s s s = : , b b b b v b b b b b b V V N N b N B 9 t $.%.$.$.&.6.( 9 w B 9 9 #.$.2.$.} %.%.} ' _ Q ^ w w Q Q / ' { %.} } { } } } } } } } &.' ) ( q 9 C N B 9 ^ $.$.$.%.' } } } O.} | ~ ~ | | ~ ~ ~ X.~ ~ O.~ [ X.} } .._ ~ q 9 B D V N D b < - d g g g | | | ~ O.~ | O.| | h s.s.f 2 n V C V V V C B B @.$.2.%.} } } %.$.^ w C B w @.$.$.%.&.$.%.%.$.....t.F.H.l.H.G.D.z.X.~ ~ ~ [ +.[ } } } } } %.) 5 # * & & & : & : & : & & & > : : & * 3 6 ( ..} ' } } } } } } } O.q.~ 6 6 Q 2.` } ' } } } ' ) ( 5 u y y u i 5 ( $.' } } } :.} } ' ' #.@.G G I 5.}.=X2X2X X:X>X X>X$.' } { } } } _ _ r.>X5X4X2X6X6X6X6X6X6X4X2X5X5X>X' / } } } } } } } } } } _ %.r. X9X5X4X9X4X4X6X5X5X5X Xq.} } { } } } } } } } } } / O.a.} _ { } } } } w.} } !  X9X5X$.} %.} } } w.} { } _ O.5X5X4XvXxX9X5Xq./ } O.} } } } } _ ' _ q.1X5X9X9X,X3X:X3X>X2.~ _ ' } } } } O.} } [ } } } } } } } _ $.a. Xq.$.} } } } } } $.2.2.6.#.&.$.} } } } } } { } %.$.@.@.5.K 5.@.@.$.$.} %.' } } } } _ } } } } } q.$.#.G K C @.$.$.%.} } } } { } } } } } } } [ } } } _ $.' ' $.q._ } } } } :.[ { } $.@.#.) $.q.} } } } [ } [ } } ~ ~ g g 7 a 7 8 ..' ..} } } } } [ [ | ~ 8 ~ ..' } [ O.[ O.[ [ } X.6 ~ 8 6 6 6 ~ O._ } } _ } } } } [ } } } } } ~ | ..8 7 g 8 h .._ } } [ } } } } ~ h h ~ .._ } } ! } [ } } _ _ 2.I 1 f L f f f  ...%.} } } } } [ } ! ..| 8 g - 7 h ..' } } } [ } } } } } } ` w 9 N b b b 9 b v v < ; * = a p - p p p p p p p - p p ",
"= s s s s s s.s s s p d - + , b b b b V b b N b N b V V b V V b N B 9 w w @.t w 9 9 B N C B N 9 9 t ^ @.#.Q 6 6 w w w ^ w w ^ 6 w Q Q ^ / ( / #._ / ) ^ ^ Q w 4 3 9 N b V V B 9 9 t t ^ ) ) ( ~ ~ 8 h ~ | h h h | h ~ ~ X.~ ~ | ~ ..~ ~ 8 5 9 D V V N N n 2 : y d d s s.j h | | | | | | h h s s f f 2 2 N D V V H V V C B w w t @.^ G t B C C D C D C C @.@.#.6.#.6.#.1.4.S.H.K.z.m.z.z.K.G.k.o.| ~ ~ _ ..O..._ ) ( 3 % > & 1 & + & & & & = : : : & 1 & * * % % 3 5 e ) ` ' ' O.$.2.) ) 5 4 4 0 4 4 ( ) ` $.$.( ( 8 0 0 S Z 0 y u u 5 i @...` ' ' _ ( ( ( @.1.}.2X:X2X2X X X X=X:X3X>X X>Xp.u.$.' q.q.u. X5X X3X2XxX4X4X3X4X6X6X6X6X4X4X5X4X Xi.q.%._ ' &.} %.q.i.>X>X5X9X4X4X4XvX5X9X5XvX4X5X5X5Xa.u.} ! } { } } } } _ %.u.5XvX5Xa.q./ %.{ } / _ 2.>X4X4X5XvXa.q._ _ } _ } _ } t.5X9X9X5X9X9XvX9X9X X..~ _ _ _ } _ ~ 2.L.5X9X7X9X8XBXSXSXSXSXSX9XL.2._ _ / _ _ _ ' _ ' } _ / } %.2. X>X X Xu.6.2.' _ $.$.2.6.6.6.5.6.6.$.$.} ' } _ ' q.$.$.1.5.5.).@./.5.5.@.#.#.$.$.} %.} } } ' } &.$.#.@.^ C K C K @.@.#.#.%.} } { } } } } } } } } } ' } &.$.$.#.@.@.#.%.' } } } } O.%.$.#.@.@.2.( ` } } } ~ } [ } _ ..~ | h g 7 g - 7 8 | .._ } } } O.....| 8 g 7 8 ..O.} [ } } } } _ Q ~ 8 8 6 8 7 h 8 .._ .._ [ [ } } [ } } } _ ....~ g g a g g g | ` ~ } } O.} ..~ 8 7 g g ~ ..O.} } } } _ } O. .j f L L L L f f j i ..O.} } } } ..~ .. .8 g a a a 7 8 | _ _ } } } { } } %.#.w 9 N b v V , b N , < < + 1 = p d p p - p p p = p p p p ",
"p s s s s s s s s s s p = : , b v N b b b b b N b b v b b v b V N N N B N 9 N B N N , B N N V N B B 9 9 4 4 w 6 w w w ^ w w w w ^ w Q w ^ w 6 q 4 6 4 6 4 w 4 4 % , 9 b b V V V B B B 9 4 3 6 8 8 h ~ h h | h h h | h | | ~ | ~ | ~  .h 0 0 > N V C V N N b 1 u f s s s.s g g g j g g g j s s.j s g 1 < 2 D V V V H V C V B C B 9 B C B B B N D V D V C C C C J H 5.K G j 3.S.l.z.z.m.z.m.z.K.z.G.X.X.~ 8 6 6 4 3 3 % > & & = & : & & & & & : + O : * & > * : > % * 4 3 4 4 6 6 6 4 q % 4 > 1 1 0 0 4 4 4 6 e 4 4 4 u u 2 y y y u u u 0 q i t @.) @.1.6.6.6.8.8.6.0.}.}.}.2X2X X X}.:X:X:X2X>X>X>X X>X5X>X X>X2X2X2X2X2X4X2X3X6X4X4X2X4X4X4X4X4X>X>X>X X>X4X>X5X4X4X5X4X9XxX4X4X4XvXxX4X4X4X9X4X5X5X5X5X5Xa.a.u.q.i.a. X4X5X4X5X5X5X5X5Xa. Xa.>X>X9X9X5X4X4X4XvX5X>X>Xa.t.t.>X5X9X9X3X5X2X2X3X2X:X9X5XdX9X>XP.t.L.>XNXSXJXJXJXSXLXLXIXJXIXIXIXLXJXDXSXfX9X1X>XS.p.p.t.$.t.a.p.>X X X>X}.].5.}.6.6.6.u.$.6.6.5.5.T |.5.6.6.6.$.$.$.>.$.#.6.@.5.5.5.K K K K 5.K 5.@.@.@.$.#.' $.` $.#._ @.@.K K K K K K C G @.t @.) #.' ' $.} $.' %.$.$.` ` $.#.@.@.@.@.@.@.@.$.$.$.` $.$.@.@.K 5.K I 5 Q _ | } O.~ X.X.~ | ~ h h | 7 g 7 7 g 8 ~ ~ | | ~ ~ ~ 8 7 g g g 7 8 ~ ~ } } ~ [ ~ Q Q 8 8 8 7 - - 7 g g 8 8 | | ~ _ ~ | _ ~ | ~ h 8 g g s s a s a g 8 ..| ~ ~  .~ h g g s g 7 8 ~ | ~ ..~ ..) i 7 f f L L L L L f 2 u 8  . ._ .._ | ~ 8 g g - a p p g g 8 ~ ..~ O._ O._ _ ( 9 9 B N b b b b b b , < + + = = - p p p p p a p p p p - p ",
"= a s s s s s s s s.s s d : < n N N b N b b b b N N N b N b b b b N N V N N N V V b N b b V b V V N 9 , 9 0 9 w q w w w w w w w w w w w q q 9 9 9 0 0 % 9 % 9 9 , , b b b D D B B B y 0 4 7 7 8 h h | h h | h | h h | h | h | h | h h j 0 > b D N D B V V , 2 1 g s s s.s s s.s.s s s s s s s.s g d f > n Z D N N V V V V V C B V C V V V V V H V V V V V C H V C /.C C i I 4.S.l.l.z.z.v.z.z.R.H.z.X.| ~ 7 * 7 0 * & & & 1 & & & & & & & & : & : & : & & > : & > * > % % > % % % > * > > > : > > > 4 > 0 * 0 % > * 0 > > y y y u I I I 1.5.5.1.5.6.3.6.5.8.8.5.6.8.8.0.}. X2X=X2X:X X X:X X2X X X>X2X2X2X2X3X2X6X2X3X2X4X6X6X6X2X6X2X6X4X6X4X4X4X4X4X4X4X4X4X4X4X4XxX9X9X9X9X4X4X4XvX4XxX9X6X4XxX9X4X4XxX5X5X4X4X4X4X4X4XxX5X4X9X9X9X5XvXvX4X9X9XvX9X9XvX5X2X2X:X:X:X:X:X:X:X2X8X8X9XmXNXBXSXSXJXJXSXJXJXDXDXSXDXJXJXKXJXLXKXLXLXLXLXKXLXLXLXLXKXJXKXJXJXJXDXJXDXJXNX9X0.8.0.2X2X:X].}.}.].].8.}.].6.5.6.5.5.].6.|.].].5.5.5.6.5.5.5.@.5.5.K 5.K ).K K K ).@.K K G @.@.K @.@.G @.G @.K C K K K K C J J K C @.G @.@.@.@.@.@.@.#.@.@.@.K @.K @.@./.@.K @.K @.@.G @.@.@.@.K @.5.K K G e i h  .| O.X.| | ~ | h h h | h h 7 7 - g g g h g h g g g g s a 7 7 4 6 Q ~ Q ~ Q ~ 8 Q Q 8 8 8 * 7 g a g g g g g g 8 g 8 g 8 g g g g a a s s a s g a g g 7 g g g g g g a a s s s g g 7 7 8 7 - - - f f L L L L L L L f f = 7 7 8 7 7 g s p p p p s p a s 7 7 8 h 8  .8 8 q 9 9 N b N b v b v b , , + + + - a p p p p p p p p p p = p p ",
"= p s g s s s s s s s s p = : < , b b v b v b N b , b N b b v V b N b b N b N b N V b V V b N b V N b b , , q w w w w w w w w w w w 9 9 9 9 % , , , , , , , , v , b b N N N V N , , , 0 7 7 h h h h h h h h h h | h h h h h h h h h h 5 y , b V N V V V V 2 < 1 f j s s s s.s s s.s s.s s.s s.s f d 1 1 N V V V D V V V V V V V V V V H H V V V V V H V V V V V H V V C u u j | j.j.l.z.z.m.z.m.z.m.H.l.j.| 8 7 u P A y 2 2 1 > : : : : : : & & & & & & & & & & & & : & * > & > * > > 1 & > > : > y 1 u u u S u P I P I I I I I I R R 5.5.R 5.5.5.5.5.5.5.5.5.5.6.8.].6.6.5.6.}.}. X2X=X X:X X2X2X:X X2X2X>X3X X2X2X2X4X2X.X6X6X6X6X4X6X3X3X4X2X4X6X6X6X6X4X4X4XvX4X4X4X4XxXvX4X4X4X4X6X9X9X4X4X5XvX6X4XvX9XvXvXvXvXvXvXvXBXvXvXvX6X2X2X:X:X#X X}.@X:X@X:X2X8X8XMXNXSXJXJXJXLXLXPXLXLXLXIXLXLXLXKXKXLXKXKXLXLXKXLXKXKXKXKXKXLXKXKXKXKXKXKXKXKXKXKXKXLXKXKXKXKXKXKXLXJXPXIXSXmX@XI R 5.].].[.}.].5.].].].].].].].K K 5.6.K 5.5.K 5.5.K ].@.)./.@.K 5.5./.K T @./.K K K K K K K J J J J K K J K C J J J J K J J J K C J K C K C K J G G K K K K C K K K K K K K K @.K K K T K K K J 9 5 g h | | | ~ | | h h | h | h h h g g 7 a d g s g g g g s s d a 7 4 7 8 Q Q Q 8 8 Q ~ Q 8 Q 8 5 7 - g d p s g a g g g g g g s s a s s s s s s s s s s s a a a g a s a a s s s p s s g a a g p - p = = f = f f f f L L L = = p d g a p s s p p s p p p p a a a g 7 - - - # $ : < , b b b b b v < : & & = - = p p p p p p p p p p p p p p ",
"= d g s s s s s s s s s d - : : , b b b V v b v v 9 N b b b b b b V V b N b b N b N N b b V b V N N b , , 9 9 w w w w w w w t w w 9 9 9 % , 9 9 N 9 N N N N b b N V V b N N 2 , > 0 0 7 7 h h h h h h | h | ~ h h | h h | h h | h h h 7 > b b Z V D V V V b < 1 f f j s s s s s s s s s s s s s g d : : n D V V V V V D V V V V V V V V V V V V H V V H H V V H H V H H B > 0 j  .| j.l.z.z.z.m.z.m.z.z.k.| j 7 7 S A A S S S S P u P S P S S S S S P A S S S S S P S S S P P S P P S P P P P P I P I P I P G G P S G P I G I I G I I I I 5.R 5.5.5.5.5.5.5.8.6.5.5.6.5.6.5.].}.}.6.}.}.=X X2X2X X2X X2X X2X X2X2X X.X2X2X3X2X X2X3X3X2X6X6X6X2X6X6X3X2X6XxX6X4X4XxX6X4XxX6X4X6X4XvXvXvXvXvXvXvXvXvXvX9X2X2X2X:X#X}.}.0.0.0.}.}.#X:X7XsXmXBXSXPXJXPXPXIXIXLXIXLXIXLXLXJXJXJXLXLXKXLXLXLXLXLXLXJXLXLXLXLXLXLXLXLXKXLXLXKXKXLXLXKXLXKXLXKXKXLXLXKXKXLXKXKXKXKXKXKXKXLXLXJXLXIXPXBXBX2X8.F G 5.].[.].].5.].5.].].5.].].K ].].].K ].].K 5.).@.5./.5.K K K @.K K K K K K K J K K K J K K H K J J J J J H J J J J J J J J J C K J K G @.K K K @.K K K K J K K K K K K K 5.@.K K K K T S u u h h | h | | h h | h h h h h | h h 7 - a g s s s g s s s s a 7 - 7 8 8 8 ~ Q ~ Q 8 8 Q ~ 8 8 7 - 7 a s s s s s s g s s s g s s s s s s a s s s s a s s p s s s a s s s s a p s p s a a g a d d p = = = = = = = f f = = p = = d g a a a s p p p p s a p a a a a a a - - $ + + : , , , , v , , : & + $ - = d p p p p p p p p p p = p p p ",
"= d d f s s s s.s s s s p - + + : b n b v v b V b b b b b N , b b b b N b N V b V b b V b b b V N N N , , 9 w w w w w w w w w w 9 9 9 9 9 N N N N N N N V N V V V V V b b , > * u 7 g i h h h h | h h h h h h h h h h ~ h h h h h h 7 > > 9 D V V B V D D b 2 : d f s s.s s.s s.s s.s s.s.s.s f j 1 & 2 N V B V V V V M V V V B V V V V V V V V V V V V V V V V H V H V D y 0 0 7 i | | k.S.z.z.H.m.m.T.l.l.j. .7 u S A S S S A S P u S P u S A u S A S u S A u u S u S u S S u S S S i S S G u S S S i S S S P G G I S P G S G I G J G G I G I I 5.R 5.5.5.5.5.].8.].8.].}.5.5.].6.}.5.].}.}. X2X X=X X2X:X X2X2X2X2X2X2X X2X4X2X.X2X6X6X6X6X6X6X6X6XvX6XvXvXvXvX6XvXvXvXvX6X6X2X2X2X}. X}.}.6.0.8.0.#X:X7X9XvXBXBXSXJXPXPXIXIXJXJXUXIXLXPXJXJXLXLXKXJXLXJXJXKXLXKXJXJXJXKXLXKXLXLXLXLXLXKXLXLXKXKXKXKXLXLXKXLXKXKXKXKXLXKXKXLXKXLXKXLXKXLXKXLXLXKXKXLXLXLXKXLXJXDXKXLXJXIXmX7X8XvXBXBXvX8.J F K }.}.].].].].].K ].].].].K 5.].K K 5.5./.5.@.].5.K K ).K T K K K K T K J J K J K K C K K H J H J J J J C J C J J J K G K J K K J K G K K C K K K J K J J K K K K K K K K K K K F u i h h h ~ h h | | h h | | h h h h h g a - a s s g s g s s g a - 7 7 8 Q 8 8 8 ~ 8 Q 8 8 8 8 8 4 7 - d s s s s s s s s s s s s s p s s s s s s p s s s s s s a s s a p s p s s s s s s a a a p p d d p p f = = p = f f = = = = - a a a a p p s p s p p a p a p p p a a d p = + & + + : , O , & + + = = - d p p p - p p p = p p p p p = p ",
"= = d d d s s s s s s s d d = = + : < < v < v n v b b b b , , N N V b b b V b b b b b V V b V V N N b , , 9 9 w w w w w C w w 9 9 , 9 9 N V V V N b V b V b V V b V V v , , 0 u 7 u h h h h h | h h | h h h h | h h h h h h | h h j 0 0 > n Z V B V V V V V 2 , 1 d d j s s s s s s s s s s.s s g 1 : n V V V V V V V V V V V N V V V V V V H V V V V V H V V H V V V V H V B y 9 7 i h | j.S.l.z.z.T.m.m.l.C.| 7 1 u u S S S S u S u S S u S S P S S S S S S S S S S S S S S S S S S S S S S S S S G S S G S G P G G S I G P S J I J I J I J I I T 5.5.5.5.5.5.5.5.5.5.8.].5.5.}.].6.}.6.}.}.5.}.}. X2X2X2X2X X2X2X2X6X2X2X2X6X2X2X2X6X2X6X2X6X2X2X2X2X:X}.}.}.0.8.5.8.8.8.}.#X:X7X7XvXmXBXSXJXIXLXLXPXIXLXPXLXLXJXLXKXLXJXJXLXKXJXJXKXJXKXLXLXKXLXKXLXJXJXKXKXJXFXKXKXKXKXKXKXLXKXKXKXLXKXKXLXKXLXKXKXKXKXLXKXLXKXKXLXKXLXKXKXLXKXLXKXLXKXLXKXKXKXLXKXKXKXLXKXKXKXKXLXLXAXpXaXcX7X8X7XcXmXmX7X}.G S 5.5.].}.R ].].].].].].T ].].].K ].K K K K @.).5.T T K K T J /.K K K J K J J J J H J J J J J J J J J H J J C J J J J J J C J J K C K K K H K J J K K K K J K K K K K K K K u q 7 j | h h | h | h h | h h h | h h h g 7 - a s s s g s s s a - 7 7 8 8 Q ~ 8 Q 8 ~ 8 8 8 Q 8 8 6 7 - - g d s s s s s s s s s s s s s s s s a s p s s s p s s s s s s s s p s s p s s s p s s s d s p d p a p p p = p = p = = p = p s s p p p p s a p p p d p a p p p f p f = 1 = = + O $ + o + = 1 = = p p = p p p = p p p p p p p p p = ",
"+ - - d s s s s s s s j d s p - - : + & & : < < b , v b b N b b b b b N b V b V b V b b b b b b N N v 9 , 9 9 w w w w w w w w 9 9 9 , N N V V V b N b b b V b V V b N v , % 0 7 h h h h h h h h h h h h h | h h | h ~ h h h h h h 7 0 > y N b N V V V V V B N < 1 1 f j s s.s s.s.s s.s s s s f 1 1 < b V V V V V V N D D V V V V V V C V V V V V V V H V V V V V V V V V V V V Z y y u u h | S.l.l.H.v.H.R.C.| j 7 P S S S S S S S S A Z S S u S A S u S u S S S S u S S S S S u S S S G S S S S S P S S S P S P u P G I S G J G G P G I G I J I G G G G T R 5.5.5.].5.5.5.5.}.5.5.].8.].}.].}.}.].8.}.|.}.:X=X X=X}.}.}. X}.}.}.}.}.].].].5.5.0.].}.}.=X2X8X8XmXBXSXJXIXIXIXIXPXLXJXJXLXPXPXJXJXKXJXDXKXKXKXKXJXLXKXJXJXKXKXKXKXJXKXKXLXKXKXKXKXKXLXFXKXKXKXKXKXKXKXKXKXKXKXKXKXKXKXKXKXKXKXKXLXKXKXLXKXLXKXLXKXLXLXKXLXKXKXLXLXKXKXLXKXLXKXKXLXLXKXLXKXLXKXLXKXLXKXLXLX;XaXaX8X7X8XaXnX7X8X8XmXBXvX@XI F J 5.5.].].5.].5.].K ].K ].K K ].K 5.K K K @.K K 5.K K T K K J K J J J J J J J J J C H J J H J H J J J J K C J K J J C J J K J J J J J J J J J K J J K K /.5.K K K J u u 7 h h | | h ~ h h | h h | h h ~ h h g g a p s s s s s s s a - - 3 8 8 6 Q 8 Q 8 8 8 8 ~ 8 8 8 7 4 - - a s s p s s s d s s s s s s a p s s s s s s p s s s s p s p s s p p s s p p s p s p p s p p s p d a p p p p p = p p = p p p p p s s p s p a a a p p p p p p p p p p p p - - = = = = - = = p - p p p p p p p p p p p = = p = p p p ",
"+ + - d g s s s s s.s s s s d a - - - - & & : + , < < b b b N N b V b V b b b V b V V b b V b V N N v , , , 9 w 9 w w w w B 9 9 , , N N N V V v N b V V V b V V N N N , , % 0 g 8 h h h h h h h ~ h h h h h h | h h h | h h 8 h 7 0 > y N N V V V V V V N N V n 1 1 f d s s j s s s s s.f s s f : 2 V V V V V V V N V V M V V V V V V V V V V V V V V V V V V V V V H V V V V H V D B 0 5 u j | | S.S.F.F.L.C.i u 0 u u S A u y S S S u S u S Z S u S S S S A S S S S S G S S S S S S S S P S S S S P F S G S I G S G S F S G I P G I F I J G I I K T G I T R I T 5.5.R T 5.5.].5.5.R 5.5.T 5.I 5.T I K G T J I 5.5.5.5.5.5.].0.}.$X:X7XcXmXBXSXJXSXJXJXPXPXLXLXLXLXJXJXJXDXFXDXDXJXJXFXFXDXKXFXKXFXKXKXKXKXKXFXJXFXKXFXFXKXFXKXLXKXKXKXKXKXKXKXKXKXKXFXKXKXKXKXKXKXLXLXLXKXKXKXKXKXKXKXKXKXKXKXLXKXLXKXLXKXKXLXLXKXKXLXKXLXLXKXKXLXKXKXKXLXKXLXKXLXKXKXKXLXLXKXKXLXKXKXLX7XaXMXnX8X8X7XvX8X7X8XcX7X7XvXvXcX}.I J I K ].].].].].].].K 5.6.@./.].K ].@./.K ].K /.K K T J K J J K J J K J J H J J J J J J J J J J J H J J K H C K K J J H K J J J J K K J K J K K K K K K K T J I i u 7 h h h | ~ | h h | h | h h | h h h g 7 - a s s s s s s s s - 7 7 8 Q 6 8 Q 8 Q Q 8 8 Q Q 8 6 6 5 7 7 - s s a s s p s s s s s s a s s a s s s s s s p s p p s s s p p s s p p s s p s s s s s p s s s p s a s p f p p p p p p p p p p p p p p p a p d p d p - a p p p p p p p p = d p - p - p p = p p p p p p p p p p p p p p p p = = p ",
": + - f s s s s s s s s s s s s p d d - d f - = & : < , v b N N b b b b V b b b b b N b b V b b N N b v , 9 4 9 9 w w w w w w 9 9 , N V N N v V b V b b b V V b b N N N 2 > > u 7 h h h h h ~ | h h | h h ~ h h h h h h | h h 7 7 0 > N V N b V V V V V N V D b < < & - d g s j s f s j s p f f , v V V V V V V N V V V V V V V V V V V V V V V V V V V V V V V V V V V V H D D V D D Z y 0 u u I | 3.4.A.3.1.G u y P u S u S A u S S A S S u S S S S A S S A S u S S A u S S A S S S u S G u P S S S S S P S S S P P S S I P S P S G P F I S F F S S S S F B Z A D y S B S S S S S F G F S S F S G I R 5.5.[.{.{.$X2XvXBXHXHXHXPXPXPXSXJXSXJXSXSXSXSXSXSXSXSXSXDXSXDXSXDXFXFXSXDXDXFXFXFXJXFXFXKXFXKXDXFXKXFXFXFXFXFXKXKXFXKXFXKXLXLXKXKXJXKXKXKXKXKXKXKXKXKXKXKXKXKXKXKXKXLXKXKXKXKXKXLXKXKXLXKXLXKXKXLXKXKXLXKXKXLXKXLXKXKXLXLXKXLXKXLXKXLXKXLXKXLXKXLXKXLXKXKXKXJXKXJXaXaXpXaXpXmX8X8X8XmX8X7X7X8X8X7XcXBXcXvX=X5.K J 5.T T 5.K ].].K |.5.K ].K 5./.5.K K @.K J K K K J K K C K J J J J J J C J J H J J C J J J J H H K K H K J J K J K J J J J J J K K K J K J K J K K K J S 0 7 i h h h h h h h h h h | ~ h h h h g - g a s s s s g s s g - 7 6 8 8 8 ~ 8 8 ~ 8 Q 8 8 8 8 8 8 8 4 7 a g a d s a s d s p p s p s s s s s s s p p s s s s s s s s p s s p s s p s s p s p p p s p p p s s a p p p p d p p p p p p s p s p s s p p p a p p a a a a p p p p p = p p p d d p a p p p p p p p = p p p p p p = p p p p p p = ",
", ; & - - s s s s s s s s s s s s s s s s p s f 1 1 : : < b b v b b V b b b b b b b b b b b b V b b b b b % , 9 9 w w w w w 9 , , N N N N b v V v V b N b N N V V V V v N , 9 % 7 7 h h h h 8 h h h h h h h h h | h h h h h 8 7 > > y N N V V V V V V V N V b V b < > : - - - d f s g 1 1 1 & : b b V V V V V V V V V V V V V V V V V V V V V V V V V V V V V V V V V C V C V V D D D V B B y y B C 5.5.5.].@.C N > S S y A S A S Z A S Z S u A A A S A S S S A A A A A A A S A S S A S S S A S S S S S S S S S S S S Z u Z y y y y y y y y y 2 b 2 N y y 2 y y > > > 2 2 y y y S F T R W [.[.OX@X=X=X=X-XcX=X7X7X7X-X-X7X8XmXSXSXSXSXBXSXNXSXNXSXSXSXDXSXDXZXDXFXFXDXDXJXDXFXDXJXFXDXJXDXFXKXFXFXFXKXFXKXKXFXKXKXKXFXKXKXFXKXKXKXKXKXKXKXKXKXKXLXKXKXKXKXLXKXKXKXKXLXKXKXLXLXKXLXKXLXKXLXKXLXKXKXLXLXKXLXLXKXLXLXKXLXKXLXKXLXKXLXKXLXKXKXKXLXKXKXLXKXLXKXLXKXKXJXKXLXLXKX7XnXaXaXaXmXaXaX8XaX8X8X8X8X8XcX8XcX8XvX8XcX2X=X5.G I T 5.].5.].K 5.T K ].K K ].@./.@.5.K K 5.K K K K K J J J K J J J J J C K J J H H K J J K H K K K J J J K J J J K K J K J J K K J K J J T J J I K S q u 7 h h h h h | h h h h h | h h h h g - a a s s s s s s s p - 7 4 8 Q 8 8 Q 8 Q 8 8 Q 8 8 Q 6 8 6 7 7 - - - d s s a d s s s s s s a s a p s s p s s s p s p p p p s p p s p s p s s p s p s p s p s p s p p p s p p p p s p p p s s p p p p p p s p p p p s p p p p p p p p d p p p p p p p p p p p p p p p p p p p = p p p = p = p p = ",
", < : : - f d s s s s s s s s.s s s s.s s s f s d - = : < v b b b b v V b b v V V v b b v V b b b b b b b , , % 9 9 B w w w 9 9 , b N N b V V V V b N N N N V b V b V v b b 9 , > 4 u 8 h h h h h h h h h h | h h h | h h u 7 y 9 , b N V V b V V V V V V V V b D b 2 > 1 1 1 - f f - 1 1 1 : 2 V v V V V V V V N V V v V v V V V V V V V V V V V V V V V V V V V V V V V V V V V D D B D D V C C @./.5./.|./.K H N Z P S A A A S A A A y A Z A A A Z A A A A S S S A S S S A S S S P u y y y y 2 2 2 > > 1 > 1 > > > y 2 2 > 2 2 2 > > : & & % & & : : 2 y A P T R R 7.[.[.[.{.OXOX$X$X=X=X=X=X=X=X=X=X=X=X=X=X=X-X7X7X,X=X-X-X2X8XSXJXJXSXSXSXSXSXSXCXSXSXSXDXJXSXSXSXSXFXJXDXDXJXDXFXJXFXFXJXKXFXFXKXFXFXKXFXFXFXKXFXKXFXFXKXKXKXKXKXKXLXKXKXKXKXKXKXKXKXKXLXLXLXLXLXLXLXKXLXLXLXLXLXLXKXLXLXLXKXKXLXKXKXLXKXKXKXKXLXLXKXKXLXKXLXKXLXLXLXKXLXKXKXLXKXLXKXKXLXLXKXLXJXLXaXaXaXaXaXaX7XaX8X8X8XcX8X8X8X7X8X8X8X7X8X8X8XcXvXcX2X].G F T 5.].].5.K ].].K K ).5./.T K K /.K K K K K K K J J J H J J J J J J J K K J J H J C K H K J J J H J J K K K K K J K K K K K K K K K K K J G u u i g h | h h h | h | h h h | h h 7 g - 7 a s s s s s s a - - 7 6 8 8 ~ Q 8 Q 8 ~ 8 8 Q 8 Q Q 8 8 6 4 7 7 - - - p - a - a d s g a s s p s s s s s s s s s s s s s s s s s s s p p s s p s p s s p p s p s s s p s p s p p p p p p p p p p s p p p p p p p p p p p p p p p p p p p p p p p p p = p p = p p p p = = p p p p p p p p p p = ",
"v v , + + - - d s s s s s s s s s s s s s s s s.s d d = & : , b b v b v b b V v v V b b V b b b V b b b b , , 9 , 9 w w w 9 0 % , 9 N b V b b V V b N N V N N V V V V V N N b b , 0 0 7 u h h h h h | h h h h h h h h h 7 7 0 > 9 b b V V V b V b V V V V N V V V N V n 2 2 : : 1 : < < < v b D V V V V V V V V V N V V V V V V V V V V V V V V V V V V V V V V V C V V V V V V B B D D D V D H C /./.|.XXXXXX|./.D , A A y A A A S A A S A S A A A A Z y y y y y 2 2 > > : : : : : : > : : 1 : : > > 1 1 1 : : : & + O & + + & > 2 y A P Y E T W W 7.[.9.9.).[.[.[.7.W W 7.9.].W W 7.7.9.[.OXOX$X=X$X=X=X$X=X=X$X=X=X=X7X-X7X7X7X<X2X-XaXNXJXSXJXSXSXSXSXJXDXSXJXDXJXSXJXDXJXJXJXKXJXFXFXFXJXFXFXFXKXKXKXJXKXKXFXKXKXKXKXKXFXKXKXKXKXKXKXKXLXKXLXKXLXLXLXKXKXLXKXLXLXLXLXLXLXLXLXLXLXLXLXLXLXLXKXLXKXKXLXKXKXLXKXLXKXLXKXLXKXKXKXLXKXKXKXLXLXKXLXKXLXKXKXKXLXKXLXKXLXKXLXAXaXaXnXpXaXaX8X8XmXaX8XcX8XaX8X8X7X8X7X7X8XaX8X7X7X8XvXvX2X[.F S J 5.].T T ].].K K 5.K K K K K K K K K K K J K J J J J J J J K K C K C K C J K H K K H K J K K C K K J K K K K K K K K T K K J K I K T S u 7 8 h h h h | h h h h h h h h g g 7 a a d s s s s s s s p - 7 4 8 Q 8 8 Q 8 Q ~ 8 Q 8 Q 8 8 Q Q 8 8 7 4 7 - 3 - 7 - - - - a - a a s s s s s p s p s p s s p p s p s s s p s s p s p s s s s p p s p s s p p p p p p p s p p s p p s s p p s p p p p p p p p p p p p p p p p p p p p p p p p p p p p p p p = p p p p p p p p = = p = = ",
"v b v < < + & : f p s s s s s s s s s s.s s s s s d d - = & : b b V b V b b b V V b b b v V b b V b b b b N N , , 9 9 w w w , % , b N N N V V b V V N N N N N V V V v V V V V N N , > 0 0 7 i j h 8 h h h h h h h h 7 7 u > 9 , N N V b N V V V V V V V V V V V N V b V V b b b 2 2 n b N D b D V V V V M V V V V V V V V V V V V V V V V V V V V V V V V V V V V V V H V V H V V V V V V D C V C /.|.XXXXXXXXXX).H n 2 A y y 2 2 2 2 2 2 : 1 > 1 : > : > : : : : : > 1 2 1 1 > : > : : : : & + & + : & > 2 Z A S P T T W R 9.W W W [.W W W E E W E R R E E 7.W R W W 7.7.7.W 7.9.9.[.[.9.W 9.9.[.{.{.$X$X$X$X$X=X-X2X=X=X&X=X-X=X;X7X7X=X7X7XnXBXSXJXJXSXSXAXSXSXSXJXSXSXSXDXKXDXSXJXDXJXFXFXJXJXJXFXFXFXKXFXFXKXKXKXFXFXKXKXKXKXKXKXLXKXKXKXLXKXLXKXKXKXKXLXKXLXLXLXLXLXKXLXLXLXLXLXLXLXLXLXLXLXKXKXLXKXLXKXKXLXKXLXKXLXKXLXKXLXKXLXKXLXKXKXKXKXLXKXLXLXLXKXLXLXJXKXLXIXJXaXaXaXnXaX8XmXaX8XmX8XaXaXaX8X8X8X7XaX7X7X7X8X8X8X8X7X7X7XvXcXvX$XF B G T 5.).].K K T K T 5.K J J K J K K K K J J J J J K J H H J K K K /.J K K K H K K K K K K C K K K J K K K K K K K K K K K K K K J u u u 7 8 | h h h h h | h h h h 7 - - a g s s s s s s s s p - 7 7 6 8 8 ~ 8 Q 8 8 Q 8 Q 8 Q ~ 8 8 8 8 6 7 6 7 7 7 4 4 7 * 7 7 - - g a s p p s s s p s s p s s s p s p p s p p s s p s p p s p s p s s p p s p s s p p s p p p p s p p p p p p p p p s p p p p p p p p p p p p p p p p p = p p p a = p p p p p p p p p p = p p p p p p = ",
"v b b v , < : & & - - p s s s s s s s s s s s s s s s s - + < b v V V b b b V v v V v b b b b b b V b v b N v v , , 0 9 9 9 9 , , 9 b b V v V b b V N N N N N N V b b V b V V b b V , , * 0 7 u 7 h i h j h 8 h h u 7 > > > 2 N V V V V V V V V b b V V V V V V V V V V V V V V b b D V D V V b V V V V V V V b N N V V V V V V V V V V V V V V V V V V V V V V V V V V M V V V V V V V D C V H /./.|.|.XXXXXXXX|.H b , > 1 : : : 1 > : 1 < 1 > 1 2 1 1 1 1 1 : & & + & O + : : 1 1 1 n S P Y R E E E W W W W E W E E Y T Y E U E E E Y E E E E R E E E E W W E W E W 7.W 7.W W 9.W 7.7.9.9.9.9.[.9.{.+X@XOX@X$X$X$X=X=X=X&X=X=X7X-X-X&X7X7X7X-X7X7X7XMXSXJXSXSXSXSXSXSXFXSXDXSXSXJXJXDXSXJXJXDXFXFXKXFXFXJXFXJXFXKXKXFXKXKXKXKXKXKXKXFXKXKXKXKXKXKXKXLXKXLXKXLXLXKXLXLXKXLXLXLXKXLXLXKXLXLXLXKXLXKXLXKXLXKXKXLXLXKXLXKXLXKXLXKXKXKXLXKXKXLXKXLXKXLXKXKXKXLXKXLXLXKXKXLXJXLXAXaXaXaXmXnXaXaXaX8XaXaXaX7XaXaXaX8X8XaX8X7X7XaXnX7X7X7X7X7X7X7X7XcXcX=XR F G J T 5.5.T K K K K T K K K K K J J K J K H J J K J C K J J J J J J K J H K C /.K K K K K J K J K K K /.K K K K K K K K K T G 0 u 7 8 j j h h h h h h h g 7 - - p s s s s s s s s s p p a - 3 8 8 8 Q 8 8 Q 8 8 Q 8 Q 8 8 8 8 Q 8 8 6 8 8 6 6 8 8 7 4 4 3 - 7 - - d s p p p s s s p s s s p p s s p p s s p s s s p p s s p p s p s p s p p p p p p p p p s p s p s p p p p p p p p p p p p p p p p p p p p p p p p p p p p p p p p p - p p p = a p p p p p p p = = ",
"b v , b b , ; & : : = d s s s s s s s s s s s s s s s s d & : < b b v b b b b b V b V b b b b N V b V V N N N b v , % , 9 9 % % , b N b V V V V V b V b N V N N b V V V V b V V V b D 2 , , > 0 7 7 i j h j j 8 7 7 0 > , 9 N V V b b V v V V V V V V b V b V V V V V b b M M V V b N V V V V V V b V V V V V V V V V V V V V V V V V V V V V V V V V V V V V V V V V V V V V V V V V V V D V V V C /.|.XXXXXXXXXX/.H , < < 1 : : : : : : + & : O + & , 1 2 2 u P P P T E E W W E W W E E E E E E E E Y T R Y U T T E E E U E Y E T E U T U U Y E E E E E E E E 7.W E W R E 7.W 7.9.7.W W W 9.9.[.9.9.[.[.[.OXOX$X@X$X$X#X=X=X=X=X-X-X-X&X=X-X7X<X-X-X7X7XaXMXSXSXSXDXCXSXSXSXSXSXDXDXSXDXDXDXFXDXDXDXJXFXFXFXJXKXFXKXFXKXFXFXKXKXKXKXKXKXKXKXKXKXKXKXKXLXKXLXKXLXLXLXLXLXLXLXLXKXLXLXLXKXLXLXLXKXLXKXLXKXLXLXKXKXLXKXLXKXLXKXKXLXKXKXLXLXKXLXKXLXKXLXLXLXKXKXKXKXLXKXKXKXLXLXAXaXaXaXaXmXmXmXaXaX8XaX8XaX8XaXaXaX8X7XaXaX7X7X8X7X7X7X7X7X7X7XcX7X2XcXcX#X5.G S T T ).K K K ].K K K K K K K J J K J J J J J J K K C J J K K H J K K K K K G J J J K K K K H K K K K K K K 5./.K J K J S u 5 7 7 8 8 g h g h g 7 g 7 - a d d s s s s s s s s s s - - 7 6 6 Q Q 8 8 Q Q Q Q Q 8 Q 8 Q Q 8 8 Q 8 6 Q 8 8 6 8 6 8 8 8 4 3 - - p p p s s s p s p s p s s s p p s s p s p p s s s p p p s p p p p s p s p s s s p p s p p p p p p p p p p s p p p p p p p p p p p p p p = p p = p p p = p p = - p p p p p p p p p = p = p p = p = ",
"v v v b b b , , < < + : = p s s s s s s s.s s s s s s s - - , , b b b b b b b b b b b b V v b b b N b N N b b N v , , 9 , % % , , N b N V b b V V b N b V v V N V N V b b V b b b D V N N 2 > > 0 0 7 7 7 7 7 7 0 1 > 9 b b V V V V N V V V V V b V b V V V V V V V V V V V V V V V N N N B V V V V V V V v b V V V V N V V V V V V V V V V V V V V V V V V V V v V V V V V V V D V V V V V V D C /./.XXXXXXXXXXXX)./., , < < : : 1 2 Z A P P Y E E E E E W E W E W W T Y E T U E E T E Y R R R E Y T R E R Y E E Y E Y Y E E Y Y T U E E E E E T E R E E E E E R R W ].7.W 7.7.R W 7.[.9.7.7.9.W 9.[.9.9.9.{.{.[.9.OXOX@X$X$X=X$X$X=X=X=X-X-X,X-X7X7X-X7X7X-X-XaXsXAXSXJXSXSXCXSXDXSXDXSXDXDXSXJXJXFXDXDXJXDXFXFXKXJXKXFXKXFXFXFXKXFXKXFXFXKXFXKXKXKXKXKXKXKXKXKXLXKXKXKXLXKXKXLXLXKXKXLXLXKXKXKXLXKXKXLXKXKXLXKXKXKXLXLXKXKXLXKXLXLXKXLXKXLXKXKXLXLXKXLXKXLXKXFXKXKXLXKXJXLXAXMXMXpXmXaXmXmXaX8XnXaXnXaXaXaX8XaXaX8XnX8X7X8X8X7XpX7X7X8X7X7X-X7X2X2X-X7XcX2X$XT J S J T 5.K T K /.K K /.T J K J J H K K H J H J J K J C K J J J K C K J J K J J J J K K J K K K K K K K K K K K K T J F u u 5 7 u 7 7 7 7 7 - - a a d s s s s s g s s s s s s a - 7 4 8 Q 8 8 8 8 8 Q 8 Q 8 8 Q 8 8 Q Q 8 8 8 8 8 8 8 8 8 8 6 6 5 4 7 - - p p s p p s p s s p p s s s s s p s p s s p p s p s p s s p p s p p p s p p p p s p s p p p p p p s p p p p p p p p p p p p p p p p p p p p p p p p a p p p p p p p = p p p p = p p p p = p p = ",
", , b , b , b v b < < ; + f s s s s s s s s s s s.s s s d & : , b b v V b b v V b b b V v V b b N b N N V b b N b b , , , % % , , b b v V V b V b V b V N V v N b N b V b b b V V b b b N N b , > , > , > 0 0 > % > b V V V V b V b N b V V V V V V v V b V V N V V V N v V V V b V V N N N V V V V V b V V V N V V V V V V V V v V V V V V V V V V V b V V V V V V V V V V V V V C V V H V V V /.C K /./.XXXXXXXXXX/.H D Y E W W W W W W E E E Y E E E Y T Y E Y E T R U E T Y E T U E E U Y E Y U E U Y E R U E R E U R U E E U E R Y E E E E W E E E R R E R E E W R E E E E W E 7.E 7.W 7.7.W [.9.9.[.9.9.9.{.{.[.9.{.OX@X@X$X$X=X-X=X-X-X-X-X-X-X7X-X7X7X7X7X7X7X8XsXSXSXJXJXSXJXSXSXJXJXSXDXSXDXJXJXDXDXJXKXFXFXFXJXFXKXKXKXFXKXFXFXKXKXKXKXKXKXKXKXKXKXKXKXKXLXKXKXKXLXKXKXKXLXKXKXKXLXKXKXKXLXKXKXKXLXKXLXKXLXKXLXKXLXKXLXKXKXLXKXLXKXLXKXKXKXLXKXKXLXKXKXKXKXKXKXDXLXLXLXAXaXaXsXnX8X7XmXsXaXaX8XaX8XaXaXaX8XaX8X8X8XaXnX7X7X8X7X7X7X7X7X7X-X7X-X2X7X-XcX2X=X].T J I K T T K K K J K K K H J J J J J K J J J J J J J J J J K K J K J K J K K J J J K J K K K K K K K K J K K T T G u u u u 7 7 - - g - 7 a a s d s s s s s s s s s s s s - * 7 8 8 8 Q Q 8 8 8 8 ~ Q 8 8 Q 6 8 8 ~ Q Q 6 8 8 Q 6 8 Q 8 8 8 8 4 7 7 p p p s p s s p s s p s p s p p s p s p s s s p s p s p s p s p s s p p p s p s p p p p p s p p p p s p p p p p s p p p p p p p p p p p p p p p p p p p p p p p = p p p = p p p p p p p p p p = ",
"b v v , N , b v , b b , , + = d s s s s s s s.s s s s s.p - 1 < b b b b b b b b b b b b V v b b V b V b V b N b v b v , , , ; % , b b b b V b b V b b V b V b V V b N b V V V V v V V b b V b b b b , , , , , , Z b N N V V b b D V N V V V V V V N b V V N V N V V V V V V V V V V b V V D V V V V V V b V D V V V V V V V V V V V V V V V V V V V V V V V V V b V V V V V V V V V V V V V V V H V /./.|.XXXXXXXXXXXXK /.C T E E T E E E E E E E E E E Y T E E Y E E I E Y Y U E U E E E E Y E U T E Y U E Y U U R R Y U T U E U E T U Y R E E Y U E E U R E E E E E E E E E E 7.E 7.E W 7.W 7.W 7.7.9.9.W W 9.9.9.9.[.Z.[.9.{.OXOX@X$X$X-X&X=X=X=X=X-X-X-X-X7X8XpX7X7X7X7XpXaXSXSXSXSXDXSXSXDXSXDXSXFXSXFXDXSXDXJXDXDXFXJXJXDXFXJXFXFXKXFXFXFXFXKXFXKXFXKXKXKXKXFXKXKXKXKXKXKXKXKXKXKXKXFXLXLXKXKXKXKXKXKXKXKXKXKXKXKXKXKXKXKXKXKXKXKXKXKXKXKXKXKXKXKXKXKXFXKXKXKXKXKXKXKXFXKXFXKXDXnXaXaXMXaXaXmX8XnXaX8XaXsXaXaX8X8XmX8XaX8X8X8X7XpX7XpX7X7X;X7X7X7X7X-X7X7X-X=X2X7X2X$X5.F F H J T K J J T K J J J J J J J J /.K J K J K J K J J K T J J K K J K K K K K K K K K K K ).K K K K T K K K K I B u > * = - a a g s s s s s s s s s s s s s s s d g - 7 8 6 8 8 8 8 8 Q 8 Q 8 8 8 Q 8 8 8 Q 8 8 8 8 8 8 Q Q 8 8 6 8 8 8 6 7 - - a a a a a s a s p s s p s p s p s p s s p s p s p p s p p s p p p s p p s s p p s p p p p p p p a p p p p p p p p p p p p p p p p p p p p p p p p p p p p p p p p p p p p = p p p p = p p = ",
"b v N , v b b , b b b , : & - d d s s s s s s s s s s s p = : < < b b b b b b b b b b b b b b V b b b V b V b V b V N b , , % ; , v b b b V V N b V V V V N b N b V b V V b V b V b V V V b V V N N N N V N N V V N N N N N D b V V V N N V N V V V V V V V N D b D V V V b V V M V V V b V V V V V V V V V V V V V V V V V V V V V V V V V V V V V V V V V V V V V V V V V V D V D D V D D H V V H H /./.|.XXXXXXXX/./.J K T 5.E E Y E E W E T W E E Y E E Y E E E E E E E E E E Y Y E E U E E Y E E U U T E E Y U E U U E E Y Y E E E U E E U E E T E R E E R E U E E E E 7.E E W E E 7.W 7.W 9.W 9.W 9.9.9.9.[.9.9.9.[.9.OX{.9.[.OXOXOX#X=X=X&X=X,X-X-X<X-X-X-X-X-X7X;X-X7XpX7X7XaXMXSXSXSXSXSXSXDXSXFXSXFXJXDXDXJXJXDXDXFXFXFXFXFXFXFXFXKXKXFXFXKXFXKXFXFXFXKXKXKXFXKXFXKXKXFXKXFXKXKXKXJXLXKXKXFXKXKXFXKXKXKXKXKXKXKXFXKXKXKXKXKXKXKXKXKXKXKXKXKXKXKXKXKXKXKXKXKXKXFXKXKXKXKXKXKXKXJXmXaXmXmXaX8XaXsXaXaXaXaXmXaXaXaX8XmX8X8X8X8X7X8X8X8X7X7X7XpX7X7X7X7X-X7X=X-X-X-X=X7XcX7X}.J J K T T K K K K K K J T J J J J K K K J K J K J K K K K K K T K K T J J T T J K T K K K K K K 5.K K K K K K T A 7 - d d g s s s s s d s s s s s s s s s s d d - 7 7 8 Q 6 ~ 8 8 Q Q 8 ~ 8 Q 8 8 Q Q 8 8 ~ 8 6 8 Q 8 8 Q 8 8 8 Q 8 8 4 3 - a a s a a s s a s p p s p s p s p s p p p p p s s p s p p p p s p p s p p p p s p p p s s p p p a p p p p p p p p p p p p p p p - p p p p p = p p = p p p = p p p p - p p p p p = p p p p p "
};
