/* XPM */
static char *out[] = {
/* columns rows colors chars-per-pixel */
"90 90 5 1 ",
"  c None",
". c #FFFFFE",
"X c #FFFEFF",
"o c #FEFFFF",
"O c white",
/* pixels */
"OOOOOOOOOOOOOOO                                                                           ",
"OOOOOOOOOOOOOOO                                                                           ",
"OOOOOOOOOOOOOOO                                                                           ",
"OOOOOOOOOOOOOOO                                                                           ",
"OOOOOOOOOOOO.OO                                                                           ",
"OOOOOOOOOOOOOOO                                                                           ",
"OOOOOOOXOOOOOOO                                                                           ",
"OOOOOOOOOOOOOOO                                                                           ",
"OOOOOOOOOOOOOOO                                                                           ",
"OOOOOOOOOOOOOOO                                                                           ",
"OOOOOOOOOOOOOOO                                                                           ",
"OXOOOOOOOOXOOOO                                                                           ",
"OOOOOOOOOOOOOOO                                                                           ",
"OOOOOOOOOOOOOOO                                                                           ",
"OOOOOOOOOOOOOOO                                                                           ",
"OOOOOOOOOOOOOOO                                                                           ",
"OOOOOoOOOOOo.OO                                                                           ",
"OOOOOOOOOOOOOOO                                                                           ",
"OOOOOOOOOOOoOXO                                                                           ",
"OOO.OOOOOOOOOOO                                                                           ",
"OOOOOOOOOOOOOOO                                                                           ",
"OOOOOOOOOOOOOOo                                                                           ",
"OOoOOOOOOOOOOOo                                                                           ",
"OOOOXOOOOOOoOOO                                                                           ",
"OOOOOOOOOOOOOOO                                                                           ",
"OOO.OOOOOOOOOOO                                                                           ",
"OOOOOOOOOOOOOOO                                                                           ",
"OOOOOOOOOOOOOOO                                                                           ",
"OOOOOOOOOOOOOOO                                                                           ",
"OOOOXOOOOOOOOOO                                                                           ",
"OOOOOOOOOOOOOOO                                                                           ",
"OOOOOOOOOOOOOOO                                                                           ",
"OOOOOOOOO.OOOOO                                                                           ",
"OOOOOOOXOOOOOOO                                                                           ",
"OOOOOOOOOOOOOOO                                                                           ",
"OOOOOOOOOOOOOOO                                                                           ",
"OOOOOOOOOOXOOOO                                                                           ",
"OOOOOOOOOOOOOOO                                                                           ",
"OOOOOOOOOOOOOOO                                                                           ",
"OOOOOOOOOOOOOOO                                                                           ",
"OOOOOOOOOOOOOOO                                                                           ",
"OOOOOOOOOOOoOXo                                                                           ",
"OOOOOOOXoOOOOOO                                                                           ",
"OOOOOOOOOOOOOOO                                                                           ",
"OOOOOOOOOOOOOOO                                                                           ",
"OOOOOOOOOOOOOOO                                                                           ",
"OOOOOOOOOOOOOOO                                                                           ",
"OOOOOOOOOOOOOOO                                                                           ",
"OOOOOOOXOOOOOOO                                                                           ",
"OOOOOOOOOOOOOOO                                                                           ",
"OOOOOOOOOOOOOOO                                                                           ",
"OOOOOOOOOOOOOOO                                                                           ",
"OOOOOOOOOOOOOOO                                                                           ",
"OOoOOOOOOOOO.OO                                                                           ",
"OOOOOOOOOOOOOOO                                                                           ",
"OOOOOOOOOOOOOOO                                                                           ",
"OOOOOOOOOOOOOOO                                                                           ",
"OOOOOOOOOOOOOOO                                                                           ",
"OOOOOOOOOOOOOOO                                                                           ",
"OOOOOOOOOOOOOOO                                                                           ",
"OOOOOOOOOOOOOOO                                                                           ",
"OOOOXOOOOOOOOOO                                                                           ",
"OOOOOoOOOOOOOOO                                                                           ",
"OOOOOOOOOOOOOOO                                                                           ",
"OOOOOOOOOOOOOOO                                                                           ",
"OOOOOOOOO.OOOOO                                                                           ",
"OOOOOOOOoOOOOOO                                                                           ",
"OOOOOOOOOOOOOOO                                                                           ",
"OOOOOOOOOOOOOXO                                                                           ",
"OOOOOOOOOOOOOOO                                                                           ",
"OOOOOOOOOOOOOOO                                                                           ",
"OOOOOOOOOOOOOOO                                                                           ",
"OOOOOOOOOOOOOOO                                                                           ",
"OOOOOOOOOOOOOOO                                                                           ",
"OOOOOoOOOOOoOOO                                                                           ",
"OOOOOOOOOOOOOOO                                                                           ",
"OOOOOOOOOOOOOOO                                                                           ",
"OOOOOOOOOOOOOOO                                                                           ",
"OOOOOOOOOOOOOOO                                                                           ",
"OOOOOO.XO.OOOOO                                                                           ",
"OOOOOOOOOOOOOOO                                                                           ",
"OOOOOOOOOOOOOOO                                                                           ",
"OOOOOOOOOOOOOOO                                                                           ",
"OOOOOOOOOOOOOOO                                                                           ",
"OOOOOOOOOOOOOOo                                                                           ",
"OOOOOOOOOOOOOOO                                                                           ",
"OOOOOOOOOOOoOOO                                                                           ",
"OOOOOOOOOOOOOOO                                                                           ",
"OOOOOOOOOOOOOOO                                                                           ",
"OOOOOOOOO.OOOOO                                                                           "
};
