/* XPM */
static char *out[] = {
/* columns rows colors chars-per-pixel */
"90 90 8 1 ",
"  c None",
". c black",
"X c #010000",
"o c #000001",
"O c #639BFE",
"+ c #639AFF",
"@ c #629BFF",
"# c #639BFF",
/* pixels */
"                                                                                          ",
"                                                                                          ",
"                                                                                          ",
"                                                                                          ",
"                                                                                          ",
"                                                                                          ",
"                                                                                          ",
"                                                                                          ",
"                                                                                          ",
"                                                                                          ",
"                                                                                          ",
"                                                                                          ",
"                                                                                          ",
"                                                                                          ",
"                                                                                          ",
"                                                                                          ",
"                                                                                          ",
"                                                                                          ",
"                                                                                          ",
"                                                                                          ",
"                                                                                          ",
"                                                                                          ",
"                                                                                          ",
"                                                                                          ",
"                                                                                          ",
"                                                                                          ",
"                                                                                          ",
"                                                                                          ",
"                                                                                          ",
"                                                                                          ",
"                                                                                          ",
"                                            X.......                                      ",
"                                         ....######....                                   ",
"                                       ...############...                                 ",
"                                      ..################..                                ",
"                                     ..####+#############..                               ",
"                                    ..####################..                              ",
"                                   ..##################+###.o                             ",
"                                  ..#####...########...#####..                            ",
"                                  ..####.#.#.O##O##.#.#.####..                            ",
"                                 ..#####.###.######.###.#####..                           ",
"                                 ..####O#...########...######..                           ",
"                                 .####@#######################X                           ",
"                                ..############################..                          ",
"                                ..###+#################+######..                          ",
"                                .#############+#############O##.                          ",
"                                .##############################.                          ",
"                                .##############################.                          ",
"                                .#########.##########.#####@###.                          ",
"                                .##@##@####.#####+##.##########.                          ",
"                                .###########.......o###########.                          ",
"                                .#######+######@###O+##########.                          ",
"                                ..########O###+###############..                          ",
"                                 .############################.                           ",
"                                 .############################.                           ",
"                                 ..###@####+#################..                           ",
"                                  ..########################..                            ",
"                                   ..######################..                             ",
"                                    ..####O###############..                              ",
"                                     .X##################..                               ",
"                                      ..################..                                ",
"                                       ..#O############..                                 ",
"                                        ...##########...                                  ",
"                                         ..............                                   ",
"                                             ......                                       ",
"                                                                                          ",
"                                                                                          ",
"                                                                                          ",
"                                                                                          ",
"                                                                                          ",
"                                                                                          ",
"                                                                                          ",
"                                                                                          ",
"                                                                                          ",
"                                                                                          ",
"                                                                                          ",
"                                                                                          ",
"                                                                                          ",
"                                                                                          ",
"                                                                                          ",
"                                                                                          ",
"                                                                                          ",
"                                                                                          ",
"                                                                                          ",
"                                                                                          ",
"                                                                                          ",
"                                                                                          ",
"                                                                                          ",
"                                                                                          ",
"                                                                                          "
};
