/* XPM */
static char *out[] = {
/* columns rows colors chars-per-pixel */
"320 320 189 2 ",
"   c #050403",
".  c #0C0C0B",
"X  c #140402",
"o  c #130F0A",
"O  c #171414",
"+  c #290304",
"@  c #350102",
"#  c #3F0102",
"$  c #261803",
"%  c #201A1A",
"&  c #392809",
"*  c #24201F",
"=  c #140F2F",
"-  c #4A0203",
";  c #550303",
":  c #4E1616",
">  c #610404",
",  c #6A0303",
"<  c #740403",
"1  c #7E0504",
"2  c #66120C",
"3  c #7A1306",
"4  c #483407",
"5  c #7A2416",
"6  c #6A2D2B",
"7  c #574006",
"8  c #6E540E",
"9  c #1F1B4E",
"0  c #352F7F",
"q  c #4A454E",
"w  c #7B4B4B",
"e  c #605662",
"r  c #74676C",
"t  c #850504",
"y  c #8D0605",
"u  c #940605",
"i  c #9A0504",
"p  c #841804",
"a  c #8F1A05",
"s  c #961F03",
"d  c #9F1B02",
"f  c #A10706",
"g  c #A90706",
"h  c #B71211",
"j  c #892605",
"k  c #9E2302",
"l  c #952C05",
"z  c #9F3305",
"x  c #91390D",
"c  c #83301B",
"v  c #A72302",
"b  c #A42D03",
"n  c #AE2802",
"m  c #B72902",
"M  c #AE3003",
"N  c #A83C06",
"B  c #B53303",
"V  c #BF3302",
"C  c #B93B05",
"Z  c #C02C02",
"A  c #C63701",
"S  c #CB3202",
"D  c #CE3901",
"F  c #D73C02",
"G  c #9B4C0C",
"H  c #885603",
"J  c #955A02",
"K  c #AF4F0D",
"L  c #B54605",
"P  c #A55D03",
"I  c #8C6002",
"U  c #976301",
"Y  c #936804",
"T  c #986D03",
"R  c #997105",
"E  c #87671A",
"W  c #9F7D1D",
"Q  c #A26B02",
"!  c #AB6801",
"~  c #B66502",
"^  c #A27402",
"/  c #A57802",
"(  c #A97D02",
")  c #B97604",
"_  c #954A36",
"`  c #917221",
"'  c #C54806",
"]  c #D34906",
"[  c #CC5408",
"{  c #DB5108",
"}  c #D55908",
"|  c #DB5E09",
" . c #E54504",
".. c #E65809",
"X. c #F2590A",
"o. c #C1600A",
"O. c #E3620A",
"+. c #EB670B",
"@. c #FB610B",
"#. c #F16C0B",
"$. c #FD6C0D",
"%. c #F7700C",
"&. c #FE750D",
"*. c #FE7A0F",
"=. c #E37414",
"-. c #FE7D10",
";. c #8F5D5A",
":. c #AA664F",
">. c #8B7271",
",. c #AE766E",
"<. c #C47343",
"1. c #AE8103",
"2. c #B38603",
"3. c #BB8D04",
"4. c #9F823F",
"5. c #AF8B22",
"6. c #BC972D",
"7. c #C88705",
"8. c #C39405",
"9. c #CB9A04",
"0. c #D79704",
"q. c #C69B1B",
"w. c #EC811B",
"e. c #FF8312",
"r. c #FE8B15",
"t. c #FF9216",
"y. c #FC9D16",
"u. c #D3A104",
"i. c #DCA403",
"p. c #DAA805",
"a. c #DDBB07",
"s. c #DCAF1C",
"d. c #DEB616",
"f. c #E2AD02",
"g. c #EEAB05",
"h. c #EAB402",
"j. c #EFB903",
"k. c #FAB704",
"l. c #F5BC03",
"z. c #CEA627",
"x. c #E9BE2F",
"c. c #FBC203",
"v. c #FECC03",
"b. c #FED302",
"n. c #F4C922",
"m. c #B09451",
"M. c #BBA15E",
"N. c #BC8475",
"B. c #E2935B",
"V. c #CDAF4D",
"C. c #C8B178",
"Z. c #E8C752",
"A. c #F0D26E",
"S. c #4B44AF",
"D. c #7572A7",
"F. c #847C81",
"G. c #93888E",
"H. c #A08D88",
"J. c #A39B9F",
"K. c #ADA5AA",
"L. c #B5AEB0",
"P. c #BCB5B5",
"I. c #C8988D",
"U. c #C3B594",
"Y. c #F7B889",
"T. c #CCB4AE",
"R. c #DDB2A6",
"E. c #C1BCBA",
"W. c #D6C296",
"Q. c #FCE390",
"!. c #ECCEAE",
"~. c #FAEAB9",
"^. c #C6C2C2",
"/. c #CCC8C7",
"(. c #D2CAC7",
"). c #DAD2CD",
"_. c #D5D5DE",
"`. c #F7D6CB",
"'. c #E1DAD5",
"]. c #F2EAD2",
"[. c #F7EDD5",
"{. c #FAE3DE",
"}. c #CDCCE2",
"|. c #EDEDED",
" X c #F4EBE4",
".X c #F1ECEA",
"XX c #FFF7E5",
"oX c #FFFAF2",
"OX c #FEFEFE",
/* pixels */
"OXOXOXOXOXOXOXOXOXOXOXOXOXOXOXOXOXOXOXOX|.|.|.|.|.|.|.|.|.|.|.|.|.|.|.|.|.|.|.|.OXOXOXOXOXOXOXOXOXOXOXOXOXOXOXOXOXOXOXOX|.|..X|.|..X|.|.|.|.|.|.|.|.|.|.|.|.|.|.OXOXOXOXOXOXOXOXOXOXOXOXOXOXOXOXOXOXOXOX|.|.|.|.|.|.|.|.|.|.|.|.|.|.|.|.|.|.|.|.OXOXOXOXOXOXOXOXOXOXOXOXOXOXOXOXOXOXOXOX|.|.|.|.|.|.|.|.|.|.|.|.|.|.|.|.|.|.|.|.OXOXOXOXOXOXOXOXOXOXOXOXOXOXOXOXOXOXOXOX|.|.|.|.|.|.|.|.|.|.|.|.|.|.|.|.|.|.|.|.OXOXOXOXOXOXOXOXOXOXOXOXOXOXOXOXOXOXOXOX|.|.|.|.|.|.|.|.|.|.|.|.|.|.|.|.|.|.|.|.OXOXOXOXOXOXOXOXOXOXOXOXOXOXOXOXOXOXOXOX|.|.|.|.|.|.|.|.|.|.|.|.|.|.|.|.|.|.|.|.OXOXOXOXOXOXOXOXOXOXOXOXOXOXOXOXOXOXOXOX|.|.|.|.|.|.|.|.|.|.|.|.|.|.|.|.|.|.|.|.",
"OXOXOXOXOXOXOXOXOXOXOXOXOXOXOXOXOXOXOXOX|.|.|.|.|.|.|.|.|.|.|.|.|.|.|.|.|.|.|.|.OXOXOXOXOXOXOXOXOXOXOXOXOXOXOXOXOXOXOXOX|.|..X.X.X X|.|.|.|.|.|.|.|.|.|.|.|.|.|.OXOXOXOXOXOXOXOXOXOXOXOXOXOXOXOXOXOXOXOX|.|.|.|.|.|.|.|.|.|.|.|.|.|.|.|.|.|.|.|.OXOXOXOXOXOXOXOXOXOXOXOXOXOXOXOXOXOXOXOX|.|.|.|.|.|.|.|.|.|.|.|.|.|.|.|.|.|.|.|.OXOXOXOXOXOXOXOXOXOXOXOXOXOXOXOXOXOXOXOX|.|.|.|.|.|.|.|.|.|.|.|.|.|.|.|.|.|.|.|.OXOXOXOXOXOXOXOXOXOXOXOXOXOXOXOXOXOXOXOX|.|.|.|.|.|.|.|.|.|.|.|.|.|.|.|.|.|.|.|.OXOXOXOXOXOXOXOXOXOXOXOXOXOXOXOXOXOXOXOX|.|.|.|.|.|.|.|.|.|.|.|.|.|.|.|.|.|.|.|.OXOXOXOXOXOXOXOXOXOXOXOXOXOXOXOXOXOXOXOX|.|.|.|.|.|.|.|.|.|.|.|.|.|.|.|.|.|.|.|.",
"OXOXOXOXOXOXOXOXOXOXOXOXOXOXOXOXOXOXOXOX|.|.|.|.|.|.|.|.|.|.|.|.|.|.|.|.|.|.|.|.OXOXOXOXOXOXOXOXOXOXOXOXOXOXOXOXOXOXOXOX.X X.X X{. X|.|.|.|.|.|.|.|.|.|.|.|.|.|.OXOXOXOXOXOXOXOXOXOXOXOXOXOXOXOXOXOXOXOX|.|.|.|.|.|.|.|.|.|.|.|.|.|.|.|.|.|.|.|.OXOXOXOXOXOXOXOXOXOXOXOXOXOXOXOXOXOXOXOX|.|.|.|.|.|.|.|.|.|.|.|.|.|.|.|.|.|.|.|.OXOXOXOXOXOXOXOXOXOXOXOXOXOXOXOXOXOXOXOX|.|.|.|.|.|.|.|.|.|.|.|.|.|.|.|.|.|.|.|.OXOXOXOXOXOXOXOXOXOXOXOXOXOXOXOXOXOXOXOX|.|.|.|.|.|.|.|.|.|.|.|.|.|.|.|.|.|.|.|.OXOXOXOXOXOXOXOXOXOXOXOXOXOXOXOXOXOXOXOX|.|.|.|.|.|.|.|.|.|.|.|.|.|.|.|.|.|.|.|.OXOXOXOXOXOXOXOXOXOXOXOXOXOXOXOXOXOXOXOX|.|.|.|.|.|.|.|.|.|.|.|.|.|.|.|.|.|.|.|.",
"OXOXOXOXOXOXOXOXOXOXOXOXOXOXOXOXOXOXOXOX|.|.|.|.|.|.|.|.|.|.|.|.|.|.|.|.|.|.|.|.OXOXOXOXOXOXOXOXOXOXOXOXOXOXOXOXOXoXOXoX X`.`.!.!.`.`.`.{. X.X|.|.|.|.|.|.|.|.|.OXOXOXOXOXOXOXOXOXOXOXOXOXOXOXOXOXOXOXOX|.|.|.|.|.|.|.|.|.|.|.|.|.|.|.|.|.|.|.|.OXOXOXOXOXOXOXOXOXOXOXOXOXOXOXOXOXOXOXOX|.|.|.|.|.|.|.|.|.|.|.|.|.|.|.|.|.|.|.|.OXOXOXOXOXOXOXOXOXOXOXOXOXOXOXOXOXOXOXOX|.|.|.|.|.|.|.|.|.|.|.|.|.|.|.|.|.|.|.|.OXOXOXOXOXOXOXOXOXOXOXOXOXOXOXOXOXOXOXOX|.|.|.|.|.|.|.|.|.|.|.|.|.|.|.|.|.|.|.|.OXOXOXOXOXOXOXOXOXOXOXOXOXOXOXOXOXOXOXOX|.|.|.|.|.|.|.|.|.|.|.|.|.|.|.|.|.|.|.|.OXOXOXOXOXOXOXOXOXOXOXOXOXOXOXOXOXOXOXOX|.|.|.|.|.|.|.|.|.|.|.|.|.|.|.|.|.|.|.|.",
"OXOXOXOXOXOXOXOXOXOXOXOXOXOXOXOXOXOXOXOX|.|.|.|.|.|.|.|.|.|.|.|.|.|.|.|.|.|.|.|.OXOXOXOXOXOXOXOXOXOXOXOXOXOXOXOXOXoX[.!.Y.B.=.<.<.o.<.<.B.`.{.|.|.|.|.|.|.|.|.|.OXOXOXOXOXOXOXOXOXOXOXOXOXOXOXOXOXOXOXOX|.|.|.|.|.|.|.|.|.|.|.|.|.|.|.|.|.|.|.|.OXOXOXOXOXOXOXOXOXOXOXOXOXOXOXOXOXOXOXOX|.|.|.|.|.|.|.|.|.|.|.|.|.|.|.|.|.|.|.|.OXOXOXOXOXOXOXOXOXOXOXOXOXOXOXOXOXOXOXOX|.|.|.|.|.|.|.|.|.|.|.|.|.|.|.|.|.|.|.|.OXOXOXOXOXOXOXOXOXOXOXOXOXOXOXOXOXOXOXOX|.|.|.|.|.|.|.|.|.|.|.|.|.|.|.|.|.|.|.|.OXOXOXOXOXOXOXOXOXOXOXOXOXOXOXOXOXOXOXOX|.|.|.|.|.|.|.|.|.|.|.|.|.|.|.|.|.|.|.|.OXOXOXOXOXOXOXOXOXOXOXOXOXOXOXOXOXOXOXOX|.|.|.|.|.|.|.|.|.|.|.|.|.|.|.|.|.|.|.|.",
"OXOXOXOXOXOXOXOXOXOXOXOXOXOXOXOXOXOXOXOX|.|.|.|.|.|.|.|.|.|.|.|.|.|.|.|.|.|.|.|.OXOXOXOXOXOXOXOXOXOXOXOXOXOXOXoX[.!.B.B.=.=.+.#.O.} [ ' _ :.`. X.X|.|.|.|.|.|.|.OXOXOXOXOXOXOXOXOXOXOXOXOXOXOXOXOXOXOXOX|.|.|.|.|.|.|.|.|.|.|.|.|.|.|.|.|.|.|.|.OXOXOXOXOXOXOXOXOXOXOXOXOXOXOXOXOXOXOXOX|.|.|.|.|.|.|.|.|.|.|.|.|.|.|.|.|.|.|.|.OXOXOXOXOXOXOXOXOXOXOXOXOXOXOXOXOXOXOXOX|.|.|.|.|.|.|.|.|.|.|.|.|.|.|.|.|.|.|.|.OXOXOXOXOXOXOXOXOXOXOXOXOXOXOXOXOXOXOXOX|.|.|.|.|.|.|.|.|.|.|.|.|.|.|.|.|.|.|.|.OXOXOXOXOXOXOXOXOXOXOXOXOXOXOXOXOXOXOXOX|.|.|.|.|.|.|.|.|.|.|.|.|.|.|.|.|.|.|.|.OXOXOXOXOXOXOXOXOXOXOXOXOXOXOXOXOXOXOXOX|.|.|.|.|.|.|.|.|.|.|.|.|.|.|.|.|.|.|.|.",
"OXOXOXOXOXOXOXOXOXOXOXOXOXOXOXOXOXOXOXOX|.|.|.|.|.|.|.|.|.|.|.|.|.|.|.|.|.|.|.|.OXOXOXOXOXOXOXOXOXOXOXOXOXoXoX`.B.<.=.=.=.w.&.$.#.O.} [ ' N I.`..X|.|.|.|.|.|.|.OXOXOXOXOXOXOXOXOXOXOXOXOXOXOXOXOXOXOXOX|.|.|.|.|.|.|.|.|.|.|.|.|.|.|.|.|.|.|.|.OXOXOXOXOXOXOXOXOXOXOXOXOXOXOXOXOXOXOXOX|.|.|.|.|.|.|.|.|.|.|.|.|.|.|.|.|.|.|.|.OXOXOXOXOXOXOXOXOXOXOXOXOXOXOXOXOXOXOXOX|.|.|.|.|.|.|.|.|.|.|.|.|.|.|.|.|.|.|.|.OXOXOXOXOXOXOXOXOXOXOXOXOXOXOXOXOXOXOXOX|.|.|.|.|.|.|.|.|.|.|.|.|.|.|.|.|.|.|.|.OXOXOXOXOXOXOXOXOXOXOXOXOXOXOXOXOXOXOXOX|.|.|.|.|.|.|.|.|.|.|.|.|.|.|.|.|.|.|.|.OXOXOXOXOXOXOXOXOXOXOXOXOXOXOXOXOXOXOXOX|.|.|.|.|.|.'.|.|.|.|.|.|.|.|.|.|.|.|.|.",
"OXOXOXOXOXOXOXOXOXOXOXOXOXOXOXOXOXOXOXOX|.|.|.|.|.|.|.|.|.|.|.|.|.|.|.|.|.|.|.|.OXOXOXOXOXOXOXOXOXOXOXOXOXOX`.C.<.#.#.-.-.e.-.-.&.+.O.} ' N :.`. X|.|.|.|.|.|.|.OXOXOXOXOXOXOXOXOXOXOXOXOXOXOXOXOXOXOXOX|.|.|.|.|.|.|.|.|.|.|.|.|.|.|.|.|.|.|.|.OXOXOXOXOXOXOXOXOXOXOXOXOXOXOXOXOXOXOXOX|.|.|.|.|.|.|.|.|.|.|.|.|.|.|.|.|.|.|.|.OXOXOXOXOXOXOXOXOXOXOXOXOXOXOXOXOXoX|.'._..X|.|.|.|.|.|.|.|.|.|.|.|.|.|.|.|.|.|.OXOXOXOXOXOXOXOXOXOXOXOXOXOXOXOXOXOXOXOX|.|.|.|.|.|.|.|.|.|.|.|.|.|.|.|.|.|.|.|.OXOXOXOXOXOXOXOXOXOXOXOXOXOXOXOXOXOXOXOX|.|.|.|.|.|.|.|.|.|.|.|.|.|.|.|.|.|.|.|.OXOXOXOXOXOXOXOXOXOXOXOXOXOXOXOXOXOXOXOX|.|.|.|.|.|.|.|.|.|.|.|.|.|.|.|.|.|.|.|.",
"OXOXOXOXOXOXOXOXOXOXOXOXOXOXOXOXOXOXOXOX|.|.|.|.|.|.|.|.|.|.|.|.|.|.|.|.|.|.|.|.OXOXOXOXOXOXOXOXOXOXOXOXOXoXB.o.| #.*.-.-.e.-.-.-.%.+.| [ L ;.R..X|.|.|.|.|.|.|.OXOXOXOXOXOXOXOXOXOXOXOXOXOXOXOXOXOXOXOX|.|.|.|.|.|.|.|.|.|.|.|.|.|.|.|.|.|.|.|.OXOXOXOXOXOXOXOXOXOXOXOXOXOXOXOXOXOXOXOX|.|.|.|.|.|.|.|._.|.|.|.|.|.|.|.|.|.|.|.OXOXOXOXOXOXOXOXOXOXOXOXOXOXOXOX|.J.q & q G.).|.|.|.|.|.|.|.|.|.|.|.|.|.|.|.|.|.OXOXOXOXOXOXOXOXOXOXOXOXOXOXOXOXOXOXOXOX|.|.|.|.|.|.|.|.|.|.|.|.|.|.|.|.|.|.|.|.OXOXOXOXOXOXOXOXOXOXOXOXOXOXOXOXOXOXOXOX|.|.|.|.|.|.|.|.|.|.|.|.|.|.|.|.|.|.|.|.oXOXOXOXOXOXOXOXOXOXOXOXOXOXOXOXOXOXOXOX|.|.|.|.|.|.|.|.|.|.|.|.|.|.|.|.|.|.|.|.",
"OXOXOXOXOXOXOXOXOXOXOXOXOXOXOXOXOXOXOXOX|.|.|.|.|.|.|.|.|.|.|.|.|.|.|.|.|.|.|.|.OXOXOXOXOXOXOXOXOXOXOXoXOX!.<.| +.%.-.-.-.e.e.e.-.&.#.O.[ C K R. X|.|.|.|.|.|.|.OXOXOXOXOXOXOXOXOXOXOXOXOXOXOXOXOXOXOXOX|.|.|.|.|.|.|.|.|.|.|.|.|.|.|.|.|.|.|.|.OXOXOXOXOXOXOXOXOXOXOXOXOXOXOXOXOXOXOXOX|.|.|.|.|.|.|.|.|.|.|.|.|.|.|.|.|.|.|.|.OXOXOXOXOXOXOXOXOXOXOXOXOXOXOX'.>.* o . o % J.|.|..X|.|.|.|.|.|.|.|.|.|.|.|.|.|.OXOXOXOXOXOXOXOXOXOXOXOXOXOXOXOXOXOXOXOX|.|.|.|.|.|.|.|.|.|.|.|.|.|.|.|.|.|.|.|.OXOXOXOXOXOXOXOXOXOXOXOXOXOXOXOXOXoXOXOX|.|.|.|.|.|.|.|.|.|.|.|.|.|.|.|.|.|.|.|.OXOXOXOXOXOXOXOXOXOXOXOXOXOXOXOXOXOXOXOX|.|.|.|.|.|.|.|.|.|.|.|.|.|.|.|.|.|.|.|.",
"OXOXOXOXOXOXOXOXOXOXOXOXOXOXOXOXOXOXOXOX|.|.|.|.|.|.|.|.|.|.|.|.|.|.|.|.|.|.|.|.OXOXOXOXOXOXOXOXOXOXOXoXXXB.~ | #.-.-.e.-.r.-.e.-.-.%.O.} K K I.{..X|.|.|.|.|.|.OXOXOXOXOXOXOXOXOXOXOXOXOXOXOXOXOXOXOXOX|.|.|.|.|.|.|.|.|.|.|.|.|.|.|.|.|.|.|.|.OXOXOXOXOXOXOXOXOXOXOXOXOXOXOXOXOXOXOXOX|.|.|.|.|.|.|.|.|.|.|.|.|.|.|.|.|.|.|.|.OXOXOXOXOXOXOXOXOXOXOXOXOXOX.X>.$ & & o . . 4 E.|.|.|.|.|.|.|.|.|.|.|.|.|.|.|.|.OXOXOXOXOXOXOXOXOXOXOXOXOXOXOXOXOXOXOXOX|.|.|.|.|.|.|.|.|.|.|.|.|.|.|.|.|.|.|.|.OXOXOXOXOXOXOXOXOXOXOXOXOXOXOXOXOXOXOXOX|.|.|.|.|.|.|.|.|.|.|.|.|.|.|.|.|.|.|.|.OXOXOXOXOXOXOXOXOXOXOXOXOXOXOXOXOXOXOXOX|.|.|.|.|.|.|.|.|.|.|.|.|.|.|.|.|.|.|.|.",
"OXOXOXOXOXOXOXOXOXOXOXOXOXOXOXOXOXOXOXOX|.|.|.|.|.|.|.|.|.|.|.|.|.|.|.|.|.|.|.|.OXOXOXOXOXOXOXOXOXOXOXOX{.<.[ O.%.-.e.e.-.e.-.e.-.&.%.+.} L G I.{.|.|.|.|.|.|.|.OXOXOXOXOXOXOXOXOXOXOXOXOXOXOXOXOXOXOXoX|.|.|.|.|.|.|.|.|.|.|.|.|.|.|.|.|.|.|.|.OXOXOXOXOXOXOXOXOXOXOXOXOXOXOXOXOXOXOXOX|.|.|.|.|.|.|.|.|.|.|.|.|.|.|.|.|.|.|.|.OXOXOXOXOXOXOXOXOXOXOXOXOXoXJ.4 7 ` W 8 $ o o e ^.].]..X|.|.|.|.|.|.|.|.|.|.|.|.OXOXOXOXOXOXOXOXOXOXOXOXOXOXOXOXOXOXOXOX|.|.|.|.|.|.|.|.|.|.|.|.|.|.|.|.|.|.|.|.OXOXOXOXOXOXOXOXOXOXOXOXOXOXOXOXOXOXOXOX|.|.|.|.|.|.|.|.|.|.|.|.|.|.|.|.|.|.|.|.OXOXOXOXOXOXOXOXOXOXOXOXOXOXOXOXOXOXOXOX|.|.|.|.|.|.|.|.|.|.|.|.|.|.|.|.|.|.|.|.",
"OXOXOXOXOXOXOXOXOXOXOXOXOXOXOXOXOXOXOXOX|.|.|.|.|.|.|.|.|.|.|.|.|.|.|.|.|.|.|.|.OXOXOXOXOXOXOXOXOXOXOXoX!.<...+.&.-.-.e.e.e.e.-.-.&.%.+.{ [ N <.`..X|.|.|.|.|.|.OXOXOXOXOXOXOXOXOXOXOXOXOXOXOXOXOXOXOXOX|.|.|.|.|.|.|.|.|.|.|.|.|.|.|.|.|.|.|.|.OXOXOXOXOXOXOXOXOXOXOXOXOXOXOXOXOXOXOXOX|.|.|.|.|.|.|.|.|.|.|.|.|.|.|.|.|.|.|.|.OXOXOXOXOXOXOXOXOXOXOXOXOXP.7 8 5.z.s.6.4 o o $ m.!.].[.|.|.|.|.|.|.|.|.|.|.|.|.OXOXOXOXOXOXOXOXOXOXOXOXOXOXOXOXOXOXOXOX|.|.|.|.|.|.|.|.|.|.|.|.|.|.|.|.|.|.|.|.OXOXOXOXOXOXOXOXOXOXOXOXOXOXOXOXOXOXOXOX|.|.|.|.|.|.|.|.|.|.|.|.|.|.|.|.|.|.|.|.OXOXOXOXOXOXOXOXOXOXOXOXOXOXOXOXOXOXOXOX|.|.|.|.|.|.|.|.|.|.|.|.|.|.|.|.|.|.|.|.",
"OXOXOXOXOXOXOXOXOXOXOXOXOXOXOXOXOXOXOXOX|.|.|.|.|.|.|.|.|.|.|.|.|.|.|.|.|.|.|.|.OXOXOXOXOXOXOXOXOXOXoXoX!.o.O.#.&.-.e.e.e.-.-.-.-.&.%.+.} ' N :.{..X|.|.|.|.|.|.OXOXOXOXOXOXOXOXOXOXOXOXOXOXOXOXOXOXOXOX|.|.|.|.|.|.|.|.|.|.|.|.|.|.|.|.|.|.|.|.OXOXOXOXOXOXOXOXOXOXOXOXOXOXOXOXOXOXOXOX|.|.|.|.|.|.|.|.|.|.|.|.|.|.|.|.|.|.|.|.OXOXOXOXOXOXOXOXOXOXOXoX(.8 7 5.s.l.l.s.` $ o o 7 V.!.].[.|.|.|.|.|.|.|.|.|.|.|.OXOXOXOXOXOXOXOXOXOXOXOXOXOXOXOXOXOXOXOX|.|.|.|.|.|.|.|.|.|.|.|.|.|.'.|.|.|.|.|.OXOXOXOXOXOXOXOXOXOXOXOXOXOXOXOXOXOXOXOX|.|.|.|.|.|.|.|.|.|.|.|.|.|.|.|.|.|.|.|.OXOXOXOXOXOXOXOXOXOXOXOXOXOXOXOXOXOXOXOX|.|.|.|.|.|.|.|.|.|.|.|.|.|.|.|.|.|.|.|.",
"OXOXOXOXOXOXOXOXOXOXOXOXOXOXOXOXOXOXOXOX|.|.|.|.|.|.|.|.|.|.|.|.|.|.|.|.|.|.|.|.OXOXOXOXOXOXOXOXOXOXOXoXY.o.| +.&.-.e.-.e.-.e.e.-.&.%.+.} ' N _ `..X|.|.|.|.|.|.OXOXOXOXOXOXOXOXOXOXOXOXOXOXOXOXOXOXOXOX|.|.|.|.|.|.|.|.|.|.|.|.|.|.|.|.|.|.|.|.OXOXOXOXOXOXOXOXOXOXOXOXOXOXOXOXOXOXOXOX|.|.|.|.|.|.|.|.|.|.|.|.|.|.|.|.|.|.|.|.OXOXOXOXOXOXOXOXOXOXOX'.>.7 ( s.j.c.c.d.q.7 $ o & 4.z.A.~.].|.|.|.|.|.|.|.|.|.|.OXOXOXOXOXOXOXOXOXOXOXOXOXOXOXOXOXOXOXOX|.|.|.|.|.|.|.|.|.|.|.|.|.|.|.|.|.|.|.|.OXOXOXOXOXOXOXOXOXOXOXOXOXOXOXOXOXOXOXOX|.|.|.|.|.|.|.|.|.|.|.|.|.|.|.|.|.|.|.|.OXOXOXOXOXOXOXOXOXOXOXOXOXOXOXOXOXOXOXOX|.|.|.|.|.|.|.|.|.|.|.|.|.|.|.|.|.|.|.|.",
"OXOXOXOXOXOXOXOXOXOXOXOXOXOXOXOXOXOXOXoX|.|.|.|.|.|.|.|.|.|.|.|.|.|.|.|.|.|.|.|.OXOXOXOXOXOXOXOXOXOXOXoXY.o.| +.&.-.e.-.e.e.e.-.-.-.%.+.} [ B N R. X.X|.|.|.|.|.OXOXOXOXOXOXOXOXOXOXOXOXOXOXOXOXOXOXOXOX|.|.|.|.|.|.|.|.|.|.|.|.|.|.|.|.|.|.|.|.OXOXOXOXOXOXOXOXOXOXOXOXOXOXOXOXOXOXOXOX|.|.|.|.|.|.|.|.|.|.|.|.|.|.|.|.|.|.|.|.OXOXOXOXOXOXOXOXOXOX|.H.7 R s.l.c.c.c.l.x.5.& o o 4 z.V.A.~.[. X.X|.|.|.|.|.|.|.OXOXOXOXOXOXOXOXOXOXOXOXOXOXOXOXOXOXOXOX|.|.|.|.|.|.|.|.|.|.|.|.|.|.|.|.|.|.|.|.OXOXOXOXOXOXOXOXOXOXOXOXOXOXOXOXOXOXOXOX|.|.|.|.|.|.|.|.|.|.|.|.|.|.|.|.|.|.|.|.OXOXOXOXOXOXOXOXOXOXOXOXOXOXOXOXOXOXOXOX|.|.|.|.|.|.|.|.|.|.|.|.|.|.|.|.|.|.|.|.",
"OXOXOXOXOXOXOXOXOXOXOXOXOXOXOXOXOXOXOXOX|.|.|.|.|.|.|.|.|.|.|.|.|.|.|.|.|.|.|.|.OXOXOXOXOXOXOXOXOXOXOXoXY.[ | +.&.-.-.e.-.-.e.-.-.-.#.+.| [ ' N I.{..X|.|.|.|.|.OXOXOXOXOXOXOXOXOXOXOXOXOXOXOXOXOXOXOXOX|.|.|.|.|.|.|.|.|.|.|.|.|.|.|.|.|.|.|.|.OXOXOXOXOXOXOXOXOXOXOXOXOXOXOXOXOXOXOXOX|.|.|.|.|.|.|.|.|.|.|.|.|.|.|.|.|.|.|.|.OXOXOXOXOXOXOXOXOXoXP.7 H z.l.c.c.v.v.c.l.z.E $ o $ ` z.x.Z.~.].].|. X.X|.|.|..XoXOXoXoXOXOXoXOXOXOXoXOXOXoXoXOXoXOXOXOX|.|.|.|.|.|.|.|.|.|.|.|.|.|.|.|.|.|.|.|.OXOXOXOXOXOXOXOXOXOXOXOXOXOXOXOXOXOXOXOX|.|.|.|.|.|.|.|.|.|.|.|.|.|.|.|.|.|.|.|.OXOXOXOXOXOXOXOXOXOXOXOXOXOXOXOXOXOXOXOX|.|.|.|.|.|.|.|.|.|.|.|.|.|.|.|.|.|.|.|.",
"OXOXOXOXOXOXOXOXOXOXOXOXOXOXOXOXOXOXOXOX|.|.|.|.|.|.|.|.|.|.|.|.|.|.|.|.|.|.|.|.OXOXOXOXOXOXOXOXOXOXOXoX!.o.} O.%.-.-.-.e.e.-.e.e.&.%.+.| } ' N :.`. X|.|.|.|.|.OXOXOXOXOXOXOXOXOXOXOXOXOXOXOXOXOXOXOXOX|.|.|.|.|.|.|.|.|.|.|.|.|.|.|.|.|.|.|.|.OXOXOXOXOXOXOXOXOXOXOXOXOXOXOXOXOXOXOXOX|.|.|.|.|.|.|.|.|.|.|.|.|.|.|.|.|.|.|.|.OXOXOXOXOXOXOXOXoX'.8 8 q.l.c.c.c.c.v.v.c.j.6.4 o O 4 6.s.d.C.Q.].].].].~.[.~.~.[.~.[.[.[.[.~.[.[.[.[.~.[.[.XXXXXXXXXXXX[. X.X.X|.|.|.|.|.|.|.|.|.|.|.|.|.|.|.|.OXOXOXOXOXOXOXOXOXOXOXOXOXOXOXOXOXOXOXOX|.|.|.|.|.|.|.|.|.|.|.|.|.|.|.|.|.|.|.|.OXOXOXOXOXOXOXOXOXOXOXOXOXOXOXOXOXOXOXOX|.|.|.|.|.|.|.|.|.|.|.|.|.|.|.|.|.|.|.|.",
"OXOXOXOXOXOXOXOXOXOXOXOXOXOXOXOXOXOXOXOX|.|.|.|.|.|.|.|.|.|.|.|.|.|.|.|.|.|.|.|.OXOXOXOXOXOXOXOXOXOXOXoX!.<.[ | +.&.-.-.-.e.e.e.-.-.&.#.O.} ' N _ !. X.X|.|.|.|.OXOXOXOXOXOXOXOXOXOXOXOXOXOXOXOXOXOXOXOX|.|.|.|.|.|.|.|.|.|.|.|.|.|.|.|.|.|.|.|.OXOXOXOXOXOXOXOXOXOXOXOXOXOXOXOXOXOXOXOX|.|.|.|.|.|.|.|.|.|.|.|.|.|.|.|.|.|.|.|.OXOXOXOXOXOXOXOX[.G.8 6.h.l.k.v.c.v.v.c.v.l.s.W $ X $ 8 z.s.s.V.A.Q.Q.Q.Q.A.A.A.A.A.A.A.A.A.A.A.A.A.A.A.A.Q.Q.Q.Q.Q.[.[.~.[.[.]..X|.|.|.|.|.|.|.|.|.|.|.|.|.|.|.OXOXOXOXOXOXOXOXOXOXOXOXOXOXOXOXOXOXOXOX|.|.|.|.|.|.|.|.|.|.|.|.|.|.|.|.|.|.|.|.OXOXOXOXOXOXOXOXOXOXOXOXOXOXOXOXOXOXOXOX|.|.|.|.|.|.|.|.|.|.|.|.|.|.|.|.|.|.|.|.",
"OXOXOXOXOXOXOXOXOXOXOXoXOXOXOXOXOXOXOXOX|.|.|.|.|.|.|.|.|.|.|.|.|.|.|.|.|.|.|..XOXOXOXOXOXOXOXOXOXOXOXoX{.<.[ O.+.#.-.-.-.e.-.-.-.&.&.#.O.} [ L K I.`..X|.|.|.|.OXOXOXOXOXOXOXOXOXOXOXOXOXOXOXoXOXOXOXOX|.|.|.|.|.|.|.|.|.|.|.|.|.|.|.|.|.|.|.|.OXOXOXOXOXOXOXOXOXOXOXOXOXOXOXOXOXOXOXOX|.|.|.|.|.|.|.|.|.|.|.|.|.|.|.|.|.|.|.|.OXOXOXOXOXOXOXoXU.8 8.d.k.v.v.v.v.b.v.v.v.c.j.z.8 $ . & 5.s.a.x.n.n.n.n.b.n.n.n.n.n.c.n.b.b.v.v.b.v.v.n.n.n.n.n.n.Z.Z.Z.A.W.~.~.~.[.[..X[..X.X|.|.|.|.|.|.|.|.|.OXOXOXOXOXOXOXOXOXOXoXOXOXOXOXOXOXOXOXOX|.|.|.|.|.|.|.|.|.|.|.|.|.|.|.|.|.|.|.|.OXOXOXOXOXOXOXOXOXOXOXOXOXOXOXOXOXOXOXOX|.|.|.|.|.|.|.|.|.|.|.|.|.|.|.|.|.|.|.|.",
"|.|.|.|.|.|.|.|.|.|.|.|.|.|.|.|.|.|.|.|.OXOXOXOXOXOXOXOXOXOXOXOXOXOXOXOXOXOXOXOX.X|.|.|.|.|.|.|.|.|.|..X`.B.o.| O.#.&.-.-.-.-.-.-.-.&.#.O.| [ [ M :.`.oXOXOXOXOX|.|.|.|.|.|.|.|.|.|.|.|.|.|.|.|.|.|.|.|.OXOXOXOXOXOXOXOXOXOXOXOXOXOXOXOXOXOXOXOX|.|.|.|.|.|.|.|.|.|.|.|.|.|.|.|.|.|.|.|.OXOXOXOXOXOXOXOXOXOXOXOXOXOXOXOXOXOXOXOX|.|.|.|.|.|.|./.8 W d.l.c.v.v.v.v.v.v.b.v.c.c.s.5.& . $ 8 q.c.c.n.n.n.n.n.v.n.v.c.v.v.v.v.c.v.n.v.c.v.k.c.c.c.n.c.c.n.x.x.x.x.Z.A.Q.].[.XXXXoXoXOXOXOXOXOXOXOXOX|.|.|.|.|.|.|.'._.P.P.P.(. X|.|.|.|.|.|.OXOXOXOXOXOXOXOXOXOXOXOXOXOXOXOXOXOXOXOX|.|.|.|.|.|.|.|.|.|.|.|.|.|.|.|.|.|.|.|.OXOXOXOXOXOXOXOXOXOXOXOXOXOXOXOXOXOXOXOX",
"|.|.|.|.|.|.|.|.|.|.|.|.|.|.|.|.|.|.|.|.OXOXOXOXOXOXOXOXOXOXOXOXOXOXOXOXOXOXoXOX|.|.|.|.|.|.|.|.|.|.|..X{.`.K { | O.+.&.-.-.e.e.-.&.&.#.+.| } [ A z ,.{.oXOXOXOX|.|.|.|.|.|.|.|.|.|.|.|.|.|.|.|.|.|.|.|.OXOXOXOXOXOXOXOXOXOXOXOXOXOXOXOXOXOXOXOX|.|.|.|.|.|.|.|.|.|.|.|.|.|.|.|.|.|.|.|.OXOXOXOXOXOXOXOXOXOXOXOXOXOXOXOXOXOXOXOX|.|.|.|.|. X'.4.R s.l.c.k.v.v.v.v.b.b.v.b.v.c.l.z.E $ . $ 5.n.c.v.v.v.v.b.b.v.v.v.v.v.v.v.v.v.v.v.v.c.v.v.c.v.c.v.c.c.c.c.c.l.l.n.n.Z.A.Q.~.[.[.XXXXoXoXOXOXOXOX|.|.|.|.)./.J.r q * * * q F.}.|.|.|.|.|.OXOXOXOXOXOXOXOXOXOXOXOXOXOXOXOXOXOXOXOX|.|.|.|.|.|.|.|.|.|.|.|.|.|.|.|.|.|.|.|.OXOXOXOXOXOXOXOXOXOXOXOXOXOXOXOXOXOXOXOX",
"|.|.|.|.|.|.|.|.|.|.|.|.|.|.|.|.|.|.|.|.OXOXOXOXOXOXOXOXOXOXOXOXOXOXoXOXXXoXOXOX X.X|.|.|.|.|..X|.|.|.|..X`.<.[ } O.#.%.-.-.-.-.-.-.-.%.+.O.} { ' C :.!.oXOXOXOX|.|.|.|.|.|.|.|.|.|.|.|.|.|.|.|.|.|.|.|.OXOXOXOXOXOXOXOXOXOXOXOXOXOXOXOXOXOXOXOX|.|.|.|.|.|.|.|.|.|.|.|.|.|.|.|.|.|.|.|.OXOXOXOXOXOXOXOXOXOXOXOXOXOXOXOXOXOXOXOX|.|.|..X|.].M.` s.l.k.k.v.c.v.v.v.b.b.b.v.v.v.l.f.q.4 $ $ 8 s.c.c.c.c.v.v.v.v.v.v.v.v.v.v.v.v.v.v.v.v.v.c.v.v.v.c.c.c.c.c.c.c.l.c.h.c.x.d.x.Z.A.Q.~.[.XXoXOXOXOX|.}.P.G.q * O . o o o . . O e ).|.|.|.|.OXOXOXOXOXOXOXOXOXOXOXOXOXOXOXOXOXOXOXOX|.|.|.|.|.|.|.|.|.|.|.|.|.|.|.|.|.|.|.|.OXOXOXOXOXOXOXOXOXOXOXOXOXOXOXOXOXOXOXOX",
"|.|.|.|.|.|.|.|.|.|.|.|.|.|.|.|.|.|.|.|.OXOXOXOXOXOXOXOXOXOXoXOXXXXX].!.!.!.~.[.`. X X X.X|.|.|.|.|.|.|..X{.B.o.} | +.$.&.-.-.-.-.-.&.%.#.+...{ [ ' x <.`.OXOXOX|.|.|.|.|.|.|.|.|.|.|.|.|.|.|.|.|.|.|.|.OXOXOXOXOXOXOXOXOXOXOXOXOXOXOXOXOXOXOXOX|.|.|.|.|.|.|.|.|.|.|.|.|.|.|.|.|.|.|.|.OXOXOXOXOXOXOXOXOXOXOXOXOXOXOXOXOXOXOXOX|.|.|..XXXU.8 z.l.c.v.v.v.v.v.v.b.v.b.b.v.v.v.v.l.s.5.$ o $ 5.x.c.v.v.v.v.v.v.v.v.v.c.v.v.v.v.v.v.v.v.v.v.v.v.c.v.v.c.v.c.c.c.c.c.c.c.c.c.j.j.n.V.Z.A.~.[..X'.L.r q % O o o $ $ $ & $ $ o . O G..X|.|.|.OXOXOXOXOXOXOXOXOXOXOXOXOXOXOXOXOXOXOXOX|.|.|.|.|.|.|.|.|.|.|.|.|.|.|.|.|.|.|.|.OXOXOXOXOXOXOXOXOXOXOXOXOXOXOXOXOXOXOXOX",
"|.|.|.|.|.|.|.|.|.|.|.|.|.|.|.|.|.|.|.|.OXOXOXOXOXOXOXOXOXoXXX[.!.B.B.w.B.B.w.B.C.Y.!.`.{..X|.|.|.|.|.|..X X!.<.[ | +.&.&.-.-.-.-.-.&.&.#.+...} { ' C K I.{.oXOX|.|.|.|.|.|.|.|.|.|.|.|.|.|.|.|.|.|.|.|.OXOXOXOXOXOXOXOXOXOXOXOXOXOXOXOXOXOXOXOX|.|.|.|.|.|.|.|.|.|.|.|.|.|.|.|.|.|.|.|.OXOXOXOXOXOXOXOXOXOXOXOXOXOXOXOXOXOXOXOX|.|.|. X).` 5.n.c.c.c.v.v.v.b.v.b.b.b.b.b.b.b.v.c.h.q.8 o o 4 x.n.c.v.v.v.v.v.v.b.v.v.b.b.v.v.v.v.v.v.v.v.v.v.v.v.v.c.v.v.k.v.c.c.c.c.c.j.j.c.h.n.V.V.m.r q & O O o o $ & 4 7 8 R 5.E 8 $ o . & (.|.|.|.OXOXOXOXOXOXOXOXOXOXOXOXOXOXOXOXOXOXOXOX|.|.|.|.|.|.|.|.|.|.|.|.|.|.|.|.|.|.|.|.OXOXOXOXOXOXOXOXOXOXOXOXOXOXOXOXOXOXOXOX",
"|.|.|.|.|.|.|.|.|.|.|.|.|.|.|.|.|.|.|.|.OXOXOXOXOXOXOXoXOXXX!.B.B.w.e.r.e.t.e.e.w.w.B.A.!.{. X X.X|.|.|..XXX`.I.[ | O.#.&.&.-.-.-.&.&.&.#.+.| ..{ ] ' N :.`.oXOX|.|.|.|.|.|.|.|.|.|.|.|.|.|.|.|.|.|.|.|.OXOXOXOXOXOXOXOXOXOXOXOXOXOXOXOXOXOXOXOX|.|.|.|.|.|.|.|.|.|.|.|.|.|.|.|.|.|.|.|.OXOXOXOXOXOXOXOXOXOXOXOXOXOXOXOXOXOXOXOX|.|.|.].m.W d.c.v.c.c.v.v.v.v.b.b.b.b.b.b.b.v.v.c.j.s.5.& o $ ` x.c.c.v.v.b.b.v.v.b.b.v.v.b.b.v.v.v.v.v.v.v.v.v.v.c.v.v.v.c.c.v.c.c.c.c.n.x.n.z.5.I 4 & $ . $ o $ & 4 8 E W 3.q.u.3.3.5.8 o . O J.|.|.|.OXOXOXOXOXOXOXOXOXOXOXOXOXOXOXOXOXOXOXOX|.|.|.|.|.|.|.|.|.|.|.|.|.|.|.|.|.|.|.|.OXOXOXOXOXOXOXOXOXOXOXOXOXOXOXOXOXOXOXOX",
"|.|.|.|.|.|.|.|.|.|.|.|.|.|.|.|.|.|.|.|.OXOXOXOXOXOXOXoX].Y.w.w.e.e.r.r.r.r.t.t.r.r.%.B.B.Y.`. X X.X|.|..X X`.B.o.} O.#.#.&.*.-.-.-.&.&.@.+.X...{ ] ' L N F. XoX|.|.|.|.|.|.|.|.|.|.|.|.|.|.|.|.|.|.|.|.OXOXOXOXOXOXOXOXOXOXOXOXOXOXOXOXOXOXOXOX|.|.|.|.|.|.|.|.|.|.|.|.|.|.|.|.|.|.|.|.OXOXOXOXOXOXOXOXOXOXOXOXOXOXOXOXOXOXOXOX|.|.|.U.` z.l.c.c.c.v.c.v.v.v.b.b.b.b.b.b.b.b.v.v.c.a.z.E $ o 4 z.l.v.v.v.v.b.v.v.b.v.v.v.v.v.v.b.v.v.v.v.v.v.v.v.v.c.v.c.v.c.c.c.n.x.x.z.4.8 & $ $ $ $ $ & 4 8 8 / 2.q.p.s.f.g.h.p.u.3.W & . O r |.|.|.OXOXOXOXOXOXOXOXOXOXOXOXOXOXOXOXOXOXOXOX|.|.|.|.|.|.|.|.|.|.|.|.|.|.|.|.|.|.|.|.OXOXOXOXOXOXOXOXOXOXOXOXOXOXOXOXOXOXOXOX",
"|.|.|.|.|.|.|.|.|.|.|.|.|.|.|.|.|.|.|.|.OXOXOXOXOXOXOXXXY.B.w.*.e.e.r.r.t.y.t.y.y.t.r.e.%.B.B.!.`. X{. X X X{.B.[ } X.@.$.&.*.*.-.-.&.&.$.+.@...{ { ] D D :.!.oX|.|.|.|.|.|.|.|..X|.|.|.|.|.|.|.|.|.|.|.OXOXOXOXOXOXOXOXOXOXOXOXOXOXOXOXOXOXOXOX|.|.|.|.|.|.|.|.|.|.|.|.|.|.|.|.|.|.|.|.OXOXOXOXOXOXOXOXOXOXOXOXOXOXOXOXOXOXOXOX|. X).` 6.j.c.c.c.v.c.v.v.v.b.b.b.b.b.b.b.b.b.v.v.c.c.p.6.7 o $ J x.n.v.b.v.v.v.b.v.v.b.b.v.b.b.v.v.v.v.v.c.v.v.v.c.c.v.v.n.n.x.d.q.R 8 & $ $ O $ $ & 7 8 R 5.z.z.s.h.j.j.h.j.j.h.p.p.3.W 7 o . e .X|.|.OXOXOXOXOXOXOXOXOXOXOXOXOXOXOXOXOXOXOXOX|.|.|.|.|.|.|.|.|.|.|.|.|.|.|.|.|.|.|.|.OXOXOXOXOXOXOXOXOXOXOXOXOXOXOXOXOXOXOXOX",
"|.|.|.|.|.|.|.|.|.|.|.|.|.|.|.|.|.|.|.|.OXOXOXOXOXoX{.Y.B.e.*.e.e.e.r.r.r.y.t.t.y.t.t.t.r.w.=.B.B.!.`.`.`.[.!.<.' } @.@.$.&.-.-.e.-.-.&.$.+.+.....{ ] ' C K H. X X|.|.|.|.|.|.|.|.|.|.|.|.|.|.|.|.|.|.|.OXOXOXOXOXOXOXOXOXOXOXOXOXOXOXOXOXOXOXOX|.|.|.|.|.|.|.|.|.|.|.|.|.|.|.|.|.|.|.|.OXOXOXOXOXOXOXOXOXOXOXOXOXOXOXOXOXOXOXOX|.].m.5.d.c.c.c.v.v.v.v.b.b.b.b.b.b.b.b.b.b.b.b.v.c.c.a.a.5.& o & z.n.v.v.b.b.b.b.b.b.b.v.v.v.v.b.v.v.v.v.v.b.b.c.v.n.n.x.V.6.E 4 $ $ $ $ & & 4 8 H ( 3.i.d.j.l.c.l.k.l.l.j.h.h.h.f.p.9.( 8 . . q _.|.|.OXOXOXOXOXOXOXOXOXOXOXOXOXOXOXOXOXOXOXOX|.|.|.|.|.|.|.|.|.|.|.|.|.|.|.|.|.|.|.|.|.OXOXOXOXOXOXOXOXOXOXOXOXOXOXOXOXOXOXOX",
"|.|.|.|.|.|.|.|.|.|.|.|.|.|.|.|.|.|.|.|.OXOXOXOXoXXX!.B.w.&.*.e.r.r.r.r.t.t.y.y.y.y.t.y.t.r.e.w.w.B.B.B.B.B.<.] ] ..X.@.$.&.-.-.-.e.-.$.&.$.X.....{ ] ' ' N _ Y.{..X|.|.|.|.|.|.|.|.|.|.|.|.|.|.|.|.|.|.OXOXOXOXOXOXOXOXOXOXOXOXOXOXOXOXOXOXOXOX|.|.|.|.|.|.|.|.|.|.|.|.|.|.|.|.|.|.|.|.OXOXOXOXOXOXOXOXOXOXOXOXOXOXOXOXOXOXOXOX.XU.` z.l.c.c.v.v.c.v.c.v.n.n.n.n.b.b.b.b.b.b.b.v.b.b.c.a.z.8 o $ R l.v.v.b.b.v.b.v.b.v.b.b.b.v.b.v.v.v.v.c.n.n.n.x.z.( 8 & o $ $ $ $ & 4 8 R 5.z.s.h.l.c.c.v.c.c.v.c.l.l.l.j.j.h.h.p.9.2.E $ . * /.|.|.OXOXOXOXOXOXOXOXOXOXOXOXOXOXOXOXOXOXOXOX|.|.|.|.|.|.|.|.|.|.|.|.|.|.|.|.|.|.|.|.OXOXOXOXOXOXOXOXOXOXOXOXOXOXOXOXOXOXOXOX",
"|.|.|.|.|.|.|.|.|.|.|.|.|.|.|.|.|.|.|.|.OXOXOXoXXX!.B.=.&.*.*.e.e.e.r.t.t.t.t.y.y.y.y.t.t.t.r.r.e.w.=.+.[ [ ] ]  .X.X.@.@.&.-.-.-.e.-.&.$.$.X.....{ { ] ' L K <.`.{..X|.|.|.|.|.|.|.|.|.|.|.|.|.|.|.|.|.OXOXOXOXOXOXOXOXOXOXOXOXOXOXOXOXOXOXOXOX|.|.|.|.|.|.|.|.|.|.|.|.|.|.|.|.|.|.|.|.OXOXOXOXOXOXOXOXOXOXOXOXOXOXOXOXOXOXOXoX).` q.j.c.c.c.v.v.c.v.n.n.x.x.x.n.n.b.b.v.b.b.v.b.b.b.b.b.n.z.E / p.v.v.v.b.b.b.b.v.b.b.b.v.b.b.v.v.v.v.n.x.V.6.` 4 & $ $ $ $ 4 4 8 I ( q.p.s.j.l.c.c.c.c.v.v.c.v.k.c.l.l.l.l.h.h.f.f.u.1.E $ o * ^.|.|.OXOXOXOXOXOXOXOXOXOXOXOXOXOXOXOXOXOXOXOX|.|.|.|.|.|.|.|.|.|.|.|.|.|.|.|.|.|.|.|.OXOXOXOXOXOXOXOXOXOXOXOXOXOXOXOXOXOXOXOX",
"|.|.|.|.|.|.|.|.|.|.|.|.|.|.|.|.|.|.|.|.OXOXOXXX~.B.-.*.*.e.e.e.e.r.r.t.r.y.t.y.y.y.y.y.t.t.r.r.r.e.*.&.+... . .X.X.@.@.$.&.&.-.e.-.-.&.&.$.@.X...{ { ] ] A C C H.{. X|.|.|.|.|.|.|.|.|.|.|.|.|.|.|.|.|.OXOXOXOXOXOXOXOXOXOXOXOXOXOXOXOXOXOXOXOX|.|.|.|.|.|.|.|.|.|.|.|.|.|.|.|.|.|.|.|.OXOXOXOXOXOXOXOXOXOXOXOXOXOXOXOXOXOXOX Xm.5.s.c.c.v.c.v.n.n.x.z.z.M.M.C.V.V.n.v.b.b.b.b.b.b.b.b.b.b.n.n.n.n.b.b.b.b.b.v.b.b.b.b.v.b.v.v.b.n.x.s.5.J 4 $ $ $ $ $ 4 4 8 / 5.q.s.d.h.c.c.v.c.v.v.c.v.v.v.c.c.v.c.l.l.h.h.h.h.f.f.u.2.W $ o O L.|.|.OXOXOXOXOXOXOXOXOXOXOXOXOXOXOXOXOXOXOXOX|.|.|.|.|.|.|.|.|.|.|.|.|.|.|.|.|.|.|.|.OXOXOXOXOXOXOXOXOXOXOXOXOXOXOXOXOXOXOXOX",
"|.|.|.|.|.|.|.|.|.|.|.|.|.|.|.|.|.|.|.|.OXOXoX[.Y.w.*.*.e.*.e.e.e.r.r.r.t.y.y.y.y.y.y.y.y.y.t.t.r.-.-.-.$.#.X...X.X.@.$.$.&.&.-.r.-.-.*.$.@.@.X.O...{ ] ] ' C N :.`..X|.|.|.|.|.|.|.|.|.|.|.|.|.|.|.|.|.OXOXOXOXOXOXOXOXOXOXOXOXOXOXOXOXOXOXOXOX|.|.|.|.|.|.|.|.|.|.|.|.|.|.|.|.|.|.|.|.|.OXOXOXOXOXOXOXOXOXOXOXOXOXOXOXOXOXXXW.W d.c.c.v.v.c.n.n.V.M.U.C.U.U.U.U.C.n.n.b.b.b.b.b.b.b.b.b.b.b.a.b.b.b.b.b.b.b.b.b.b.b.b.b.b.v.v.x.2.8 & $ $ $ $ & 4 8 Y 1.q.u.s.h.j.l.c.v.c.v.v.v.v.v.v.v.v.c.c.c.c.l.l.l.j.h.h.h.f.p.u.3.R & o O J.|.|.OXOXOXOXOXOXOXOXOXOXOXOXOXOXOXOXOXOXOXOX|.|.|.|.|.|.|.|.|.|.|.|.|.|.|.|.|.|.|.|.OXOXOXOXOXOXOXOXOXOXOXOXOXOXOXOXOXOXOXOX",
"|.|.|.|.|.|.|.|.|.|.|.|.|.|.|.|.|.|.|.|.OXoXXXY.B.*.*.*.*.&.e.*.r.e.r.t.t.t.t.y.y.y.y.y.y.t.r.t.r.r.-.-.*.%.=.X.X.@.@.$.$.&.&.*.w.-.-.*.$.$.@.X.....{ { ] ' ' N z I.{..X|.|.|.|.|.|.|.|.|.|.|.|.|.|.|.|.OXOXOXOXOXOXOXOXOXOXOXOXOXOXOXOXOXOXOXOX|.|.|.|.|.|.|.|.|.|.|.|.|.|.|.|.|.|.|.|.OXOXOXOXOXOXOXOXOXOXOXOXOXOXOXOXoXXX~.5.z.n.v.v.n.n.n.V.M.C.U.P.P.E.^././.W.Z.b.b.b.b.b.b.b.b.b.b.b.b.b.b.b.b.b.b.b.b.b.b.b.b.b.v.b.b.v.d.4 o $ $ 4 7 8 T 5.z.s.d.j.l.c.v.v.v.c.v.v.b.v.v.b.v.v.v.c.v.v.c.c.l.c.j.j.h.h.h.h.f.u.8.W 4 o . G.|.|.OXOXOXOXOXOXOXOXOXOXOXOXOXOXOXOXOXOXOXOX|.|.|.|.|.|.|.|.|.|.|.|.|.|.|.|.|.|.|.|.OXOXOXOXOXOXOXOXOXOXOXOXOXOXOXOXOXOXOXOX",
"|.|.|.|.|.|.|.|.|.|.|.|.|.|.|.|.|.|.|.|.OXXX~.B.%.e.*.*.*.e.e.e.e.r.r.t.r.y.t.y.y.y.y.y.t.t.t.t.r.r.r.-.-.&.$.+.O...@.@.$.$.&.-.-.-.-.*.$.$.@.X.....{ { ] ' A C b :.!.{.|.|.|.|.|.|.|.|.|.|.|.|.|.|.|.|.OXOXOXOXOXOXOXOXOXOXOXOXOXOXOXOXOXOXOXOX|.|.|.|.|.|.|.|.|.|.|.|.|.|.|.|.|.|.|.|.OXOXOXOXOXOXOXOXOXOXOXOXOXOXOXoXXX[.A.s.n.v.v.c.n.n.V.U.U.P.E.^./.(._._.).W.Z.n.b.b.b.b.b.b.b.b.b.b.b.b.b.b.b.b.b.b.b.b.b.b.b.b.b.b.v.v.n.3.8 8 R 3.z.s.d.j.l.c.c.v.c.v.v.v.v.v.v.v.v.v.v.v.b.v.v.v.c.c.c.l.l.j.j.h.h.h.f.f.p.u.9./ 7 o o G..X|.OXOXOXOXOXOXOXOXOXOXOXOXOXOXOXOXOXOXOXOX|.|.|.|.|.|.|.|.|.|.|.|.|.|.|.|.|.|.|.|.OXOXOXOXOXOXOXOXOXOXOXOXOXOXOXOXOXOXOXOX",
"|.|.|.|.|.|.|.|.|.|.|.|.|.|.|.|.|.|.|..XOX[.Y.w.&.&.*.*.*.e.e.e.e.r.r.r.r.t.t.y.y.y.y.y.y.y.t.t.r.r.r.r.-.-.*.%.O.....@.$.$.&.*.-.-.*.$.*.$.@.X.....{ { ] ] ' C N _ R.{..X|.|.|.|.|.|.|.|.|.|.|.|.|.|.|.OXOXOXOXOXOXOXOXOXOXOXOXOXOXOXOXOXOXOXOX|.|.|.|.|.|.|.|.|.|.|.|.|.|.|.|.|.|.|.|.OXOXOXOXOXOXOXOXOXOXOXOXOXoXoXXX~.A.x.n.c.v.v.n.z.M.C.P.^.^.(._._._._._._./.Z.n.b.b.b.b.b.b.b.b.b.b.b.b.b.b.b.b.b.b.b.b.b.b.b.n.b.b.b.v.v.l.s.d.l.l.c.c.c.c.c.v.v.v.v.v.v.v.v.v.v.b.v.b.b.v.v.c.c.c.c.c.c.c.l.j.h.h.h.h.f.p.p.i.9.2.8 $ o e ).[.oXOXOXOXOXOXOXOXOXOXOXOXOXOXOXOXOXOXOXOX|.|.|.|.|.|.|.|.|.|.|.|.|.|.|.|.|.|.|.|.OXOXOXOXOXOXOXOXOXOXOXOXOXOXOXOXOXOXOXOX",
"|.|.|.|.|.|.|.|.|.|.|.|.|.|.|.|.|.|.|..XXXQ.B.&.e.&.&.e.*.e.e.e.e.r.r.t.t.y.t.y.y.y.y.t.y.t.t.t.r.r.r.-.-.-.-.%.+.} ] ..$.$.*.-.*.*.*.*.$.$.@.X.....{ { ] ] ' ' V N ,.`.{.|.|.|.|.|.|.|.|.|.|.|.|.|.|.|.OXOXOXOXOXOXOXOXOXOXOXOXOXOXOXOXOXOXOXOX|.|.|.|.|.|.|.|.|.|.|.|.|.|.|.|.|.|.|.|.OXOXOXOXOXOXOXOXOXOXOXoXOXoX[.Q.Z.n.v.c.v.n.x.z.V.U.P./.(._._._._._._._._.W.Z.n.b.b.b.b.b.b.b.b.b.b.b.b.b.b.b.b.b.b.b.b.b.b.b.b.b.b.v.v.v.v.v.c.v.v.v.v.v.v.v.v.c.v.v.v.v.v.v.v.v.b.v.v.v.v.c.v.c.c.c.c.j.l.j.j.j.h.h.f.f.f.f.p.u.3.8 $ o 4 U.~.oXOXOXOXOXOXOXOXOXOXOXOXOXOXOXOXOXOXOXOX|.|.|.|.|.|.|.|.|.|.|.|.|.|.|.|.|.|.|.|.OXOXOXOXOXOXOXOXOXOXOXOXOXOXOXOXOXOXOXOX",
"|.|.|.|.|.|.|.|.|.|.|.|.|.|.|.|.|.|.|.{.[.B.=.&.&.&.&.e.*.e.e.e.e.r.r.r.r.t.y.t.t.y.y.y.t.t.r.r.r.-.r.-.-.-.-.%.+.} ] ] X.$.&.*.*.*.*.$.$.$.@.+.....{ { ] ] A ' C v :.`..X|.|.|.|.|.|.|.|.|.|.|.|.|.|.|.OXOXOXOXOXOXOXOXOXOXOXOXOXOXOXOXOXOXOXOX|.|.|.|.|.|.|.|.|.|.|.|.|.|.|.|.|.|.|.|.OXOXOXOXOXOXOXOXOXOXOXoXXX[.Q.Z.n.v.v.v.v.n.V.V.U./.)._._._._._._._._._._._.Z.n.b.b.b.b.b.b.b.b.b.b.b.b.b.b.b.b.b.b.b.b.b.b.b.b.b.b.b.b.v.b.v.b.v.v.v.v.v.v.v.v.v.v.v.v.v.v.v.v.v.v.v.b.v.v.v.c.v.c.c.l.l.j.j.h.h.h.f.f.h.p.f.p.i.3.8 $ o 4 m.C.~.XXoXOXOXOXOXOXOXOXOXOXOXOXOXOXOXOXOXOX|.|.|.|.|.|.|.|.|.|.|.|.|.|.|.|.|.|.|.|.OXOXOXOXOXOXOXOXOXOXOXOXOXOXOXOXOXOXOXOX",
"|.|.|.|.|.|.|.|.|.|.|.|.|.|.|.|.|..X.X{.!.B.e.&.&.&.&.e.*.e.r.e.r.r.r.t.t.y.t.t.y.t.t.y.t.t.t.r.r.r.-.-.e.-.-.%.+.} ] '  .$.$.-.*.*.$.*.$.$.X.@.....{ ] ] ] ' ' C z _ R.{.|.|.|.|.|.|.|.|.|.|.|.|.|.|.|.OXOXOXOXOXOXOXOXOXOXOXOXOXOXOXOXOXOXOXOX|.|.|.|.|.|.|.|.|.|.|.|.|.|.|.|.|.|.|.|.OXOXOXOXOXOXOXOXOXOXoXXX~.A.n.n.v.v.c.n.x.V.C.U./.).}._._._._._._._._._._.W.Z.n.b.b.b.b.b.b.b.b.b.b.b.b.b.b.b.b.b.b.b.b.b.b.b.b.b.v.v.b.v.b.v.b.b.v.v.v.v.v.v.v.v.v.v.v.v.v.v.v.v.v.v.v.v.c.c.c.c.c.c.l.l.l.j.h.h.f.f.f.p.f.p.i.p.8.E $ o & 5.6.C.~.XXoXOXOXOXOXOXOXOXOXOXOXOXOXOXOXOXOX|.|.|.|.|.|.|.|.|.|.|.|.|.|.|.|.|.|.|.|.OXOXOXOXOXOXOXOXOXOXOXOXOXOXOXOXOXOXOXOX",
"|.|.|.|.|.|.|.|.|.|.|.|.|.|.|.|..X X X[.B.w.&.&.&.&.&.e.e.e.e.r.e.r.r.t.t.t.t.y.t.y.t.t.t.t.t.r.r.r.r.-.-.e.-.$.+.} ] ' F @.$.*.*.*.*.$.$.@.X.....{ { { ] ] A ' C z x I.{.|.|.|.|.|.|.|.|.|.|.|.|.|.|.|.OXOXOXOXOXOXOXOXOXOXOXOXOXOXOXOXOXOXOXOX|.|.|.|.|.|.|.|.|.|.|.|.|.|.|.|.|.|.|.|.OXOXOXOXOXOXOXOXOXoX[.Q.Z.n.b.v.c.v.v.n.x.C.U.^.).}._._._._._._._._._._._.~.Z.n.b.b.b.b.b.b.b.b.b.b.b.b.b.b.b.b.b.b.b.b.b.b.b.b.b.b.b.b.b.b.v.v.v.v.b.v.v.v.v.v.v.v.v.v.v.v.v.v.v.v.v.v.v.v.c.c.c.l.c.j.c.d.h.h.h.h.f.h.f.f.f.p.i.8.E $ . & ` 3.6.A.].XXoXOXOXOXOXOXOXOXOXOXOXOXOXOXOXOX|.|.|.|.|.|.|.|.|.|.|.|.|.|.|.|.|.|.|.|.OXOXOXOXOXOXOXOXOXOXOXOXOXOXOXOXOXOXOXOX",
"OXOXOXOXOXOXOXOXOXOXOXOXOXOXOXOXOXOXoX!.B.*.&.&.*.*.*.*.e.e.e.e.r.r.r.t.t.t.t.t.t.t.y.t.t.t.t.r.r.e.r.-.-.-.-.%.O.} ] ' S @.$.&.*.$.*.$.$.@.X.O...{ { ] ] ] ' ' C z z :.{.OXOXOXOXOXOXOXOXOXOXOXOXOXOXOX|.|.|.|.|.|.|.|.|.|.|.|.|.|.|.|.|.|.|.|.OXOXOXOXOXOXOXOXOXOXOXOXOXOXOXOXOXOXOXOX|.|.|.|.|.|.|.|. X~.Q.Z.n.c.c.c.c.b.n.V.U.U./._._._._._._._._._._._._._._.W.Z.n.b.b.b.b.b.b.b.b.b.b.b.b.b.b.b.b.b.b.b.b.b.b.b.b.b.b.b.b.b.b.v.v.b.v.v.v.v.v.v.v.v.v.v.v.v.v.v.v.v.v.v.c.c.c.c.c.c.l.l.j.j.j.h.h.j.f.f.f.f.f.f.p.i.3.E $ . $ 5.3.3.6.M.~.[.|.|.|.|.|.|.|.|.|.|.|.|.|.|.|.OXOXOXOXOXOXOXOXOXOXOXOXOXOXOXOXOXOXOXOX|.|.|.|.|.|.|.|.|.|.|.|.|.|.|.|.|.|.|.|.",
"OXOXOXOXOXOXOXOXOXOXOXOXOXOXOXOXOXoX[.B.-.&.&.&.*.&.*.e.*.e.e.e.e.r.r.r.t.t.t.t.y.t.y.t.t.t.t.r.e.r.-.e.-.*.&.#.O.} ] ' D ..$.&.*.*.$.@.@.X.X...{ { { ] ] ' C C C n N _ `.OXOXOXOXOXOXOXOXOXOXOXOXOXOXOX|.|.|.|.|.|.|.|.|.|.|.|.|.|.|.|.|.|.|.|.OXOXOXOXOXOXOXOXOXOXOXOXOXOXOXOXOXOXOXOX|.|.|.|.|.|.|.].].A.x.n.c.v.v.v.b.n.x.M.U.^./._._._._._._._._._.}.}.P.K.L.C.Z.b.b.b.b.b.b.b.b.b.b.b.b.b.b.b.b.b.b.b.b.b.b.b.b.b.b.b.b.b.b.b.b.b.v.b.v.b.b.v.v.v.v.v.v.v.v.v.v.v.v.v.v.v.v.c.c.c.c.l.j.c.j.j.h.h.f.h.h.h.f.f.p.p.u.8.` & . $ 8 3.3.3.6.V.~.[.[..X|.|.|.|.|.|.|.|.|.|.|.|.OXOXOXOXOXOXOXOXOXOXOXOXOXOXOXOXOXOXOXOX|.|.|.|.|.|.|.|.|.|.|.|.|.|.|.|.|.|.|.|.",
"OXOXOXOXOXOXOXOXOXOXOXOXOXOXOXOXOXXX!.B.w.&.*.&.*.e.*.*.e.e.e.e.e.r.r.t.t.t.t.t.t.t.t.t.r.t.r.r.e.r.-.e.-.-.&.#.O.} ] A D ..$.$.$.$.$.$.X.X.....{ { ] ] ] ' ' C C b N _ R.OXOXOXOXOXOXOXoXOXOXOXOXOXOXOX|.|.|.|.|.|.|.|.|.|.|.|.|.|.|.|.|.|.|.|.OXOXOXOXOXOXOXOXOXOXOXOXOXOXOXOXOXOXOXOX|.|.|.|.|.|.].~.A.n.n.v.v.c.c.v.n.x.V.U.E.(._._._._._._._._.}.L.D.S.0 0 0 q V.b.b.b.b.b.b.b.b.b.b.b.b.b.b.b.b.b.b.b.b.b.b.b.b.b.b.b.b.b.b.b.b.v.b.v.v.b.b.v.v.b.v.b.v.v.v.v.v.v.v.v.v.v.v.v.c.c.c.l.j.c.j.j.h.h.h.h.f.f.f.f.f.i.u.8.` & . $ 8 2.3.3.3.6.M.~.[.|.|.|.|.|.|.|.|.|.|.|.|.|.OXOXOXOXOXOXOXOXOXOXOXOXOXOXOXOXOXOXOXOX|.|.|.|.|.|.|.|.|.|.|.|.|.|.|.|.|.|.|.|.",
"OXOXOXOXOXOXOXOXOXOXOXOXOXOXOXOXOXXXY.w.*.*.&.&.&.*.e.e.e.e.e.e.r.r.r.r.r.t.t.t.t.t.r.t.t.t.r.r.r.e.e.-.-.*.%.+.| [ ] ' C  .@.$.$.@.$.@.X.O...{ { ] ] ] ] S ' C B b j x I.oXoXOXOXOXOXOXOXOXOXOXOXOXOXOX|.|.|.|.|.|.|.|.|.|.|.|.|.|.|.|.|.|.|.|.OXOXOXOXOXOXOXOXOXOXOXOXOXOXOXOXOXOXOXOX|.|.|.|.|.].~.A.n.v.c.c.v.v.v.n.n.M.U.E.(._._._._._.}.}.}.K.D.S.S.S.S.S.0 e Z.b.b.b.b.b.b.b.b.b.b.b.b.b.b.b.b.b.b.b.b.b.b.b.b.b.b.b.b.b.v.b.b.v.v.v.b.v.v.b.v.v.v.v.v.v.c.v.v.v.v.c.c.c.c.c.c.c.c.c.j.l.j.h.h.h.h.g.f.h.f.f.f.i.u.8.` & . $ 4.3.3.9.9.8.9.M.!.[..X|.|.|.|.|.|.|.|.|.|.|.OXOXOXOXOXOXOXOXOXOXOXOXOXOXOXOXOXOXOXOX|.|.|.|.|.|.|.|.|.|.|.|.|.|.|.|.|.|.|.|.",
"OXOXOXOXOXOXOXOXOXOXOXOXOXOXOXOXoX].w.w.*.*.&.&.*.e.*.&.e.e.e.r.e.r.r.r.t.t.t.r.t.t.r.t.t.r.r.e.e.e.e.-.-.&.%.+.| [ A ' Z ..@.$.$.$.@.X.X.....{ { ] ] ] ' ] A C n b l 5 ,.XXoXOXOXOXOXOXOXOXOXOXOXOXOXOX|.|.|.|.|.|.|.|.|.|.|.|.|.|.|.|.|.|.|.|.OXOXOXOXOXOXOXOXOXOXOXOXOXOXOXOXOXOXOXOX|.|.|..X].~.A.x.c.c.v.c.c.v.v.n.M.C.E./._._._._._._.}.P.D.S.S.S.S.S.S.S.S.F.Z.b.b.b.b.b.b.b.b.b.b.b.b.b.b.b.b.b.b.b.b.b.b.b.b.b.b.b.v.b.b.b.v.b.b.b.v.v.v.v.b.b.b.v.v.v.v.v.v.v.c.v.v.c.c.v.c.c.c.c.l.j.j.h.h.h.h.h.f.f.h.f.p.p.u.8.W 4 o o 8 2.3.8.9.9.8.q.M.!.].|.|.|.|.|.|.|.|.|.|.|.OXOXOXOXOXOXOXOXOXOXOXOXOXOXOXOXOXOXOXOX|.|.|.|.|.|.|.|.|.|.|.|.|.|.|.|.|.|.|.|.",
"OXOXOXOXOXOXOXOXOXOXOXOXOXOXOXoXXX!.B.*.&.&.&.*.&.*.e.e.e.e.r.e.e.r.r.r.r.t.t.r.t.t.t.t.t.r.r.r.e.-.e.-.-.*.#.O.} [ ' A Z ] X.@.@.@.X.+.....{ { ] ] ] ] ] ' ' C M b l j :. XoXOXOXOXOXOXOXOXOXOXOXOXOXOX|.|.|.|.|.|.|.|.|.|.|.|.|.|.|.|.|.|.|.|.OXOXOXOXOXOXOXOXOXOXOXOXOXOXOXOXOXOXOXOX|.|..X[.~.Y.n.c.c.v.n.v.v.c.n.x.C.P./._._._._._._.}.J.S.S.S.S.S.S.S.S.S.S.G.Z.b.b.b.b.b.b.b.b.b.b.b.b.b.b.b.b.a.b.b.b.b.b.b.b.b.v.b.b.b.b.b.b.b.v.v.v.b.b.v.v.v.v.v.v.v.v.v.v.v.v.c.v.c.c.c.c.c.c.l.l.j.j.j.h.h.f.h.f.f.f.p.f.p.u.8.W 4 o o 8 3.3.8.8.u.9.8.8.V.!. X[.|.|.|.|.|.|.|.|.|.OXOXOXOXOXOXOXOXOXOXOXOXOXOXOXOXOXOXOXOX|.|.|.|.|.|.|.|.|.|.|.|.|.|.|.|.|.|.|.|.",
"OXOXOXOXOXOXOXOXOXOXOXOXOXOXOXoXXXY.w.*.*.&.*.*.&.e.*.*.e.*.r.e.r.r.r.r.r.r.r.t.t.r.t.r.r.r.e.e.r.e.e.-.*.$.#.O.} ] ' S Z F X.@.@.X.@.....{ { { ] ] ] ' ' A A B M b k j _ `.OXOXOXOXOXOXOXOXOXOXOXOXOXOX|.|.|.|.|.|.|.|.|.|.|.|.|.|.|.|.|.|.|.|.OXOXOXOXOXOXOXOXOXOXOXOXOXOXOXOXOXOXOXOX|.|. X~.A.n.c.k.v.v.v.c.c.n.x.C.U.^./._._._._._.P.D.S.S.S.S.S.S.S.S.S.S.e G.n.b.b.b.b.b.b.b.b.b.b.b.b.b.b.b.b.b.b.b.b.b.b.b.b.b.b.b.b.b.v.b.b.b.v.b.b.v.v.b.b.v.b.v.v.v.v.v.v.v.v.v.c.c.v.v.k.c.c.l.l.l.h.c.h.h.f.h.f.f.f.f.f.i.u.8.W 7 o o 8 2.3.9.9.9.u.9.9.q.V.!.[..X|.|.|.|.|.|.|.|.OXOXOXOXOXOXOXOXOXOXOXOXOXOXOXOXOXOXOXOX|.|.|.|.|.|.|.|.|.|.|.|.|.|.|.|.|.|.|.|.",
"OXOXOXOXOXOXOXOXOXOXOXOXOXOXOXOX].B.w.*.&.&.&.*.e.*.e.e.e.e.e.e.e.e.r.r.r.r.t.r.t.r.t.r.r.r.r.e.-.e.-.-.-.*.+.| { ' ' A m D  .X.X.X.X...{ { { ] ] ] ' ] ' ' C B b l s j c !.oXOXOXOXOXOXOXOXOXOXOXOXOXOX|.|.|.|.|.|.|.|.|.|.|.|.|.|.|.|.|.|.|.|.OXOXOXOXOXOXOXOXOXOXOXOXOXOXOXOXOXOXOXOX|.[.[.A.x.c.c.v.v.c.c.v.v.n.z.C.E._._._._._.}.K.S.S.S.S.S.S.0 0 0 S.S.S.e C.n.b.b.b.b.b.b.b.b.b.b.b.b.b.b.b.b.b.b.b.b.b.b.b.b.v.b.b.v.b.b.b.b.b.v.v.b.v.v.b.v.v.b.v.v.v.v.v.v.v.v.c.v.c.c.c.v.k.c.l.c.j.c.h.c.h.h.h.h.h.f.f.p.i.u.3.W 8 o o 7 5.3.9.9.u.u.9.9.9.6.V.~. X|.|.|.|.|.|.|.|.OXOXOXOXOXOXOXOXOXOXOXOXOXOXOXOXOXOXOXOX|.|.|.|.|.|.|.|.|.|.|.|.|.|.|.|.|.|.|.|.",
"OXOXOXOXOXOXOXOXOXOXOXOXOXOXOXXX!.B.*.&.&.&.*.*.e.e.e.e.*.e.e.e.e.e.r.r.r.r.r.r.t.r.r.r.r.r.e.r.-.-.-.-.&.%.+.| [ ' A V m A  .X.X.X.....{ { ] ] ] ] ' ' ] A C C b l j j c R.oXOXOXOXOXOXOXOXOXOXOXOXOXOX|.|.|.|.|.|.|.|.|.|.|.|.|.|.|.|.|.|.|.|.OXOXOXOXOXOXOXOXOXOXOXOXOXOXOXOXOXOXOXOX.X[.Q.Z.l.c.v.c.v.c.v.v.n.x.C.U.^.}._._._.}.G.S.S.S.0 0 9 9 9 9 9 9 0 0 e C.n.b.b.b.b.b.b.b.b.b.b.b.b.b.b.b.b.b.b.b.b.b.b.b.b.b.b.b.b.b.v.b.b.b.v.b.b.v.v.v.b.v.v.v.v.v.v.v.v.v.c.v.v.c.c.v.c.c.c.h.c.c.c.a.h.h.h.h.a.h.f.i.f.p.u.9.( 8 . o 4 5.9.9.u.u.u.u.u.9.8.6.C.]. X|.|.|.|.|.|.|.OXOXOXOXOXOXOXOXOXOXOXOXOXOXOXOXOXOXOXOX|.|.|.|.|.|.|.|.|.|.|.|.|.|.|.|.|.|.|.|.",
"OXOXOXOXOXOXOXOXOXOXOXOXOXOXoXXXY.=.*.&.&.&.&.*.*.*.e.*.e.e.e.e.r.r.e.e.r.r.r.r.r.r.r.r.r.r.e.e.e.-.-.-.-.#.O.} ] ' ' V m A ] ........{ { ] ] ] A ] ] A ' ' C M b l d j c I.oXOXOXOXOXOXOXOXOXOXOXOXOXOX|.|.|.|.|.|.|.|.|.|.|.|.|.|.|.|.|.|.|.|.OXOXOXOXOXOXOXOXOXOXOXOXOXOXOXOXOXOXOXoX[.Q.Z.n.c.v.c.c.v.v.v.n.x.V.U.^./._._.}.}.G.S.S.S.0 0 9 9 9 9 9 9 9 9 9 8 Z.n.b.b.b.b.b.b.b.b.b.b.b.b.b.b.b.b.b.b.b.b.b.b.b.b.b.b.b.b.b.b.b.v.v.v.v.v.b.b.v.v.b.v.v.v.v.v.v.v.v.c.c.v.v.c.v.c.c.c.c.c.h.h.c.j.h.h.h.h.p.f.h.f.i.p.9.1.8 $ o 7 5.9.9.u.i.i.u.u.u.9.q.6.A.[.[.|.|.|.|.|.|.OXOXOXOXOXOXOXOXOXOXOXOXOXOXOXOXOXOXOXOX|.|.|.|.|.|.|.|.|.|.|.|.|.|.|.|.|.|.|.|.",
"OXOXOXOXOXOXOXOXOXOXOXOXOXOXOXXXC.#.&.&.&.&.*.*.*.*.e.e.e.e.e.e.e.e.e.r.e.r.r.r.r.r.r.r.e.e.e.e.e.-.-.-.&.#.O.} ' ' S m m V ] { .. .{ { { ] ] ] ] ' ' ' ' C C M b s j j c ,. XOXOXOXOXOXOXOXOXOXOXOXOXOX|.|.|.|.|.|.|.|.|.|.|.|.|.|.|.|.|.|.|.|.OXOXOXOXOXOXOXOXOXOXOXOXOXOXOXOXOXOXoXXXQ.Z.x.c.c.c.c.c.c.v.v.n.V.C.E.(._._._.}.J.0 0 S.0 0 9 9 9 9 9 9 9 9 9 9 5.Z.n.b.b.b.b.b.b.b.b.b.b.b.b.b.b.b.b.b.b.b.b.b.b.b.b.b.b.b.b.b.b.b.v.v.b.b.v.v.b.v.v.b.v.v.v.v.v.v.v.c.v.c.v.c.c.v.c.c.c.n.c.c.c.h.j.j.h.h.h.h.h.f.f.f.f.u.2.I $ o 4 5.9.u.i.i.p.i.u.u.9.9.8.z.~.]..X|.|.|.|.|.OXOXOXOXOXOXOXOXOXOXOXOXOXOXOXOXOXOXOXOX|.|.|.|.|.|.|.|.|.|.|.|.|.|.|.|.|.|.|.|.",
"OXOXOXOXOXOXOXOXOXOXOXOXOXOXOX[.w.=.&.&.&.&.&.*.e.e.*.*.*.e.e.e.e.r.r.e.e.r.r.e.e.e.r.r.e.r.e.-.e.-.-.-.&.+.| [ ' ' A m m V ] { { { { { ] ] ] ] ' ] A ' A C B M b s a j j ,.XXOXOXOXOXOXOXOXOXOXOXOXOXOX|.|.|.|.|.|.|.|.|.|.|.|.|.|.|.|.|.|.|.|.OXOXOXOXOXOXOXOXOXOXOXOXOXOXOXOXOXOXoX[.A.n.c.c.c.v.v.v.v.c.n.x.V.U./.}._._.}.J.0 0 S.0 0 9 9 9 9 9 9 9 9 9 9 * 4.n.b.b.b.b.b.b.b.b.b.b.b.b.b.b.b.b.b.b.b.b.b.b.b.b.b.b.b.b.b.b.b.v.b.b.v.v.b.v.v.v.b.v.v.v.v.v.v.v.v.v.c.v.c.c.c.c.c.c.h.c.c.h.c.c.c.j.j.h.h.h.h.h.h.f.h.p.8.Y $ . 4 5.q.9.i.i.p.p.u.u.u.9.9.6.M.~. X.X|.|.|.|.OXOXOXOXOXOXOXOXOXOXOXOXOXOXOXOXOXOXOXOX|.|.|.|.|.|.|.|.|.|.|.|.|.|.|.|.|.|.|.|.",
"OXOXOXOXOXOXOXOXOXOXOXOXOXOXoX`.B.%.&.&.&.*.&.*.&.e.e.*.*.e.e.*.-.e.e.e.r.e.r.e.r.e.r.e.e.e.e.e.-.-.-.-.$.O.} [ A ' B n n V ' ] { { ..] ] ] ' ' ] A S ' C C C b b s s p p :. XOXOXOXOXOXOXOXOXOXOXOXOXOX|.|.|.|.|.|.|.|.|.|.|.|.|.|.|.|.|.|.|.|.OXOXOXOXOXOXOXOXOXOXOXOXOXOXOXOXOXoX[.Q.x.l.c.c.v.v.c.v.v.c.n.V.C.E./._._._.L.0 0 0 0 0 9 9 9 9 9 9 9 9 9 9 9 & z.n.b.b.b.b.b.b.b.b.b.b.b.b.b.b.b.b.b.a.b.b.b.b.b.b.b.b.b.b.b.b.v.b.v.v.v.b.b.v.v.b.v.b.v.v.v.v.v.v.c.v.c.v.c.c.v.c.c.c.c.c.h.c.j.c.l.l.j.j.j.h.h.h.h.h.h.f.9.W & $ 4 5.u.p.p.p.i.p.i.u.u.9.u.8.6.C.[.[..X|.|.|.OXOXOXOXOXOXOXOXOXOXOXOXOXOXOXOXOXOXOXOX|.|.|.|.|.|.|.|.|.|.|.|.|.|.|.|.|.|.|.|.",
"OXOXOXOXOXOXOXOXOXOXOXOXOXOXOX!.w.%.&.&.&.&.&.*.&.*.*.*.e.*.e.e.e.e.e.r.e.e.e.r.e.r.r.e.r.e.e.-.e.-.-.&.+.O.} ' ' ' m n n B ' ] ] ] ] ] ] ] A ] ' ' ' C C C M b k s p p 5 _ `.oXOXOXOXOXOXOXOXOXOXOXOXOX|.|.|.|.|.|.|.|.|.|.|.|.|.|.|.|.|.|.|.|.OXOXOXOXOXOXOXOXOXOXOXOXOXOXOXOXoXXX~.Z.l.c.c.v.c.c.c.v.v.n.x.V.U./._._._.}.e 0 0 0 0 9 9 9 9 9 9 9 9 9 9 9 9 & Z.n.b.b.b.b.b.b.b.b.b.b.b.b.b.b.b.b.b.b.b.b.b.b.b.b.b.b.b.b.b.b.v.b.v.b.b.v.v.b.b.v.v.b.v.v.v.v.v.v.v.c.v.v.c.v.c.c.c.c.c.c.c.c.c.j.j.c.c.j.j.j.h.h.h.h.h.f.p.3.4 $ & 5.u.p.p.p.p.i.i.u.u.u.9.9.3.6.W.[. X|.|.|.OXOXOXOXOXOXOXOXOXOXOXOXOXOXOXOXOXOXOXOX|.|.|.|.|.|.|.|.|.|.|.|.|.|.|.|.|.'.|.|.",
"OXOXOXOXOXOXOXOXOXOXOXOXOXoXoX!.=.%.%.&.&.&.&.*.e.*.*.e.*.*.e.*.e.e.e.-.e.e.r.e.e.r.e.e.e.-.-.e.e.-.&.%.+.| [ ' ' C n n n B C A ] ] ] ] ' ' A ' ' C ' C C B h b l j p p p c !.oXOXOXOXOXOXOXOXOXOXOXOXOX|.|.|.|.|.|.|.|.|.|.|.|.|.|.|.|.|.|.|.|.OXOXOXOXOXOXOXOXOXOXOXOXOXOXOXOXoX[.A.x.l.c.c.c.c.v.v.c.c.n.V.U.^./._._.}.D.0 0 0 0 9 9 9 9 9 9 9 9 9 9 9 9 * 8 n.b.b.b.b.b.b.b.b.b.b.b.b.b.b.b.b.b.b.b.b.b.b.b.b.b.b.b.b.b.a.b.b.v.v.b.v.v.v.v.v.v.b.v.v.v.v.v.v.v.v.c.c.v.c.c.c.v.c.c.c.a.c.c.j.j.c.j.j.j.l.h.c.a.h.h.h.h.f.9.Y 8 8 3.p.p.p.i.p.p.p.u.u.u.9.9.9.9.M.~.[..X|.|.OXOXOXOXOXOXOXOXOXOXOXOXOXOXOXOXOXOXOXOX|.|.|.|.|.|.|.|.|.|.|.|.|.|.|.|.|.|.|.|.",
"OXOXOXOXOXOXOXOXOXOXOXOXOXoXXXY.=.%.%.&.&.&.&.*.*.e.*.e.e.e.e.e.-.-.e.e.e.-.e.-.e.e.e.e.e.-.e.e.-.-.&.%.O.} [ ' A C n n n M C ' ' A ' ' A ] ' ' ' ' C C m C N z s a p 5 p c I.oXOXOXOXOXOXOXOXOXOXOXOXOX|.|.|.|.|.|.|.|.|.|.|.|.|.|.|.|.|.|.|.|.OXOXOXOXOXOXOXOXOXOXOXOXOXOXOXoXXXQ.n.c.k.c.c.c.c.c.v.c.n.n.I.^./._._._.K.0 9 0 9 9 9 = 9 9 9 9 9 9 9 9 9 9 * E n.b.b.b.b.b.b.b.b.b.b.b.b.b.b.b.b.b.b.b.b.b.b.b.b.b.b.b.b.b.b.b.v.v.b.v.v.b.b.v.v.b.v.v.v.v.v.v.v.v.c.v.v.v.c.v.c.c.c.c.c.c.c.c.c.c.j.c.j.c.j.c.j.j.h.h.h.h.h.f.u.q.u.p.f.p.f.f.p.p.i.i.u.u.u.u.9.3.q.M.~. X.X|.OXOXOXOXOXOXOXOXOXOXOXOXOXOXOXOXOXOXOXOX|.|.|.|.|.|.|.|.|.|.|.|.|.|.|.|.|.|.|.|.",
"OXOXOXOXOXOXOXOXOXOXOXOXOXoXXXB.=.%.%.&.&.&.*.*.-.-.-.-.-.-.-.-.e.e.-.e.e.e.-.e.e.e.-.e.e.-.-.-.-.-.&.#.O.} ' ' ' B v v n M C C ' ' A A ' ' ' A C A C C B b b k s p p p p 5 ,.XXoXOXOXOXOXOXOXOXOXOXOXOX|.|.|.|.|.|.|.|.|.|.|.|.|.|.|.|.|.|.|.|.OXOXOXOXOXOXOXOXOXOXOXOXOXOXOXXX~.Z.n.c.k.c.v.v.v.c.v.v.n.z.U.^.)._._.}.e 9 0 9 9 9 = 9 = 9 = 9 9 9 = 9 = = $ m.n.b.b.b.b.b.b.b.b.b.b.b.b.b.b.b.b.b.b.b.b.v.b.b.b.b.b.b.b.n.b.b.b.v.b.b.v.b.b.v.b.v.v.v.v.v.v.v.c.v.n.v.c.c.v.c.c.c.n.c.c.j.c.h.c.l.l.l.c.c.c.j.j.j.j.h.h.h.h.a.s.p.s.p.f.i.i.p.p.p.i.p.p.u.u.9.9.9.9.6.W.]. X|.OXOXOXOXOXOXOXOXOXOXOXOXOXOXOXOXOXOXOXOX|.|.|.|.|.|.|.|.|.|.|.|.|.|.|.|.|.|.|.|.",
"OXOXOXOXOXOXOXOXOXOXOXOXOXoX{.C.=.#.%.&.&.&.*.*.-.-.-.-.-.-.-.-.e.-.e.e.-.e.-.e.-.-.e.-.e.-.-.-.-.-.$.+.| [ ' ' C n v v v M B C C ' ' ' A ' ' C C C C B B b b l a p p p 3 5 :.{.oXOXoXOXOXoXoXOXOXOXOXOX|.|.|.|.|.|.|.|.|.|.|.|.|.|.|.|.|.|.|.|.OXOXOXOXOXOXOXOXOXOXOXOXOXoXoX[.A.n.l.c.c.c.c.c.c.v.c.n.x.M.U./._._._.J.9 9 9 9 9 = 9 = 9 = 9 = 9 = 9 = 9 % & V.n.b.b.b.b.b.b.b.b.b.b.b.b.b.b.b.b.v.b.b.b.b.b.b.b.b.b.b.b.b.v.v.v.v.v.v.v.v.v.b.v.v.v.v.v.v.v.v.v.c.v.v.v.c.c.v.c.c.c.c.c.c.c.c.c.c.l.c.j.j.j.c.j.j.j.j.h.h.f.h.f.f.h.f.f.f.f.f.p.p.i.i.u.p.u.9.u.3.3.3.6.~.].|.OXOXOXOXOXOXOXOXOXOXOXOXOXOXOXOXOXOXOXOX|.|.|.|.|.|.|.|.|.|.|.|.|.|.|.|.|.|.|.|.",
"OXOXOXOXOXOXOXOXOXOXOXOXOXOX[.B.=.#.#.&.&.&.*.*.*.*.-.-.-.-.-.-.-.-.-.-.-.-.-.-.-.-.-.-.-.-.-.-.*.&.#.O.} [ A C B v v v v b M B C C C C C C C C V C B B n b k s p p p 5 p 5 :.`.XX X[.XX XOXoXOXOXOXOXOX|.|.|.|.|.|.|.|.|.|.|.|.|.|.|.|.|.|.|.|.OXOXOXOXOXOXOXOXOXOXOXOXOXoXXX~.x.l.l.l.c.c.v.c.v.v.v.n.V.U.^.)._.}.}.e 9 9 9 9 = = = = = 9 = 9 = = = = = % 7 Z.n.b.b.b.b.b.b.b.b.b.b.b.b.b.b.b.b.b.b.v.b.b.b.b.b.b.b.b.v.b.b.v.v.b.b.v.b.b.v.v.v.v.v.v.v.v.v.c.v.c.v.c.v.c.v.c.c.c.c.c.c.c.c.c.c.j.j.l.c.j.c.j.l.j.j.j.j.h.h.h.f.h.f.f.p.h.i.p.p.p.p.i.p.i.u.u.u.9.8.9.5.C.]..XOXOXOXOXOXOXOXOXOXOXOXOXOXOXOXOXOXOXOXOX|.|.|.|.|.|.|.|.|.|.|.|.|.|.|.|.|.|.|.|.",
"OXOXOXOXOXOXOXOXOXOXOXOXOXXX].w.O.#.%.&.*.&.*.*.*.*.*.-.-.-.-.-.-.-.-.-.-.-.-.-.-.-.-.-.-.-.-.-.*.%.#.O.[ K ' C M v k k k b M B B C C C A C C C C B B M b k s a p p p 3 p p L :.B.C.B.B.B.Y.!.`.XXoXoXOX|..X|.|.|.|.|.|.|.|.|.|.|.|.|.|.|.|.|.|.OXOXOXOXOXOXOXOXOXOXOXOXOXXX].Z.l.k.c.c.c.c.c.c.c.c.c.x.M.U./._._.}.J.9 9 9 9 9 = = = = = = = = = = = 9 = $ ` n.b.b.b.b.b.b.b.b.b.b.b.b.b.b.b.b.b.b.b.b.b.v.b.b.b.b.b.b.v.v.v.b.v.b.v.v.v.v.b.v.v.v.v.v.v.v.v.v.c.v.v.c.c.v.c.c.c.c.c.c.c.c.c.c.c.c.c.c.c.j.j.l.l.j.j.j.j.h.h.f.f.f.h.f.f.f.p.f.p.p.p.i.u.i.u.u.9.9.9.3.3.6.!.].oXOXOXOXOXOXOXOXOXOXOXOXOXOXOXOXOXOXOXOX|.|.|.|.|.|.|.|.|.|.|.|.|.|.|.|.|.|.|.|.",
"|.|.|.|.|.|.|.|.|.|.|.|..X X!.<.O.+.%.&.&.&.*.*.*.*.*.*.*.*.-.-.-.-.-.-.-.-.-.*.*.*.*.*.*.*.*.-.&.%.+.} [ ' A C v k d k k b b M B B C C C C B B B B M b b k s p p 3 3 p p s ' | +.+.#.#.=.=.+.B.B.Y.{. XOXOXOXOXOXOXOXOXOXOXOXOXOXOXOXOXOXOXOXOX|.|.|.|.|.|.|.|.|.|.|.|..X~.A.x.l.k.c.c.c.c.v.c.v.c.x.x.C.P.).}._.}.e 9 9 9 9 = = = = = = = = = = = = = = $ 6.n.b.b.b.b.b.b.b.b.b.b.b.b.b.b.b.b.b.b.b.b.v.b.b.v.b.v.v.v.b.v.v.b.b.v.b.b.v.v.v.v.v.v.v.v.v.v.v.c.c.v.v.c.v.v.c.c.c.c.c.c.c.c.c.c.c.c.c.j.j.c.l.j.c.j.j.j.j.j.h.h.h.f.f.f.h.f.f.i.f.p.p.p.p.u.u.u.u.9.8.8.3.5.V.[.].|.|.|.|.|.|.|.|.|.|.|.|.|.|.|.|.|.|.|.OXOXOXOXOXOXOXOXOXOXOXOXOXOXOXOXOXOXOXOX",
"|.|.|.|.|.|.|.|.|.|.|.|..X X!.<.| +.%.&.*.&.*.*.*.*.*.*.*.*.*.-.-.-.-.*.-.*.*.*.*.*.*.*.*.*.*.&.%.#.| [ ' ' ' B v k k k k b b M M B B B B B B B B M M b k s a p 3 p p p v ' X.@.@.$.$.$.$.%.O.+.| <.I.`.oXOXOXOXOXOXOXOXOXOXOXOXOXOXOXOXOXOXOXOX|.|.|.|.|.|.|.|.|.|.|..X].~.x.h.k.k.k.c.c.c.c.c.n.n.x.M.U.^._._._.P.9 9 9 9 = = = = = = = = = = = = = = O & V.b.b.b.b.b.b.b.b.b.b.b.b.b.b.b.b.b.v.b.v.b.b.b.b.b.b.v.b.b.v.b.b.v.v.v.v.v.b.b.v.v.v.v.v.v.v.c.c.v.v.v.c.v.c.c.c.c.c.a.c.a.c.c.h.c.j.c.c.c.c.l.l.c.j.c.j.j.j.j.h.h.f.h.h.f.f.p.f.p.p.i.p.u.p.u.u.u.9.9.9.8.9.3.6.!.].|.|.|.|.|.|.|.|.|.|.|.|.|.|.|.|.|.|.|.OXOXOXOXOXOXOXOXOXOXOXOXOXOXOXOXOXOXOXOX",
"|.|.|.|.|.|.|.|.|.|.|.|. X{.!.<.| +.%.&.&.&.&.&.*.*.*.*.*.*.*.*.-.-.*.*.*.*.*.*.*.*.*.*.*.*.*.&.#.O.} [ ' ' C M v v k k k k b b M M M B B B M B M M b k s a p 3 3 3 p M ] X.$.$.$.$.$.$.$.$.$.$.O.[ C :.{.oXOXOXOXOXOXOXOXOXOXOXOXOXOXOXOXOXOXOX|.|.|.|.|.|.|.|.|.|.|. X~.W.n.j.k.c.k.c.c.c.c.v.v.n.V.C.P.(._._.}.D.9 9 9 9 = = = = = = = = = = = = = O O 8 n.b.b.b.b.b.b.b.b.b.b.b.b.b.b.b.b.b.b.b.b.b.b.b.b.b.v.b.b.v.v.b.v.v.v.b.b.v.v.v.v.v.v.v.v.v.v.c.n.v.c.v.v.c.c.v.c.c.c.c.c.c.c.c.c.c.c.c.c.j.c.l.c.j.c.j.c.j.j.j.j.h.h.h.f.h.f.h.f.f.f.p.p.p.p.p.u.u.u.u.8.9.9.3.5.V.~. X|.|.|.|.|.|.|.|.|.|.|.|.|.|.|.|.|.|.OXOXOXOXOXOXOXOXOXOXOXOXOXOXOXOXOXOXOXOX",
"|.|.|.|.|.|.|.|.|.|.|.|..X{.!.<.| +.%.&.&.&.&.*.&.*.*.*.*.*.*.*.*.*.*.*.*.*.*.*.*.*.&.*.*.&.&.%.+.| [ ' ' C C n v v k k k k b b M M M N M M M M M b k k j p 3 3 3 s B { +.&.$.&.&.&.&.&.$.$.@.$.@.[ L x I.|.OXOXOXOXOXOXOXOXOXOXOXOXOXOXOXOXOXOX|.|.|.|.|.|.|.|.|.|..X[.Q.x.h.l.c.c.c.c.c.v.v.c.v.n.M.U.^.(._._./.q 9 9 9 9 = = = = = = = = = = = = = O & 4.n.b.b.b.b.b.b.b.b.b.b.b.b.b.b.b.a.b.b.n.b.b.v.b.b.v.b.v.v.v.b.v.v.b.b.v.v.v.v.v.v.c.v.v.v.v.c.v.v.v.c.c.c.v.c.c.c.c.c.c.c.c.a.c.c.j.c.c.j.c.j.c.j.c.c.j.j.c.j.j.j.h.h.h.f.f.f.f.f.p.f.p.p.p.p.p.u.u.u.9.9.9.8.8.3.5.W.].|.|.|.|.|.|.|.|.|.|.|.|.|.|.|.|.|.|.OXOXOXOXOXOXOXOXOXOXOXOXOXOXOXOXOXOXOXOX",
"|.|.|.|.|.|.|.|.|.|.|.|.|.[.!.<.} +.%.&.&.&.&.&.*.*.*.&.&.*.&.&.*.*.*.*.*.*.&.&.&.&.&.&.&.&.%.#.O.} ' ' L C B v v v k k k k b b b M M M M M M b b b k s a 3 3 3 a C { +.$.&.&.&.&.&.&.&.&.$.&.$.@.{ L x :. XoXOXOXOXOXOXOXOXOXOXOXOXOXOXOXOXOXOX|.|.|.|.|.|.|.|.|..X X~.Z.h.l.k.k.k.c.c.c.c.v.c.v.x.M.P./._._._.K.9 9 9 9 9 = = = = = = = = = = = = = o & z.n.b.b.b.b.b.b.b.v.b.b.b.b.b.v.b.b.v.b.b.v.b.b.b.v.v.b.v.v.v.b.v.v.b.v.b.v.v.v.v.v.v.v.v.v.c.c.c.v.v.c.c.c.c.v.c.c.c.c.c.h.c.c.c.c.c.c.c.j.c.c.l.l.j.c.l.c.j.j.j.j.h.h.h.h.f.f.h.f.f.p.f.p.p.p.i.u.u.u.9.u.9.8.8.3.5.M.~.].|.|.|.|.|.|.|.|.|.|.|.|.|.|.|.|.|.|.OXOXOXOXOXOXOXOXOXOXOXOXOXOXOXOXOXOXOX",
"|.|.|.|.|.|.|.|.|.|.|.|..X X!.<.o.+.%.&.&.&.&.&.*.&.&.*.&.*.&.&.&.&.*.&.&.&.e.&.&.*.&.*.&.%.#.+.| [ ' L L B n v v v k k k k b b b b z M M M M b b k s a p 3 3 a C { @.$.&.&.&.-.-.-.&.&.&.&.$.$.+.{ C l _ {.OXOXOXOXOXOXOXOXOXOXOXOXOXOXOXOXOXOX|.|.|.|.|.|.|.|.|. X[.Q.x.j.k.c.c.v.k.c.c.c.c.c.n.z.C.E./._._.}.G.9 9 9 9 = = = = = = = = = = = = = = $ 8 Z.n.b.b.b.b.b.b.b.b.b.b.b.b.b.b.b.b.b.b.b.b.b.v.v.v.b.b.v.b.v.v.b.v.v.b.v.v.v.v.v.v.v.c.v.c.v.v.v.c.c.c.v.c.c.c.c.c.c.c.c.c.c.c.c.c.c.a.j.c.j.l.l.c.j.l.c.j.l.l.j.j.h.h.h.h.f.f.f.i.f.f.f.p.p.i.i.u.u.u.9.9.8.8.8.3.3.5.C.].|.|.|.|.|.|.|.|.|.|.|.|.|.|.|.|.|.OXOXOXOXOXOXOXOXOXOXOXOXOXOXOXOXOXOXOXOX",
"|.|.|.|.|.|.|.|.|.|.|.|.|. X!.<.[ O.#.&.&.&.&.&.&.*.*.&.&.*.&.*.*.&.&.&.&.&.&.&.&.&.&.&.*.%.+.O.} ' L L C C n v v v k k k l b b M z M M M b b b k k s a p 3 a B { X.$.*.&.-.-.-.-.-.&.&.&.&.$.$.X.] B l _ `.OXOXOXOXOXOXOXOXOXOXOXOXOXOXOXOXOXOX|.|.|.|.|.|.|.|.|. X~.V.j.k.k.k.c.c.c.k.v.c.c.v.n.M.U.^.)._._.}.e 9 9 9 9 = = = = = = = = = = = = . = $ 5.n.b.b.b.b.n.b.v.b.b.b.b.b.b.b.b.b.b.b.b.b.b.v.v.b.b.v.v.v.b.b.v.b.b.v.v.v.v.v.v.v.v.v.v.v.v.v.c.c.c.c.c.c.c.c.c.c.c.c.h.n.c.c.a.c.c.c.l.c.c.j.j.c.c.j.j.j.c.l.l.j.j.h.h.h.h.h.f.f.f.f.f.f.p.p.p.u.u.u.u.9.u.9.9.8.8.2.2.6.~.].|.|.|.|.|.|.|.|.|.|.|.|.|.|.|.|.OXOXOXOXOXOXOXOXOXOXOXOXOXOXOXOXOXOXOXOX",
"|.|.|.|.|.|.|.|.|.|.|.|.|.[.`.<.~ O.#.&.&.&.&.&.&.&.*.&.&.&.&.&.&.&.&.&.&.&.&.&.&.&.&.&.#.#.O.} ' K L C C B n n v v k b k b b b M M M M M b b b k s a p 3 p M ] X.$.&.-.&.-.-.-.-.-.-.-.&.&.$.$...' M l _ {.oXOXOXOXOXOXOXOXOXOXOXOXOXOXOXOXOXOX|.|.|.|.|.|.|.|.|.[.Q.x.h.l.c.k.k.c.c.c.c.c.c.n.n.M.U./._._.}.^.0 9 9 9 = = = = = = = = = = = . = = O & V.n.b.b.b.b.b.b.b.b.b.b.b.b.b.b.v.b.b.b.b.b.b.v.v.b.v.v.b.v.v.v.b.v.v.b.b.v.v.v.v.v.v.v.v.v.c.v.v.v.c.v.v.c.c.v.c.c.c.c.c.c.c.c.c.c.h.c.l.j.c.c.c.c.j.j.c.j.j.l.j.j.j.h.h.h.f.f.h.f.f.i.p.i.p.i.p.i.u.u.u.u.8.9.9.8.8.3.2.5.W.].|.|.|.|.|.|.|.|.|.|.|.|.|.|.|.|.OXOXOXOXOXOXOXOXOXOXOXOXOXOXOXOXOXOXOXOX",
"|.|.|.|.|.|.|.|.|.|.|.|..X X{.N.o.| +.%.&.&.&.&.&.&.&.&.&.&.&.&.&.&.&.&.&.&.&.&.&.%.%.#.#.+.| [ ' L L C C n n v n v v b b b b M z M N M b M b k k s a p p v ] X.$.&.-.-.-.-.-.e.-.e.-.&.&.&.$.X.] C n l :.{.OXOXOXOXOXOXOXOXOXOXOXOXOXOXOXOXOXOX|.|.|.|.|.|.|..X X~.Z.j.k.l.k.k.c.c.k.c.c.v.c.n.V.M.P./._._._.K.9 9 9 9 9 = = = = . = = . = = = = O $ 8 n.b.b.b.b.b.b.v.b.b.b.b.b.b.b.b.b.b.b.b.v.v.v.b.v.v.v.b.v.b.v.v.v.v.v.b.v.v.b.v.v.v.v.v.v.c.c.v.c.c.c.c.c.c.c.c.c.c.c.c.c.c.c.c.c.c.c.c.c.l.l.l.c.j.j.c.j.l.c.j.j.j.j.h.j.h.f.f.h.f.f.i.f.f.p.i.p.u.u.u.9.9.u.8.9.8.8.3.3.5.M.~. X|.|.|.|.|.|.|.|.|.|.|.|.|.|.|.OXOXOXOXOXOXOXOXOXOXOXOXOXOXOXOXOXOXOXOX",
"|.|.|.|.|.|.|.|.|.|.|.|.|. X XB.o.} O.#.%.%.%.%.&.&.&.&.&.&.&.&.&.&.&.&.&.%.%.%.%.%.#.#.+.| [ [ L L B C B n n n n b b k b b M M B M M M M b b k s a p p s A X.@.$.-.-.-.-.r.e.e.e.e.-.-.&.%.$.{ ' C M x I.XXoXOXOXOXOXOXOXOXOXOXOXOXOXOXOXOXOXOX|.|.|.|.|.|.|. X[.Q.n.h.k.l.k.c.c.c.c.c.c.c.c.n.M.C.E.)._._.}.J.9 9 9 9 = = * 9 9 = = = = = = = = O & 5.n.b.b.b.b.b.b.b.b.b.b.b.b.b.b.b.b.v.v.v.v.b.b.v.v.b.v.b.v.v.b.b.v.b.b.v.b.v.v.v.v.v.v.v.v.v.v.v.c.v.v.c.c.c.c.c.c.c.c.c.c.c.a.c.c.c.j.l.l.l.c.j.j.l.c.j.c.l.j.j.j.j.j.h.f.h.f.f.f.p.f.f.p.f.p.i.u.u.u.u.u.u.8.9.8.8.8.8.2.2.5.!.[.|.|.|.|.|.|.|.|.|.|.|.|.|.|.|.OXOXOXOXOXOXOXOXOXOXOXOXOXOXOXOXOXOXOXOX",
"|.|.|.|.|.|.|.|.|..X|.|.|..X{.R.~ [ | +.#.#.%.%.%.%.%.%.%.%.%.%.&.#.#.&.#.&.%.%.%.#.#.+.| } ' L L L C B n n n n n b n b b M M N B B B M M b b k s a p a V  .X.$.&.-.e.r.r.e.e.r.e.e.-.-.&.#.O.] C M b _ !.oXOXOXOXOXOXOXOXOXOXOXOXOXOXOXOXOXOXOX|.|.|.|.|.|.|.[.~.Z.s.g.l.k.k.c.c.c.c.c.c.c.c.x.M.U.^._._._._.D.9 9 9 9 9 e G.L.q = = = = = . = = O 4 x.n.b.v.b.b.b.b.b.b.v.b.v.b.b.b.b.b.b.v.b.v.v.b.v.v.b.v.v.b.v.b.v.v.v.v.v.v.b.b.v.v.v.v.v.v.v.c.v.v.v.c.c.c.c.c.c.c.c.c.n.c.c.c.c.c.c.c.l.c.l.c.c.c.j.c.c.j.c.j.j.h.c.h.h.f.h.h.f.f.f.f.f.p.p.p.i.u.u.u.9.9.9.9.8.9.8.8.3.3.2.1.M.].].|.|.|.|.|.|.|.|.|.|.|.|.|.|.OXOXOXOXOXOXOXOXOXOXOXOXOXOXOXOXOXOXOXOX",
"|.|.|.|.|.|.|.|.|.|.|.|.|..X X`.:.[ } | +.#.#.#.%.%.%.%.%.%.%.%.#.=.&.#.#.#.%.#.#.+.+.| } ' L L L B C M n n n b n b b M M B B C B N B M M b b k s p p n ] X.@.&.-.-.r.e.r.r.r.r.e.e.-.&.&.+.{ ' m b x :. XOXOXOXOXOXOXOXOXOXOXOXOXOXOXOXOXOXOXOX|.|.|.|.|..X|.~.A.s.h.k.k.k.k.c.k.k.c.c.c.c.c.x.M.U./._._._.}.e 9 9 e D.P.}.}.J.9 = = = = = = = O o E n.n.b.b.b.v.b.b.v.b.b.b.b.b.b.v.v.v.v.b.v.b.v.v.b.b.v.v.b.b.v.v.v.b.b.v.b.v.b.v.v.v.v.v.v.v.v.c.c.v.c.c.c.c.c.j.c.c.c.c.l.h.c.c.c.c.j.l.c.l.l.j.l.j.c.j.j.j.h.h.a.c.h.h.h.h.h.f.f.f.p.p.f.p.p.i.u.u.u.u.9.u.9.9.8.9.8.8.3.3.2.1.5.~..X|.|.|.|.|.|.|.|.|.|.|.|.|.|.OXOXOXOXOXOXOXOXOXOXOXOXOXOXOXOXOXOXOXOX",
"|.|.|.|.|.|.|.|.|.|.|.|.|.|..X`.<.~ [ } | O.+.+.#.=.#.#.#.#.#.#.#.#.#.#.#.#.#.#.%.+.O.} ' L L L N C B n m n n M b b M M B C C C B B B M b b k k a p d D  .@.&.-.-.e.e.r.r.t.t.r.r.-.-.-.%...' C b l _ R.oXOXOXOXOXOXOXOXOXOXOXOXOXOXOXOXOXOXOXOX|.|.|.|.|.|.[.!.x.p.h.k.j.k.k.c.c.c.c.c.c.c.c.x.M.W./._._._.}.r D.K.)._._._.}.e = = = = = = = = O & z.n.b.b.b.b.b.b.b.b.b.b.b.b.v.b.v.v.v.b.b.v.v.b.b.v.v.b.b.v.v.b.b.v.v.b.v.v.v.v.b.v.v.v.v.v.v.v.v.c.v.v.v.c.c.c.c.n.c.c.c.c.c.c.c.h.l.l.c.l.c.j.j.l.j.c.c.j.j.c.h.c.a.h.h.h.h.f.f.p.h.p.f.p.p.p.i.i.u.u.u.u.9.9.8.9.8.8.8.3.3.2.1.W W.]. X|.|.|.|.|.|.|.|.|.|.|.|.|.OXOXOXOXOXOXOXOXOXOXOXOXOXOXOXOXOXOXOXOX",
"|.|.|.|.|.|.|.|.|.|.|.|.|..X|.{.B.P K [ } | O.+.O.+.+.#.+.=.#.=.#.+.=.+.+.+.+.+.O.| } ' K C N L C B m m n n M b b M M B C C C C C C B M M b k s a a V  .X.$.&.-.e.r.r.r.r.t.r.r.e.e.-.%.+.{ L b l x :.`.oXOXOXOXOXOXOXOXOXOXOXOXOXOXOXOXOXOXOXOX|.|.|.|.|.[.~.Q.s.g.g.k.k.k.k.k.c.k.k.c.c.c.c.x.M.P./._._._._.}.}._._._._._.K.9 = 9 = 9 = = = = % 8 n.b.b.b.b.b.b.b.b.b.b.v.v.b.b.b.v.b.b.v.v.v.b.v.v.v.v.v.v.b.v.v.v.b.b.v.v.b.b.v.v.v.v.v.c.v.v.v.c.v.c.v.c.v.c.c.c.c.c.c.c.h.c.c.c.c.c.j.l.l.l.l.c.l.j.j.j.j.j.j.h.c.h.h.h.a.h.f.h.i.f.f.p.p.p.i.i.u.u.u.9.9.9.9.8.9.9.8.8.3.3.2.2.W M.].].|.|.|.|.|.|.|.|.|.|.|.|.|.OXOXOXOXOXOXOXOXOXOXOXOXOXOXOXOXOXOXOXOX",
"|.|.|.|.|.|.|.|.|.|.|.|.|.|.|. X!.,.L ~ [ o.O.| O.O.O.O.+.O.O.+.O.+.O.+.+.O.O.| | } ' L L N N C B M n n n M M b b M B C C C C C C C B M b k k s p v F X.@.&.-.-.r.r.r.t.t.t.t.r.e.-.&.#.} A C N x x I.{.OXOXOXOXOXOXOXOXOXOXOXOXOXOXOXOXOXOXOXOX|.|.|.|.|.[.Q.Z.i.g.k.k.l.k.c.k.c.c.c.c.c.c.c.x.M.P./._._._._._._._._._._.}.r 9 9 = 9 = 9 = = O & 6.n.v.b.v.v.v.v.b.v.v.v.b.b.b.v.b.b.v.v.v.v.b.v.v.v.b.b.v.v.v.b.v.v.v.b.v.v.b.v.b.v.v.b.v.v.v.v.v.v.v.v.c.l.c.c.c.c.c.c.c.c.c.c.c.c.h.c.l.j.c.c.j.l.l.l.l.j.j.j.h.h.h.h.h.h.h.f.f.f.f.f.p.p.p.p.i.i.u.u.u.u.9.9.9.9.9.8.8.3.3.2.2.2.1.4.!. X|.|.|.|.|.|.|.|.|.|.|.|.|.OXOXOXOXOXOXOXOXOXOXOXOXOXOXOXOXOXOXOXOX",
"|.|.|.|.|.|.|.|.|.|.|.|.|.|.|. X`.I.P ~ K [ o.} ~ | | | | | O.| O.O.O.O.O.| | } [ L L L N C N M M n n n M b b b M B C C C C A C C C B M b k s a a C  .X.$.&.-.e.e.r.r.t.t.r.r.r.e.-.%.O.[ L G G G G m.!. XXXoXoXOXOXOXOXOXOXOXOXOXOXOXOXOXOXOXOX|.|.|.|..X[.Q.x.f.h.k.g.l.k.c.k.c.c.k.c.c.v.k.n.M.P./._._._._._._._._._._.E.9 = 9 9 9 9 9 9 = * 8 n.n.b.v.b.b.v.v.v.b.v.v.v.v.b.b.v.v.v.v.b.b.v.v.b.b.v.v.b.b.v.v.b.b.v.v.v.b.v.v.v.v.v.v.c.v.v.v.c.c.v.c.l.c.c.c.c.c.c.c.c.j.c.c.h.c.c.l.l.c.c.l.l.j.l.l.l.j.j.j.h.h.h.h.h.h.f.h.f.f.f.i.p.p.p.p.i.u.u.u.u.9.u.8.8.9.8.8.8.8.3.3.2.1.1.5.C.[.|.|.|.|.|.|.|.|.|.|.|.|.|.OXOXOXOXOXOXOXOXOXOXOXOXOXOXOXOXOXOXOXOX",
"|.|.|.|.|.|.|.|.|.|.|.|.|.|.|..X X`.:.K L K [ K [ } o.[ [ } [ | o.| o.| o.} o.' L L N N N N M M n n M b b M b M B C C C L A C ' C C B M b k a p v ] X.@.&.-.e.e.e.r.t.r.t.r.e.-.-.$.+.{ L C G G P P Q W M.!.~.oXoXXXOXOXOXOXOXOXOXOXOXOXOXOXoXoX|.|.|. X X~.A.f.g.g.k.k.l.k.k.k.k.c.c.c.c.v.v.x.M.P.)._._._._._._._._._.}.F.9 9 9 9 9 9 = 9 O 4 z.n.v.v.v.v.v.b.v.v.b.v.b.b.v.b.b.v.v.b.v.b.v.v.b.b.v.v.v.v.b.b.v.b.b.v.v.b.v.v.v.v.v.v.c.v.c.c.c.l.j.d.d.d.s.f.d.d.c.a.j.l.c.j.c.c.l.c.l.l.j.j.c.j.j.j.c.a.j.j.h.h.h.h.h.h.h.p.f.h.p.i.f.p.p.p.i.i.u.u.u.9.u.8.9.9.8.8.8.3.3.8.3.2.2.1.W M.]..X|.|.|.|.|.|.|.|.|.|.|.|.OXOXOXOXOXOXOXOXOXOXOXOXOXOXOXOXOXOXOXOX",
"|.|.|.|.|.|.|.|.|.|.|.|.|.|.|.|.{.{.!.:.G C L L L K ' L [ P [ [ [ K [ [ [ L L L G N N N M b b b b b b M b M z z C L C C C ' C C C C M b k k p a A  .X.$.&.-.e.-.r.r.t.t.r.e.r.-.*.#.| ' N K G J P P ! Q R 5.M.W.~.[.XXXXXXXXXXXXoXoXoXXXoXoXXXXX[.[.[.].].Q.n.i.g.k.h.g.l.k.k.c.c.c.c.k.c.c.c.x.M.E./._._._._._._._._._.^.q 9 9 9 9 9 9 9 * * ` n.v.b.v.b.b.v.v.b.b.v.v.v.v.v.v.v.b.b.v.v.v.b.b.v.v.v.b.b.v.v.v.b.v.v.v.b.v.v.v.v.v.v.c.n.c.h.x.u.8.3.2.( ( 1.1.1.1.3.9.9.u.p.p.a.a.l.l.j.l.c.j.j.c.l.j.h.h.j.h.h.h.h.h.h.h.h.h.h.p.f.f.p.p.p.p.i.u.u.u.u.9.9.9.9.9.9.8.8.8.3.3.2.2.2.1.( 5.!.[..X|.|.|.|.|.|.|.|.|.|.|.OXOXOXOXOXOXOXOXOXOXOXOXOXOXOXOXOXOXOXOX",
"|.|.|.|.|.|.|.|.|.|.|.|.|.|.|.|..X.X X!.,.:.G K K G L K L L K ~ L L K K K N N N N N b z b b n b b b b b z b M M C C C ' ' C C ' C C M b k s p v ] X.X.$.&.-.-.e.e.r.r.r.r.e.-.-.$.O.' K G G G J P P Q ! ^ ( 1.3.z.x.A.Q.[.~.[.[.[.~.[.~.[.~.[.~.~.~.~.~.Q.A.l.g.g.k.k.k.l.k.k.k.c.l.c.c.c.c.c.x.M.P./._._._._._._._._.}.G.9 9 9 9 9 9 9 9 * 7 V.n.v.v.b.v.b.v.b.v.v.v.b.b.v.b.v.v.v.v.b.b.v.b.v.v.b.b.v.v.b.v.v.v.v.v.b.b.v.b.v.v.c.c.j.p.q.3.W R ` 8 8 8 8 8 8 8 8 I 8 Y / ( 2.3.9.j.l.c.c.j.c.j.c.j.j.h.c.h.h.c.a.h.h.h.h.p.f.h.i.i.f.f.p.i.i.u.u.u.u.9.u.9.9.8.9.8.8.8.3.8.2.3.2.2.1.( W W.]..X|.|.|.|.|.|.|.|.|.|.|.OXOXOXOXOXOXOXOXOXOXOXOXOXOXOXOXOXOXOXOX",
"|.|.|.|.|.|.|.|.|.|.|.|.|.|.|.|.|.|..X X{.!.F.:.G G G G N K N N N N N N N x N z z z z b b b b b b z b z z z z N C C L C C C C C C B M b s a a C ..X.$.&.&.-.-.e.e.r.e.e.e.-.-.%.+.[ C N G G J P P Q Q ! ) ) 7.0.9.i.d.V.Z.n.A.A.A.A.A.A.A.A.A.A.Z.Z.Z.Z.x.x.g.g.g.g.k.k.l.l.k.c.c.l.c.c.c.c.c.x.M.U.^._._._._._._._._.}.q 9 9 9 9 9 9 * * 4 5.n.v.v.c.c.v.v.v.b.v.b.b.v.v.v.b.v.v.b.v.v.b.v.v.v.v.v.b.v.v.v.b.b.v.b.b.v.v.b.v.c.c.d.u.2./ E 8 8 4 4 & 4 $ $ & & 7 8 I 1.3.u.p.s.h.h.l.c.l.j.c.j.j.l.j.j.h.c.h.h.h.p.h.h.f.h.f.h.f.f.f.f.p.p.i.i.u.u.u.u.u.9.9.8.9.8.8.8.8.3.3.3.3.2.2.1.( W M.].|.|.|.|.|.|.|.|.|.|.|.|.OXOXOXOXOXOXOXOXOXOXOXOXOXOXOXOXOXOXOXOX",
"OXOXOXOXOXOXOXOXOXOXOXOXOXOXOXOXOXOXOXoX.X X`.`.R.I.:._ G x b x z x z l z l l l z l z b b z z z z z z z z z N M N C C C C C C C C M M b s p v ] ..@.$.&.&.*.-.-.-.e.e.-.-.*.&.#.| ' N G G J J J P ! ! ) ) 7.0.0.i.h.l.l.n.n.n.n.n.n.n.n.n.n.n.n.l.l.j.g.j.k.p.g.g.j.g.k.k.l.k.k.c.c.c.c.c.c.c.n.V.C.P./._._._._._._._.K.9 9 9 9 = * 4 4 ` q.n.v.c.v.k.c.l.l.v.v.v.v.b.v.v.b.b.v.b.v.v.v.v.v.v.b.b.v.b.v.v.b.v.v.v.b.v.b.v.v.v.a.u.2.R 8 7 4 & $ o $ o & 7 Y 2.6.s.d.n.h.l.j.c.l.c.l.j.c.l.l.j.l.c.j.j.j.h.h.h.a.a.h.h.f.h.h.f.f.f.f.f.f.p.p.i.u.u.u.u.9.9.9.9.9.9.8.8.8.3.8.3.3.3.2.2.( ( W m.[.XXOXOXOXOXOXOXOXOXOXOXOX|.|.|.|.|.|.|.|.|.|.|.|.|.|.|.|.|.|.|.|.",
"OXOXOXOXOXOXOXOXOXOXOXOXOXOXOXOXOXOXOXOX|.|..X X{.{.{.R.:._ x l l l l l l l l l l z l z z z z z z z z z z z z N N N C N C C N B M b b s p p A ] X.$.$.&.&.*.-.-.-.-.-.-.-.*.+.O.' C N G G J J P P Q ! ~ 7.7.0.i.g.l.c.c.v.b.b.b.b.b.b.v.v.v.c.c.k.k.k.k.k.k.i.g.f.j.h.l.j.k.k.l.c.k.c.k.k.c.l.n.V.M.U.^.(._._._._._.}.D.0 9 9 9 * 4 4.V.n.n.b.v.v.v.v.c.l.j.h.h.v.v.v.b.v.v.v.v.v.v.v.v.v.v.v.v.v.v.v.b.b.v.v.b.v.b.v.v.v.l.i.3.T 8 4 & $ o $ & 8 ` 6.x.x.x.n.c.c.d.c.c.c.c.c.l.j.j.c.c.j.l.l.l.j.j.j.h.h.h.h.c.h.h.h.h.f.h.h.h.h.p.i.f.p.i.i.i.u.u.u.9.u.8.9.8.8.8.8.8.8.3.3.2.3.2.2.2.( W 4.!.oXOXOXOXOXOXOXOXOXOXOXOX|.|.|.|.|.|.|.|.|.|.|.|.|.|.|.|.|.|.|.|.",
"OXOXOXOXOXOXOXOXOXOXOXOXOXOXOXOXOXOXOXOX|..X|.|. X.X X{.`.I._ _ l x l b l l l l l l l l l l z N z z z z z z N z N N N B N N M M b l j p 3 s '  .@.$.$.*.&.&.&.*.*.*.*.$.&.$.+.} L N G G G J J P U Q Q ) 7.7.0.f.j.l.c.v.v.b.b.b.b.b.b.b.v.v.v.c.c.k.k.k.k.g.i.f.g.j.j.k.l.j.k.l.c.c.c.c.c.c.c.l.n.C.C.P.^.).}._._._.P.S.0 0 9 * 8 z.n.n.n.b.b.v.v.v.v.c.l.j.j.f.f.l.v.v.b.v.v.b.v.v.v.v.v.v.v.v.v.v.v.v.v.b.v.v.v.v.v.v.l.9.( 8 4 $ $ $ & 4 W z.x.n.n.n.n.c.c.c.c.c.c.c.c.c.c.l.c.l.j.j.c.j.l.l.c.h.h.h.h.h.h.h.f.h.f.f.f.f.f.f.f.f.f.p.p.i.i.u.u.u.u.9.9.9.9.8.8.8.8.3.3.8.3.3.3.2.2.( ( ( W U.XXOXOXOXOXOXOXOXOXOXOXOX|.|.|.|.|.|.|.|.|.|.|.|.|.|.'.|.|.|.|.|.",
"OXOXOXOXOXOXOXOXOXOXOXOXOXOXOXOXOXOXOXOX|.|.|.|..X|.|..X{. X!.I.:._ x x c l l l l l l l l l l l l z l z z z z z z N z z z z z l l j p 3 3 b ] X.@.$.$.$.$.&.&.*.&.&.&.$.$.+.| ' N x G G H J J Y U Q / ( 7.0.p.g.j.c.c.v.b.b.b.b.b.b.b.b.v.v.v.c.c.k.k.k.g.i.i.i.g.h.j.k.k.l.l.l.c.k.k.c.c.k.c.c.n.z.M.K.P.^.).}._.}.D.S.S.S.q e V.n.b.b.b.b.b.b.v.v.v.c.l.j.h.f.p.i.l.v.v.b.v.v.v.v.c.v.v.v.v.v.v.v.v.v.v.v.v.v.v.v.v.d.8.R 8 4 $ $ & E z.x.n.n.c.v.c.c.c.v.c.c.v.c.c.c.j.c.l.l.c.j.c.l.j.c.j.j.h.h.h.h.h.h.f.h.h.h.h.f.h.h.h.f.h.p.f.p.p.i.i.u.9.u.9.u.u.9.8.9.8.8.8.8.3.3.2.3.2.2.2.2.( / W V.XXOXOXOXOXOXOXOXOXOXOXOX|.|.|.|.|.|.|.|.|.|.|.|.|.|.|.|.|.|.|.|.",
"OXOXOXOXOXOXOXOXOXOXOXOXOXOXOXOXOXOXOXOX|.|.|.|.|.|.|.|.|.|.{.{.`.I.,._ _ x x l x l l l l l l l l l x l z z z z z z z z z b l l j p 3 3 a C ] X.@.$.$.$.&.$.$.&.$.$.$.#.+.O.[ L N x G H J J J P U Q / 2.7.0.i.f.h.k.v.v.v.b.b.b.b.b.b.b.v.v.c.c.c.k.k.k.k.i.8.2.f.j.l.j.k.j.j.l.k.c.c.c.c.c.c.c.c.x.V.M.K.L.^./.}.P.S.S.S.S.e M.n.c.b.b.b.b.b.v.v.v.c.v.l.j.j.f.p.u.i.l.v.v.v.v.v.v.v.v.v.v.v.c.v.v.v.v.v.v.v.v.v.v.d.3.E 7 & $ & Y z.x.n.n.c.v.c.v.v.c.c.n.c.c.c.c.c.j.j.c.l.l.j.c.j.l.c.j.j.h.h.h.h.h.h.h.h.h.h.h.h.f.f.h.f.f.h.p.f.p.p.i.u.u.u.u.u.9.9.8.8.9.8.8.8.8.8.3.3.3.2.2.( ( ( / / m.].OXOXOXOXOXOXOXOXOXOXOX|.|.|.|.|.|.|.|.|.|.|.|.|.|.|.|.|.|.|.|.",
"OXOXOXOXOXOXOXOXOXOXOXOXOXOXOXOXOXOXOXOX|.|.|.|.|.|.|.|.|.|.|.|..X X X`.I.:._ l c x c l c l c l l l l l l l z z z z z z l l j j p p 3 3 s ' { X.@.@.$.$.$.$.$.%.$.$.$.+.O.} K N x G H G J J J U Q Q / 2.7.9.i.f.l.k.c.c.v.v.v.v.b.b.v.b.v.c.c.c.k.k.k.k.g.u.2.H f.f.h.l.j.k.k.j.c.c.l.c.k.c.c.k.c.n.n.V.C.C.U.P.E.G.0 S.S.e 4.x.n.v.b.b.b.b.b.v.v.c.v.c.l.j.h.h.p.u.9.f.c.v.c.v.v.v.v.v.v.v.v.v.v.c.v.v.v.v.v.v.v.d.3.J 7 $ $ E z.x.n.v.c.c.c.v.v.c.c.v.c.c.c.c.c.c.c.c.j.c.l.n.c.j.j.c.j.j.h.j.h.h.h.h.h.h.f.h.f.f.h.f.f.f.f.h.f.f.p.i.p.i.i.u.u.9.9.9.8.9.9.9.8.8.8.8.3.2.3.2.2.2.( 2.( / ^ m.].oXOXOXOXOXOXOXOXOXOXOX|.|.|.|.|.|.|.|.|.|.|.|.|.|.|.|.|.|.|.|.",
"OXOXOXOXOXOXOXOXOXOXOXOXOXOXOXOXOXOXOXOX|.|.|.|.|.|.|.|.|.|.|.|.|..X.X X.X X`.I.:.c G x l l j j j j j l l l l l l l l l l j j p p 3 3 3 M A ..+.@.@.@.$.$.$.%.#.+.+.+.O.} ' N x x H H H H J J U Q Q / 1.7.9.u.f.h.l.c.v.v.v.v.v.v.v.c.c.c.c.k.k.k.k.g.g.i.u.5.& 3.f.j.j.k.j.k.l.l.c.c.k.c.c.c.c.k.c.l.x.x.V.V.C.U.r q q e ;.z.n.c.v.v.b.b.b.b.v.v.v.c.l.j.j.h.p.p.u.9.8.f.v.v.v.v.v.v.v.v.v.v.v.v.v.c.v.c.v.v.c.l.3.U 4 & 8 6.x.n.c.v.c.c.v.v.c.c.c.c.c.c.c.c.c.c.c.h.c.c.j.j.c.j.c.j.j.j.j.h.a.h.h.h.h.h.h.f.h.h.h.h.f.h.f.f.f.h.i.f.p.p.p.u.u.u.9.9.u.9.9.9.8.8.8.3.8.3.3.2.3.2.2.2.( ( / / W !.XXOXOXOXOXOXOXOXOXOXOX|.|.|.|.|.|.|.|.|.|.|.|.|.|.|.|.|.|.|.|.",
"OXOXOXOXOXOXOXOXOXOXOXOXOXOXOXOXOXOXOXOX|.|.|.|.|.|.|.|.|.|.|.|.|.|.|..X.X.X XXX`.R.,.:.c c c c j c j j j j j j j j j j j p j p 5 3 3 a C ] ..X.@.@.$.@.@.+.+.+.X.+.X.} [ L N x x 8 G H H J U U U T / 1.3.8.9.i.f.j.l.c.c.c.k.c.c.c.c.c.c.k.k.g.k.g.g.g.u.9.` $ J z.h.g.k.l.j.k.c.l.c.c.k.c.k.c.c.c.c.k.x.x.x.V.C.M.4.m.V.z.n.n.v.v.v.v.v.v.v.v.c.c.l.l.h.h.f.p.u.9.9.8.9.j.v.v.v.c.v.c.c.v.c.v.v.c.v.v.v.v.v.n.i.T 4 4 W V.n.c.v.c.c.v.v.c.v.c.c.c.c.c.c.c.c.c.c.j.j.c.l.j.c.j.c.j.j.j.h.h.h.c.h.h.a.h.a.h.h.h.h.f.h.f.f.f.f.h.f.p.f.p.p.p.i.u.u.u.u.9.9.8.8.9.8.8.8.3.3.3.3.3.2.3.2.( ( / / ` W.XXoXOXOXOXOXOXOXOXOXOX|.|.|.|.|.|.|.|.|.|.|.|.|.|.|.|.|.|.|.|.",
"OXOXOXOXOXOXOXOXOXOXOXOXOXOXOXOXOXOXOXOX|._.|.|.|.|.|.|.|.|.|.|.|.|.|.|.|.|.|..XoXoX X{.!.I.:._ c c a j j j j j j j j j p p p p p 3 p x A { ..X.X.X.@.+.+.@.+.@.O.O.} [ K N x x 8 G H H J J J U U ^ ^ ( 3.3.9.u.p.f.h.h.h.l.k.l.k.l.k.k.h.h.g.g.g.g.i.g.0.q.E $ 4 6.s.j.j.k.k.j.l.l.c.l.c.c.c.c.k.c.c.c.c.c.n.n.n.n.x.n.x.h.l.l.c.c.v.v.v.v.v.v.c.l.l.h.h.f.f.i.u.9.8.3.3.9.c.v.c.v.v.v.v.c.v.c.v.c.v.v.c.v.v.l.( 8 8 q.x.n.c.c.c.c.c.c.n.c.c.c.c.c.c.a.c.c.j.j.j.c.c.l.l.j.c.j.l.j.j.j.j.h.h.h.h.h.h.f.h.h.f.a.h.h.h.f.f.f.f.h.i.f.f.p.i.i.u.u.u.u.9.u.9.9.8.9.8.8.8.3.8.3.3.2.2.2.( ( ( / / ` C.XXoXOXOXOXOXOXOXOXOXOX|.|.|.|.|.|.|.|.|.|.|.|.|.|.|.|.|.|.|.|.",
"OXOXOXOXOXOXOXOXOXOXOXOXOXOXOXOXOXOXOXOX|.|.|.|.|.|.|.|.|.|.|.|.|.|.|.|.|.|.|.|.OXOXOXoXOX X`.R.I.:._ c 5 5 5 j j j j p 5 p 5 5 5 3 p M ' { ..X.+.| +.X.X.O.X.O...| [ ' C z x x x 7 H H H J I U Y Y ^ / 1.3.3.9.u.p.f.h.f.h.h.h.h.f.h.f.g.g.g.i.i.0.0.i.0.q.8 $ $ 8 z.h.h.j.l.k.k.l.l.l.k.c.k.c.c.c.c.c.c.c.c.v.c.c.c.c.c.h.h.j.c.v.c.v.v.c.c.l.c.j.g.h.h.p.p.u.9.9.8.3.2.2.i.c.v.c.v.v.v.v.c.v.c.c.c.c.v.v.v.d.^ ^ s.n.v.c.c.v.c.c.v.c.c.c.c.c.c.c.c.c.c.c.c.j.c.d.l.j.j.c.c.j.j.j.j.h.h.h.h.h.h.h.h.h.h.h.h.c.h.h.h.f.h.f.f.f.f.f.p.i.i.i.u.u.u.9.u.0.8.8.9.9.8.8.3.8.3.2.3.2.3.( 1.( ( / / ` m.[.oXOXOXOXOXOXOXOXOXOX|.|.|.|.|.|.|.|.|.|.|.|.|.|.|.|.|.|.|.|.",
"OXOXOXOXOXOXOXOXOXOXOXOXOXOXOXOXOXOXOXOX|.|.|.|.|.|.|.|.|.|.|.|.|.|.|.|.|.|.|.|.OXOXOXOXOXoXoXoX X{.!.I.:.;.c c c j 5 5 5 j 5 5 5 6 z C ] ........@.O.X.O.....| } [ ' L N l j c _ H H H H I I I U Y ^ R ( 1.2.3.8.9.u.u.p.p.p.i.i.f.i.i.f.0.0.0.0.0.0.0.i.q.8 $ o $ 5.s.h.l.l.j.l.l.k.c.c.c.c.c.c.c.c.c.k.c.v.c.c.c.c.c.c.f.h.l.l.k.c.c.k.c.l.l.j.h.h.f.f.p.u.9.8.8.3.2.1.( 3.l.k.v.c.c.c.c.v.c.v.c.c.v.c.c.c.l.h.j.l.c.c.c.v.c.c.c.c.c.c.c.c.c.c.c.c.h.c.j.l.l.c.c.j.c.l.j.h.j.l.j.h.h.h.h.h.h.h.h.h.h.h.h.h.h.h.j.h.f.f.f.f.h.p.f.f.p.i.i.u.u.u.9.9.9.9.9.9.8.8.8.8.3.3.3.3.2.2.2.( 2.( / / R 4.~.oXOXOXOXOXOXOXOXOXOX|.|.|.|.|.|.|.|.|.|.|.|.|.|.|.|.|.|.|.|.",
"OXOXOXOXOXOXOXOXOXOXOXOXOXOXOXOXOXOXOXOX|.|.|.|.|.|.|.|.|.|.|.|.|.|.|.|.|.|.|.|.OXOXOXOXOXOXOXOXOXOXOXoX{.`.R.I.,.:._ _ _ :.:.,.I.B.K A { { ................} } { [ C G b j p x ,.C.m.8 I I I I I Y Y R ^ / 1.1.3.8.8.8.8.9.9.9.9.9.9.8.9.0.0.7.7.7.7.0.0.q.8 $ . o 7 q.g.h.k.k.l.l.l.l.c.k.c.c.k.c.c.c.v.k.k.v.c.v.c.c.j.f.f.j.j.j.l.l.l.j.j.j.h.f.f.p.p.u.9.9.8.8.2.1.( ( 2.0.k.k.c.v.c.c.c.c.c.v.c.c.v.c.c.v.c.c.c.c.c.c.l.c.n.c.c.c.c.c.c.c.c.j.c.c.j.j.c.l.j.l.l.h.j.j.j.h.h.h.h.h.h.h.h.h.h.h.h.a.h.h.h.a.h.h.h.f.h.h.f.i.f.f.p.p.i.i.u.u.u.9.9.9.9.8.9.8.8.8.8.3.3.3.2.2.2.( 2.( ( / ^ R 4.~.oXOXOXOXOXOXOXOXOXOX|.|.|.|.|.|.|.|.|.|.|.|.|.|.|.|.|.|.|.|.",
"OXOXOXOXOXOXOXOXOXOXOXOXOXOXOXOXOXOXOXOX|.|.|.|.|.|.|.|.|.|.|.|.|.|.|.|.|.|.|.|.OXOXOXOXOXOXOXOXOXOXOXOXoXoXoXoXXX{.{.{.`.`.{.{.{.R.K ' ] { { ....| ..} } } } [ ' ' C z l j c :.`.XX].!.C.4.E E I I Y Y Y R ^ / ( 1.2.2.3.2.3.8.3.3.3.7.2.3.2.2.7.) o.0.p.q.8 o . . $ E z.h.h.l.j.l.l.l.l.c.k.c.c.c.c.c.c.c.c.c.c.c.c.c.l.p.p.f.h.h.j.h.h.h.h.f.p.f.p.i.u.9.9.8.3.2.1.( ( / ( 0.g.k.l.c.c.c.c.c.c.c.c.v.k.v.c.c.c.c.c.c.c.c.c.c.l.c.c.c.c.c.c.c.h.c.c.j.c.j.l.j.h.c.h.c.j.j.j.h.h.h.c.h.h.h.h.f.a.h.h.h.h.h.h.h.h.h.h.f.f.h.f.p.f.p.p.i.i.u.u.u.u.9.9.u.9.8.9.8.8.8.8.8.8.3.3.2.2.2.( ( ( / / R 5.!.oXOXOXOXOXOXOXOXOXOX|.|.|.|.|.|.|.|.|.|.|.|.|.|.|.|.|.|.|.|.",
"OXOXOXOXOXOXOXOXOXOXOXOXOXOXOXOXOXOXOXOX|.|.|.|.|.|.|.|.|.|.|.|.|.|.|.|.|.|.|.|.OXOXOXOXOXOXOXOXOXOXOXOXOXOXOXOXOXOXOXoX|.|..X.X XT.N ' ] { | { { { } { { [ { ' ' L N z j j _ !.oXOXOXoXXX[.!.C.4.` E E E U T Y R ^ ^ / ( ( ( ( 2.1.2.( ( ( / / / ^ ) 9.i.z.8 o . . . $ 5.s.h.h.k.k.k.l.l.c.c.c.c.k.c.c.c.c.v.c.v.c.c.c.c.i.i.p.p.h.f.f.f.f.i.f.p.p.u.9.9.8.3.2.2.1.( / R / / ) 0.g.k.k.c.c.c.c.c.c.c.v.c.c.c.c.c.c.c.v.c.c.v.c.l.c.j.c.c.j.c.j.j.c.j.c.j.h.j.j.h.h.h.h.h.h.h.h.h.h.a.a.h.h.h.h.h.h.h.h.h.h.h.h.h.h.h.f.f.f.f.f.p.p.p.i.i.u.u.u.9.u.u.9.8.9.9.8.8.8.3.3.3.2.2.2.2.2.( ( ( / ^ R ` W.XXOXOXOXOXOXOXOXOXOX|.|.|.|.|.|.|.|.|.|.|.|.|.|.|.|.|.|.|.|.",
"OXOXOXOXOXOXOXOXOXOXOXOXOXOXOXOXOXOXOXOX|.|.|.|.|.|.|.|.|.|.|.|.|.|.|.|.|.|.|.|.OXOXOXOXOXOXOXOXOXOXOXOXOXOXOXOXOXOXOXOX|.|.|.|.{.I.K A ] { { { { { { [ [ ' ' ' L N z l j c I.XXOXOXOXOXOXoXoXXX[.!.U.M.4.` W E Y Y T T T T R R R R R R ^ R Q U Q U Q 7.0.q.8 o . . X o 4 6.s.j.j.k.l.l.l.l.k.c.c.c.c.c.c.c.v.c.c.c.v.c.l.u.9.u.p.f.f.f.f.f.p.p.u.u.9.9.8.3.3.2.1.( / ^ / ^ / ) 7.i.k.k.k.c.c.c.c.c.v.k.k.c.k.c.k.c.c.k.c.c.c.l.c.c.l.c.c.c.h.c.c.h.j.l.j.j.j.j.h.h.h.h.h.h.h.h.h.h.h.h.h.h.h.h.c.h.h.h.h.h.h.h.f.h.f.h.h.f.i.f.p.p.i.i.u.u.u.9.u.9.9.9.9.9.8.8.8.8.8.3.2.3.2.2.2.( ( ( ( / ^ T ` W.XXOXOXOXOXOXOXOXOXOX|.|.|.|.|.|.|.|.|.|.|.|.|.|.|.|.|.|.|.|.",
"OXOXOXOXOXOXOXOXOXOXOXOXOXOXOXOXOXOXOXOX|.|.|.|.|.|.|.|.|.|.|.|.|.|.|.|.|.|.|.|.OXOXOXOXOXOXOXOXOXOXOXOXOXOXOXOXOXOXOXOX|.|.|.|.{.R._ C ' ] { { [ { [ ' ] [ ' L N z z j j :.`.oXOXOXOXOXOXOXOXOXOXoXXXXX!.!.C.M.m.m.` E ` ` E T T Y Y Y Y Y I H I I U 7.9.q.E o . . . . $ 8 q.f.h.l.l.l.k.c.l.c.c.c.c.c.c.c.c.c.c.v.c.c.c.i.9.9.u.u.9.i.u.u.p.9.9.9.8.8.3.2.2.( / / R R ^ ^ ^ ( ) 0.g.k.k.k.k.c.k.c.k.c.c.c.c.c.c.c.k.v.c.c.c.l.c.c.l.c.j.c.c.j.h.c.j.j.j.j.j.h.a.c.h.h.h.h.h.h.h.h.h.a.h.h.h.a.a.h.h.h.h.h.h.h.h.f.h.p.i.f.p.f.p.i.i.u.u.u.u.u.9.u.9.8.9.8.9.8.8.8.3.3.3.2.2.2.2.2.( ( / / / R ` C.XXOXOXOXOXOXOXOXOXOX|.|.|.|.|.|.|.|.|.|.|.|.|.|.|.|.|.|.|.|.",
"OXOXOXOXOXOXOXOXOXOXOXOXOXOXOXOXOXOXOXOX|.|.|.|.|.|.|.|.|.|.|.|.|.|.|.|.|.|.|.|.OXOXOXOXOXOXOXOXOXOXOXOXOXOXOXOXOXOXOXOX|.|.|.|.{.R.c N ' ' ] [ [ [ ] [ ' ' L C N z l j _ I.oXOXOXOXOXOXOXOXOXOXOXOXOXoX X X[.].].!.!.W.U.C.M.m.` 4.` E ` ` 4.8 8 8 1.3.8.q.8 $ . . . . X $ 8 z.f.h.k.k.l.c.l.l.c.c.c.l.c.c.c.c.v.c.c.c.c.h.3.8.9.9.9.9.u.9.9.9.8.8.3.3.2.1.( / ^ R R R ^ ^ / ) 2.7.0.g.k.k.k.k.c.c.k.c.k.c.c.k.l.c.c.c.c.l.c.c.l.c.l.l.j.c.l.l.j.j.j.j.h.h.h.h.h.h.h.h.h.h.h.h.f.h.h.h.h.h.h.h.h.h.h.h.f.h.h.h.f.f.f.f.f.f.i.p.p.p.u.u.u.u.9.9.u.9.8.9.9.8.8.8.8.3.3.3.3.3.2.2.3.( ( ( / / R R E C.XXOXOXOXOXOXOXOXOXOX|.|.|.|.|.|.|.|.|.|.|.|.|.|.|.|.|.|.|.|.",
"OXOXOXOXOXOXOXOXOXOXOXOXOXOXOXOXOXOXOXOX|.|.|.|.|.|.|.|.|.|.|.|.|.|.|.|.|.|.|.|.OXOXOXOXOXOXOXOXOXOXOXOXOXOXOXOXOXOXOXOX|.|.|.|..X`.:.z N ' ' L ] ' ' L ' L L N z l j 5 ,. XoXOXOXOXOXOXOXOXOXOXOXOXOXOX|.|.|.|.|. X|.[. X].~.].].~.~.!.!.!.!.!.Q.W.M.6.9.q.5.o o . . . . X $ E z.f.h.j.l.l.l.l.l.c.k.c.k.c.v.c.c.c.c.v.c.c.3.2.3.8.8.8.8.8.8.3.3.3.2.1.( / ^ R R T T T Q ^ ^ ^ ) 7.0.i.g.h.k.k.k.c.c.c.c.c.c.c.c.l.c.c.c.l.n.c.l.j.c.c.j.l.l.j.j.j.j.j.h.j.h.h.h.h.h.h.a.h.h.h.h.h.h.h.h.h.h.a.h.h.h.a.h.h.f.f.h.f.f.f.f.f.p.p.p.u.u.u.9.9.u.9.9.8.8.9.9.8.8.3.8.3.3.3.3.3.2.2.( 2.( / / ^ R R R C.XXOXOXOXOXOXOXOXOXOX|.|.|.|.|.|.|.|.|.|.|.|.|.|.|.|.|.|.|.|.",
"OXOXOXOXOXOXOXOXOXOXOXOXOXOXOXOXOXOXOXOX|.|.|.|.|.|.|.|.|.|.|.|.|.|.|.|.|.|.|.|.OXOXOXOXOXOXOXOXOXOXOXOXOXOXOXOXOXOXOXOX|.|.|.|.|.{.,.j z C ' ' ' [ ' C L L N z N l p _ !.oXOXOXOXOXOXOXOXOXOXOXOXOXOXOX|.|.|.|.|.|..X.X X|..X|..X X[. X].|.|.].oXXXQ.6.8.q.5.$ o . . . . . X & E z.h.h.l.j.k.l.l.c.c.c.c.c.c.c.v.c.c.c.c.c.p.2.2.3.3.3.3.8.3.2.2.1.( / / ^ R T T T T ^ ^ ^ ^ / ( ) 7.0.i.g.h.k.k.c.l.l.l.c.l.c.c.l.c.l.l.l.l.l.l.j.c.j.c.j.j.j.h.j.h.j.j.h.h.h.a.h.h.h.h.a.h.h.a.h.a.c.h.h.h.a.h.h.h.f.h.f.h.f.f.f.f.i.i.f.p.p.p.u.u.u.u.u.8.8.9.8.8.8.8.8.3.3.3.3.3.2.2.2.2.2.( ( ( / / ^ T R ` V.XXOXOXOXOXOXOXOXOXOX|.|.|.|.|.|.|.|.|.|.|.|.|.|.|.|.|.|.|.|.",
"OXOXOXOXOXOXOXOXOXOXOXOXOXOXOXOXOXOXOXOX|.|.|.|.|.|.|.|.|.|.|.|.|.|.|.|.|.|.|.|.OXOXOXOXOXOXOXOXOXOXOX|.OXOXOXOXOXOXOXOX|.|.|.|.|.{.R._ x N L L K L C L L N N z l j 5 :. XoXOXOXOXOXOXOXOXOXOXOXOXOXOXOX.X|.|.|.|.|.|.|.|.|.|.|.|.|.|.|.|.|.|.|.OXXX~.6.8.q.5.$ o . . . . . . X $ E z.h.h.j.k.l.l.c.k.c.c.c.c.c.c.c.c.c.c.l.h.2.1.1.1.2.2.2.1.1.( / / ^ R T T T T T T Q Q Q ^ / / 1.7.0.i.g.h.h.l.l.c.l.l.l.l.l.l.l.l.l.c.l.l.l.j.c.j.j.j.j.j.l.j.j.j.h.h.h.a.a.h.h.h.h.f.h.h.h.h.h.h.h.h.h.h.c.h.h.h.h.f.h.f.f.f.f.f.f.f.f.p.p.u.u.u.u.9.8.9.9.3.8.8.8.8.8.3.3.3.3.3.3.2.2.2.1.( ( ( / / ^ R T ` M.XXOXOXOXOXOXOXOXOXOX|.|.|.|.|.|.|.|.|.|.|.|.|.|.|.|.|.|.|.|.",
"|.|.|.|.|.|.|.|.|.|.|.|.|.|.|.|.|.|.|.|.OXOXOXOXOXOXOXOXOXOXOXOXOXOXOXOXOXOXOXOX|.|.|.|.|.|.|.|.|.|.|.|.|.|.|.|.|.|.|.|.OXOXOXOXOXoXXXI.x z N L L L C L N N z l j j _ R. X|.|.|.|.|.|.|.|.|.|.|.|.|.|.|.OXOXOXOXOXOXOXOXOXOXOXOXOXOXOXOXOXOXOXOX|.[.~.6.8.q.6.& o . . . . . .   X $ 8 q.s.h.h.k.l.l.l.k.c.c.c.c.c.c.c.c.c.v.l.9./ / ( ( ( / / / ^ ^ R T T T T T T T T ^ R ^ ^ ^ / / 7.0.0.i.g.h.h.k.l.k.l.k.j.l.k.l.l.l.l.l.l.l.l.l.j.j.j.j.j.g.g.j.h.h.h.h.h.c.h.h.h.h.h.h.h.h.h.a.h.h.h.h.h.h.h.f.f.f.f.h.h.f.f.i.f.p.f.p.p.i.u.u.9.9.9.8.9.8.8.8.8.3.3.3.3.2.2.3.2.2.2.2.2.1.2.( / / / R R T ` m.].|.|.|.|.|.|.|.|.|.OXOXOXOXOXOXOXOXOXOXOXOXOXOXOXOXOXOXOXOX",
"|.|.|.|.|.|.|.|.|.|.|.|.|.|.|.|.|.|.|.|.OXOXOXOXOXOXOXOXOXOXOXOXOXOXOXOXOXOXOXOX|.|.|.|.|.|.|.|.|.|.|.|.|.|.|.|.|.|.|.|.OXOXOXOXOXOXOX`.:.x b N N N N N N l l l p c ,.`. X|.|.|.|.|.|.|.|.|.|.|.|.|.|.|.OXOXOXOXOXOXOXOXOXOXOXOXOXOXOXOXOXOXOXOX|.[.!.6.8.q.6.& o . . . . . .     . $ 8 6.s.h.j.h.j.j.l.l.l.c.k.c.k.c.c.c.l.k.j.3.^ T R R R R R R T T T T T T T T T T R Q ^ ^ ^ ^ ^ 2.7.0.i.f.h.h.k.k.l.l.k.k.l.l.l.k.l.l.l.l.l.l.j.j.j.j.h.j.j.j.h.h.h.h.h.h.h.a.h.h.h.h.h.h.h.h.h.h.h.h.h.h.f.h.f.h.f.f.f.f.p.h.f.f.p.p.p.i.u.u.9.u.9.8.9.9.8.8.3.3.3.3.3.3.3.3.3.2.2.2.2.1.1.( ( / ^ ^ R R T R m.].|.|.|.|.|.|.|.|.|.OXOXOXOXOXOXOXOXOXOXOXOXOXOXOXOXOXOXOXOX",
"|.|.|.|.|.|.|.|.|.|.|.|.|.|.|.|.|.|.|.|.OXOXOXOXOXOXOXOXOXOXOXOXOXOXOXOXOXOXOXOX|.|.|.|.|.|.|.|.|.|.|.|.|.|.|.|.|.|.|.|.OXOXOXOXOXOXOX.X`.:.c k l b z z z l l j a _ T. X.X|.|.|.|.|.|.|.|.|.|.|.|.|.|.|.OXOXOXOXOXOXOXOXOXOXOXOXOXOXOXOXOXOXOXOX|.[.!.6.8.9.6.7 o . . . . . . .     X o 4 W s.f.j.h.k.k.l.k.l.c.c.c.c.k.c.l.l.l.h.1.T T T T T T T T T Y T Y T T T T T Q Q ^ ^ Q ^ Q 7.7.0.u.p.h.h.j.l.l.j.k.k.j.l.k.l.l.j.l.j.j.j.j.j.j.j.j.j.j.h.h.h.h.h.h.h.f.f.h.h.h.h.h.h.h.h.h.h.h.f.h.h.h.f.p.h.h.f.f.h.f.i.p.p.p.p.u.u.u.u.u.9.9.9.9.8.8.8.8.3.8.3.3.3.3.3.2.2.2.2.2.1.1.( / / ^ ^ R R T Y m.]..X|.|.|.|.|.|.|.|.OXOXOXOXOXOXOXOXOXOXOXOXOXOXOXOXOXOXOXOX",
"|.|.|.|.|.|.|.|.|.|.|.|.|.|.|.|.|.|.|.|.OXOXOXOXOXOXOXOXOXOXOXOXOXOXOXOXOXOXOXOX|.|.|.|.|.|.|.|.|.|.|.|.|.|.|.|.|.|.|.|.OXOXOXOXOXOXOXOX.X!._ c j l l l l j j 5 c I.{..X|.|.|.|..X|.|.|.|.|.|.|.|.|.|.|.OXOXOXOXOXOXOXOXOXOXOXOXOXOXOXOXOXOXOXOX|.[.!.6.8.8.q.8 o . . . . . . . . .   X o $ W z.s.h.h.l.l.l.l.l.l.l.c.c.k.c.l.c.l.f.( T Y T Y Y T T Y Y Y Y Y Y Y Q T T R Q Q ^ Q ^ 2.7.0.0.i.f.f.h.k.j.k.j.l.k.j.j.k.l.j.j.j.j.j.j.j.j.h.j.j.h.h.h.h.h.h.h.h.h.h.h.a.h.h.h.h.h.h.h.h.h.h.h.h.f.f.h.f.p.f.p.p.f.f.p.p.p.i.u.u.u.9.9.9.9.9.3.8.8.8.3.3.3.3.3.3.2.2.2.2.2.2.2.1.1.( / / / R R R T R m.].|.|.|.|.|.|.|.|.|.OXOXOXOXOXOXOXOXOXOXOXOXOXOXOXOXOXOXOXOX",
"|.|.|.|.|.|.|.|.|.|.|.|.|.|.|.|.|.|.|.|.OXOXOXOXOXOXOXOXOXOXOXOXOXOXOXOXOXOXOXOX|.|.|.|.|.|.|.|.|.|.|.|.|.|.|.|.|.|.|.|.OXOXOXOXOXOXOXOXoXoX`.:.c j j j j j 5 c N.`..X|.|.|.|.|.|.|.|.|.|.|.|.|.|.|.|.|.OXOXOXOXOXOXOXOXOXOXOXOXOXOXOXOXOXOXOXOX|.[.W.6.3.9.z.8 $ . . . . . . . .     . . X $ 4 5.z.h.k.h.l.j.k.l.l.l.l.l.k.k.c.l.k.p.( T Y Y Y Y Y Y Y Y Y Y Q T T T Q Q Q R T T ^ ( 3.0.0.i.p.f.j.j.k.k.k.j.k.j.j.j.j.k.l.j.j.j.j.j.j.g.l.d.j.h.h.h.h.h.a.a.h.h.h.h.h.h.h.h.h.h.h.h.a.h.f.f.h.f.h.p.f.f.f.p.p.p.p.p.u.u.u.9.u.9.9.9.8.8.8.8.8.3.3.3.2.3.2.3.2.2.2.2.2.2.1.1.R / / / R R R T R E m.]. X X|.|.|.|.|.|.|.OXOXOXOXOXOXOXOXOXOXOXOXOXOXOXOXOXOXOXOX",
"|.|.|.|.|.|.|.|.|.|.|.|.|.|.|.|.|.|.|.|.OXOXOXOXOXOXOXOXOXOXOXOXOXOXOXOXOXOXOXOX|.|.|.|.|.|.|.|.|.|.|.|.|.|.|.|.|.|.|.|.OXOXOXOXOXOXOXOXOXOXoX`.I._ c c c c _ R.{. X.X|.|.|.|.|.|.|.|.|.|.|.|.|.|.|.|.|.OXOXOXOXOXOXOXOXOXOXOXOXOXOXOXOXOXOXOXOX|.].~.6.8.9.q.5.$ . . . . . . . . .   .     X . & I q.s.f.j.h.l.l.l.l.k.l.j.j.l.k.j.h.9.( Y Y Y Y U Y Y Y U Y Y Y Q T Q T T Q Y T / ( 3.8.9.u.p.f.h.h.k.l.j.j.l.j.j.h.j.h.l.j.j.j.j.g.h.j.g.h.j.h.h.h.h.h.h.h.h.h.h.h.h.h.h.h.h.h.h.h.f.h.f.h.i.i.f.f.f.f.p.p.p.i.p.p.u.u.9.9.9.9.9.3.8.8.8.9.3.8.3.3.3.3.3.2.2.2.2.2.1.1.1.1.1./ / / ( R R T T W m.].|.|.|.|.|.|.|.|.|.OXOXOXOXOXOXOXOXOXOXOXOXOXOXOXOXOXOXOXOX",
"|.|.|.|.|.|.|.|.|.|.|.|.|.|.|.|.|.|.|.|.OXOXOXOXOXOXOXOXOXOXOXOXOXOXOXOXOXOXOXOX|.|.|.|.|.|.|.|.|.|.|.|.|.|.|.|.|.|.|.|.OXOXOXOXOXOXOXOXOXOXOXoXXX`.R.I.,.T.{.oX|..X|.|.|.|.|.|.|.|.|.|.|.|.|.|.|.|.|.|.OXOXOXOXOXOXOXOXOXOXOXOXOXOXOXOXOXOXOXOX|.[.~.6.8.9.9.5.$ . . . . . . . . . .     .     X $ 4 W z.s.h.h.h.l.j.j.k.l.k.l.j.h.h.i.9./ Y Y U U U U U U U Y Y Y T T T T Y Y Q / 2.3.8.u.u.i.f.f.k.h.k.l.k.j.l.j.j.j.j.g.j.j.j.h.j.j.j.j.h.h.h.h.h.h.h.h.h.h.h.a.h.h.h.f.h.h.h.h.f.f.f.f.f.f.f.p.p.i.p.p.p.p.p.u.u.u.9.u.9.9.9.8.8.8.8.3.3.3.3.3.2.3.2.2.2.2.2.1.1.1.1.1./ 1./ / R R R R T T ` M.]..X|.|.|.|.|.|.|.|.OXOXOXOXOXOXOXOXOXOXOXOXOXOXOXOXOXOXOXOX",
"|.|.|.|.|.|.|.|.|.|.|.|.|.|.|.|.|.|.|.|.OXOXOXOXOXOXOXOXOXOXOXOXOXOXOXOXOXOXOXOX|.|.|.|.|.|.|.|.|.|.|.|.|.|.|.|.|.|.|.|.OXOXOXOXOXOXOXOXOXOXOXOXOXoXoXoXoXoXOXOX|.|.|.|.|.|.|.|._.|.|.|.|.|.|.|.|.|.|.|.OXOXOXOXOXOXOXOXOXOXOXOXOXOXOXOXOXOXOXOX|. X~.M.3.9.9.6.4 . . . o . . . . . .   .   . X     X $ 4 W z.s.h.h.h.l.h.k.h.h.j.j.f.f.u.8./ Y U Y U Y U Y U Y U Y Q Y Q Y Y T ^ / ( 3.8.9.u.i.f.f.h.h.l.l.k.h.g.j.j.j.j.j.h.l.h.j.g.j.h.h.h.h.a.a.c.h.h.h.h.h.h.h.h.h.h.h.h.f.f.f.h.p.f.f.i.f.f.f.p.p.p.p.u.u.z.u.q.q.9.8.8.8.8.8.8.8.3.8.3.8.3.3.3.3.2.2.2.2.1.1.1.1.1./ 1./ / ^ ^ R R R R T ` M.]..X|.|.|.|.|.|.|.|.OXOXOXOXOXOXOXOXOXOXOXOXOXOXOXOXOXOXOXOX",
"|.|.|.|.|.|.|.|.|.|.|.|.|.|.|.|.|.|.|.|.OXOXOXOXOXOXOXOXOXOXOXOXOXOXOXOXOXOXOXOX|.|.|.|.|.|.|.|.|.|.|.|.|.|.|.|.|.|.|.|.OXOXOXOXOXOXOXOXOXOXOXOXOXOXOXOXoXOXOXOX|.|.|.|.|.|.|.|.|.|.|.|.|.|.|.|.|.|.|.|.OXOXOXOXOXOXOXOXOXOXOXOXOXOXOXOXOXOXOXOX|. X~.M.3.9.u.q.8 o . . . o . . . . . . .         .     X $ 4 W z.s.h.j.h.l.h.l.h.f.f.p.9.9.3./ Y Y U U U U U U Y Y Y Y Y Y T Q ^ ( ( 3.8.8.u.i.i.h.h.h.h.h.j.h.j.g.j.j.j.g.j.j.j.j.j.j.h.h.h.h.h.h.h.h.h.h.h.h.h.h.h.h.h.h.h.f.f.i.f.f.p.f.f.p.p.p.p.p.p.z.q.6.W E I T 9.9.8.8.8.8.3.8.3.8.3.3.8.3.2.3.2.2.2.2.2.1.1.1.1./ 1./ / ^ ^ R R R R R W C.].|.|.|.|.|.|.|.|.|.OXOXOXOXOXOXOXOXOXOXOXOXOXOXOXOXOXOXOXOX",
"|.|.|.|.|.|.|.|.|.|.|.|.|.|.|.|.|.|.|.|.OXOXOXOXOXOXOXOXOXOXOXOXOXOXOXOXOXOXOXOX|.|.|.|.|.|.|.|.|.|.|.|.|.|.|.|.|.|.|.|.OXOXOXOXOXOXOXOXOXOXOXOXOXOXOXOXOXOXOXOX|.|.|.|.|.|.|.|.|.|.|.|.|.|.|.|.|.|.|.|.OXOXOXOXOXOXOXOXOXOXOXOXOXOXOXOXOXOXOXOX|. X].V.3.8.9.q.E $ . . o o o . . . . . .     .       . .   o $ 4 W q.s.d.h.j.h.j.f.h.i.u.9.3.( Q Y U U Y U Y U U U U U U Y T Q ^ ( 2.2.8.8.9.i.p.f.g.j.h.l.j.j.j.j.j.j.j.j.j.j.j.j.g.j.h.j.h.h.h.h.h.h.h.h.h.h.h.h.h.f.f.f.f.i.f.f.f.p.f.p.p.p.p.p.z.q.6.5.8 7 4 & 4 8 3.8.8.3.8.3.3.3.3.3.3.3.3.3.3.2.2.2.1.2.1.1.1.1./ 1./ / / R ^ R R T R R E C.].|.|.|.|.|.|.|.|.|.OXOXOXOXOXOXOXOXOXOXOXOXOXOXOXOXOXOXOXOX",
"|.|.|.|.|.|.|.|.|.|.|.|.|.|.|.|.|.|.|.|.OXOXOXOXOXOXOXOXOXOXOXOXOXOXOXOXOXOXOXOX|.|.|.|.|.|.|.|.|.|.|.|.|.|.|.|.|.|.|.|.OXOXOXOXOXOXOXOXOXOXOXOXOXOXOXOXOXOXOXOX|.|.|.|.|.|.|.|.|.|.|.|.|.|.|.|.|.|.|.|.OXOXOXOXOXOXOXOXOXOXOXOXOXOXOXOXOXOXOXOX|.[.].M.3.9.9.q.` $ o . . o o . . . . . .         .     .     X O $ 4 E 6.z.s.f.h.h.f.p.u.9.8.3.( Q Y U Y Y Y Y U Y U Y T T T / / ( 2.3.8.9.u.i.p.f.f.h.j.j.j.j.j.j.j.j.j.j.j.j.h.j.h.f.a.h.h.h.h.f.h.h.h.f.h.f.p.h.f.h.i.f.f.f.p.f.f.p.p.u.p.u.z.6.W 8 7 & & $ $ $ $ 8 5.8.3.8.3.8.3.3.8.3.3.3.3.3.2.2.2.2.1.1.1.1.1.1.1.1.R / ^ ^ R R R T R E ` W.].|.|.|.|.|.|.|.|.|.OXOXOXOXOXOXOXOXOXOXOXOXOXOXOXOXOXOXOXOX",
"|.|.|.|.|.|.|.|.|.|.|.|.|.|.|.|.|.|.|.|.OXOXOXOXOXOXOXOXOXOXOXOXOXOXOXOXOXOXOXOX|.|.|.|.|.|.|.|.|.|.|.|.|.|.|.|.|.|.|.|.OXOXOXOXOXOXOXOXOXOXOXOXOXOXOXOXOXOXOXOX|.|.|.|.|.|.|.|.|.|.|.|.|.|.|.|.|.|.|.|.OXOXOXOXOXOXOXOXOXOXOXOXOXOXOXOXOXOXOXOX|.[.[.C.3.3.8.q.5.& o . . o o o . . . . .   .         .     .     X X o 4 8 2.z.s.s.f.i.u.9.8.3.2./ ^ Y Y Y U Y Y Y Y Q T T Q / ( 2.2.3.8.0.9.u.p.f.f.g.h.j.g.j.g.j.j.h.g.j.h.h.h.g.h.h.f.h.h.h.h.h.h.h.f.f.f.h.f.p.f.p.f.p.p.p.i.p.p.p.z.z.6.W 8 7 & $ $ * O * * * $ 8 5.8.8.3.9.3.8.8.3.3.3.3.2.2.2.2.2.2.1.1.1.1.1./ 1.R / / ^ R R R T T T E ` !.].|.|.|.|.|.|.|.|.|.OXOXOXOXOXOXOXOXOXOXOXOXOXOXOXOXOXOXOXOX",
"|.|.|.|.|.|.|.|.|.|.|.|.|.|.|.|.|.|.|.|.OXOXOXOXOXOXOXOXOXOXOXOXOXOXOXOXOXOXOXOX|.|.|.|.|.|.|.|.|.|.|.|.|.|.|.|.|.|.|.|.OXOXOXOXOXOXOXOXOXOXOXOXOXOXOXOXOXOXOXOX|.|.|.|.|.|.|.|.|.|.|.|.|.|.|.|.|.|.|.|.OXOXOXOXOXOXOXOXOXOXOXOXOXOXOXOXOXOXOXOX|..X[.W.5.3.9.9.6.7 o . o o o . o . . . . .           .     . .         . X $ 4 E 5.z.z.u.9.8.3.2.1./ Q R Y Y Y Y T T T Y Q ^ / ( 2.3.3.8.u.u.i.i.p.h.h.h.h.h.h.j.j.j.f.j.h.f.h.f.h.h.f.h.f.h.f.f.h.f.f.f.f.f.p.f.p.p.p.p.i.p.u.p.z.q.5.E 8 4 & & $ * O O . . . o O & 8 5.8.3.3.3.8.3.3.3.3.3.2.3.2.2.2.2.1.1.1.1.1.( ( / / / R ^ R R R T R R R 4.!.].|.|.|.|.|.|.|.|.|.oXOXOXOXOXOXOXOXOXOXOXOXOXOXOXOXOXOXOXOX",
"|.|.|.|.|.|.|.|.|.|.|.|.|.|.|.|.|.|.|.|.OXOXOXOXOXOXOXOXOXOXOXOXOXOXOXOXOXOXOXOX|.|.|.|.|.|.|.|.|.|.|.|.|.|.|.|.|.|.|.|.OXOXOXOXOXOXOXOXOXOXOXOXOXOXOXOXOXOXOXOX|.|.|.|.|.|.|.|.|.|.|.|.|.|.|.|.|.|.|.|.OXOXOXOXOXOXOXOXOXOXOXOXOXOXOXOXOXOXOXOX|..X[.W.5.3.8.9.6.8 $ . . O . O o . . . . . o   .       .       .               o $ 7 Y 5.6.6.3.3.1.( ^ R R T T T T T T R R ^ / 1.2.3.3.8.9.9.i.i.f.f.f.h.h.f.h.h.g.h.h.g.h.f.f.h.h.f.f.f.f.f.f.p.f.p.f.p.i.p.p.p.p.p.p.p.z.z.q.5.E 7 4 & $ $ O O o o             o $ 8 3.3.3.3.3.3.3.8.3.3.3.3.3.1.2.2.1.1.1.1.1.( ( ( / / / ^ R R R R T R R ` 4.!.|.|.|.|.|.|.|.|.|.|.OXOXOXOXOXOXOXOXOXOXOXOXOXOXOXOXOXOXOXOX",
"|.|.|.|.|.|.|.|.|.|.|.|.|.|.|.|.|.|.|.|.OXOXOXOXOXOXOXOXOXOXOXOXOXOXOXOXOXOXOXOX|.|.|.|.|.|.|.|.|.|.|.|.|.|.|.|.|.|.|.|.OXOXOXOXOXOXOXOXOXOXOXOXOXOXOXOXOXOXOXOX|.|.|.|.|.|.|.|.|.|.|.|.|.|.|.|.|.|.|.|.OXOXOXOXOXOXOXOXOXOXOXOXOXOXOXOXOXOXOXOX|..XXXW.6.3.9.3.8.5.$ . o o O . . o . . . . . .       . .                           X X $ 4 8 E W 5.W / ( R R Y T T T R / ^ / ( 1.2.3.3.8.9.u.i.i.i.f.f.h.f.h.h.f.f.h.f.h.f.f.h.f.h.p.i.f.i.f.p.f.p.i.p.p.p.p.p.z.z.q.6.5.` 8 4 $ & $ $ o o .                       $ E 3.3.8.3.3.8.3.3.3.3.3.3.2.2.2.2.1.1.1.( ( ( ( / / / R ^ R R R T T R R ` m.]..X|.|.|.|.|.|.|.|.|.OXOXOXOXOXOXOXOXOXOXOXOXOXOXOXOXOXOXOXOX",
"|.|.|.|.|.|.|.|.|.|.|.|.|.|.|.|.|.|.|.|.OXOXOXOXOXOXOXOXOXOXOXOXOXOXOXOXOXOXOXOX|.|.|.|.|.|.|.|.|.|.|.|.|.|.|.|.|.|.|.|.OXOXOXOXOXOXOXOXOXOXOXOXOXOXOXOXOXOXOXOX|.|.|.|.|.|.|.|.|.|.|.|.|.|.|.|.|.|.|.|.OXOXOXOXOXOXOXOXOXOXOXOXOXOXOXOXOXOXOXOX|..X.X~.6.3.3.9.8.5.& o o o . O . o . . . . . . . .         .     X   .                     X $ & 7 8 E ` ` E E R R R R ^ / ( 1.2.3.3.8.9.u.9.u.p.i.f.f.f.f.f.f.f.f.f.f.i.f.i.f.f.f.f.p.p.p.p.p.p.p.p.z.z.z.q.5.W I 8 4 & $ $ o o . o                             X & ` 8.8.3.3.3.3.3.3.3.3.3.2.2.2.2.2.1.1.1.( ( ( ( / / ^ ^ R R R T T R T R 8 M.].[.|.|.|.|.|.|.|.|.|.OXOXOXOXOXOXOXOXOXOXOXOXOXOXOXOXOXOXOXOX",
"|.|.|.|.|.|.|.|.|.|.|.|.|.|.|.|.|.|.|.|.OXOXOXOXOXOXOXOXOXOXOXOXOXOXOXOXOXOXOXOX|.|.|.|.|.|.|.|.|.|.|.|.|.|.|.|.|.|.|.|.OXOXOXOXOXOXOXOXOXOXOXOXOXOXOXOXOXOXOXOX|.|.|.|.|.|.|.|.|.|.|.|.|.|.|.|.|.|.|.|.OXOXOXOXOXOXOXOXOXOXOXOXOXOXOXOXOXOXOXOX|.|.|.].M.3.3.3.8.6.8 . o o o . O . o . . . . .       .       .       .                             X $ $ & 4 8 8 E E ` W W W 1.2.3.3.9.9.9.u.u.i.p.u.p.f.f.p.h.f.i.f.f.f.i.p.p.p.p.p.p.z.z.z.z.6.6.5.` 8 8 4 & $ $ o o o           .     .   .                     & 5.3.3.3.8.3.3.3.3.3.3.3.2.2.2.1.1.1.1.( ( ( ( / / / ^ ^ R R R T T T T T ` C.].|.|.|.|.|.|.|.|.|.|.OXOXOXOXOXOXOXOXOXOXOXOXOXOXOXOXOXOXOXOX",
"|.|.|.|.|.|.|.|.|.|.|.|.|.|.|.|.|.|.|.|.OXOXOXOXOXOXOXOXOXOXOXOXOXOXOXOXOXOXOXOX|.|.|.|.|.|.|.|.|.|.|.|.|.|.|.|.|.|.|.|.OXOXOXOXOXOXOXOXOXOXOXOXOXOXOXOXOXOXOXOX|.|.|.|.|.|.|.|.|.|.|.|.|.|.|.|.|.|.|.|.OXOXOXOXOXOXOXOXOXOXOXOXOXOXOXOXOXOXOXOX|.|.|.].V.3.3.3.8.8.W $ o . O . O o . . . . . .   X       .   .   .                                         X X o $ $ & 4 4 8 8 E E W W 5.5.6.q.q.q.z.z.z.z.z.z.z.z.z.z.z.z.q.q.6.5.5.W ^ E 8 4 4 & $ $ $ o .         .   .   .     .                               4 5.3.3.3.3.3.3.3.3.3.3.2.2.2.2.1.1.1.1.( ( ( / / / ^ ^ ^ R T R T T T T T ` W.].|.|.|.|.|.|.|.|.|.|.OXOXOXOXOXOXOXOXOXOXOXOXOXOXOXOXOXOXOXOX",
"|.|.|.|.|.|.|.|.|.|.|.|.|.|.|.|.|.|.|.|.OXOXOXOXOXOXOXOXOXOXOXOXOXOXOXOXOXOXOXOX|.|.|.|.|.|.|.|.|.|.|.|.|.|.|._.|.|.|.|.OXOXOXOXOXOXOXOXOXOXOXOXOXOXOXOXOXOXOXOX|.|.|.|.|.|.|.|.|.|.|.|.|.|.|.|.|.|.|.|.OXOXOXOXOXOXOXOXOXOXOXOXOXOXOXOXOXOXOXOX|.|.|.].C.6.3.3.8.8.5.4 o . o o . O . . . . . .   .               . .                                               o       X o . $ $ $ & & 4 4 7 7 7 8 8 8 7 8 8 7 7 7 7 4 4 & $ & $ $ o o X X X             . .           .   .         .     .                   4 5.3.3.8.3.3.3.2.3.3.2.2.2.2.1.1.1.1.( ( ( ( / / / R ^ R R R T T R T Y T ` !.].|.|.|.|.|.|.|.|.|.|.OXOXOXOXOXOXOXOXOXOXOXOXOXOXOXOXOXOXOXOX",
"|.|.|.|.|.|.|.|.|.|.|.|.|.|.|.|.|.|.|.|.OXOXOXOXOXOXOXOXOXOXOXOXOXOXOXOXOXOXOXOX|.|.|.|.|.|.|.|.|.|.|.|.|.|.|.|.|.|.|.|.OXOXOXOXOXOXOXOXOXOXOXOXOXOXOXOXOXOXOXOX|.|.|.|.|.|.|.|.|.|.|.|.|.|.|.|.|.|.|.|.OXOXOXOXOXOXOXOXOXOXOXOXOXOXOXOXOXOXOXOX|.|.|.[.A.5.3.3.8.8.6.8 $ o o . O . o . . . . . . .   .   . .                                                                               .     X X X X X . X X X     .                                             . .           .     .                       o 8 5.3.3.3.3.3.3.3.3.2.2.2.2.1.1.1.1.( ( ( ( / / / ^ ^ ^ R R R R T T T T ` 4.~.|.|.|.|.|.|.|.|.|.|.|.OXOXOXOXOXOXOXOXOXOXOXOXOXOXOXOXOXOXOXOX",
"oXOXOXOXOXOXOXOXOXOXOXOXOXOXOXOXOXOXOXOX|.|.|.|.|.|.|.|.|.|.|.|.|.|.|.|.|.|.|.|.OXOXOXOXOXOXOXOXOXOXOXOXOXOXOXOXOXOXOXOX|.|.|.|.|.|.|.|.|.|.|.|.|.|.|.|.|.|.|.|.OXOXOXOXOXOXOXOXOXOXOXOXOXOXOXOXOXOXOXOX|.|.|.|.|.|.|.|.|.|.|.|.|.|.|.|.|.|.|.|.OXOXOXXX~.m.3.3.3.8.8.W $ o o O . O . o . . . . .   .             .                                                                                                                                                                                               $ E 3.3.3.3.3.3.2.3.2.2.2.2.2.1.1.1.( ( ( ( ( / / ^ / R R R T T T T T T Y ` M. XOXOXOXOXOXOXOXOXOXOXOX|.|.|.|.|.|.|.|.|.|.|.|.|.|.|.|.|.|.|.|.",
"OXOXOXOXOXOXOXOXOXOXOXOXOXOXOXOXOXOXOXOX|.|.|.|.|.|.|.|.|.|.|.|.|.|.|.|.|.|.|.|.OXOXOXOXOXOXOXOXOXOXOXOXOXOXOXOXOXOXOXOX|.|.|.|.|.|.|.|.|.|.|.|.|.|.|.|.|.|.|.|.OXOXOXOXOXOXOXOXOXOXOXOXOXOXOXOXOXOXOXOX|.|.|.|.|.|.|.|.|.|.|.|.|.|.|.|.|.|.|.|.OXOXOXOX[.M.5.3.3.3.8.5.4 o . o . O . o . . . .   . .   . .   .     X   .   .     .                                                                                                                                                                               $ W 3.3.2.3.2.3.2.2.2.2.2.1.2.1.1.( ( ( ( ( / / / R ^ ^ R R R T T T T R Y 4.C.XXOXOXOXOXOXOXOXOXOXOXOX|.|.|.|.|.|.|.|.|.|.|.|.|.|.|.|.|.|.|.|.",
"OXOXOXOXOXOXOXOXOXOXOXOXOXOXOXOXOXOXOXOX|.|.|.|.|.|.|.|.|.|.|.|.|.|.|.|.|.|.|.|.OXOXOXOXOXOXOXOXOXOXOXOXOXOXOXOXOXOXOXOX|.|.|.|.|.|.|.|.|.|.|.|.|.|.|.|.|.|.|.|.OXOXOXOXOXOXOXOXOXOXOXOXOXOXOXOXOXOXOXOX|.|.|.|.|.|.|.|.|.|.|.|.|.|.|.|.|.|.|.|.OXOXOXoXXXC.5.3.8.8.8.6.8 $ o o O . . O . . . . . . .           . .     .                                                                                                                                                                                         4 W 2.3.2.3.2.3.2.2.2.2.2.1.1.1.1.( ( ( ( / / / ^ ^ R R R T T T T R Y T 5.` !.oXOXOXOXOXOXOXOXOXOXOXOX|.|.|.|.|.|.|.|.|.|.|.|.|.|.|.|.|.|.|.|.",
"OXOXOXOXOXOXOXOXOXOXOXOXOXOXOXOXOXOXOXOX|.|.|.|.|.|.|.|.|.|.|.|.|.|.|.|.|.|.|.|.OXOXOXOXOXOXOXOXOXOXOXOXOXOXOXOXOXOXOXOX|.|.|.|.|.|.|.|.|.|.|.|.|.|.|.|.|.|.|.|.OXOXOXOXOXOXOXOXOXOXOXOXOXOXOXOXOXOXOXOX|.|.|.|.|.|.|.|.|.|.|.|.|.|.|.|.|.|.|.|.OXOXOXoXXX!.5.2.2.3.3.8.m.$ o o . O o o . . . . . . .     X .         .     .                                                                                                                                                                                   X 7 5.3.3.3.2.3.3.2.2.2.2.2.1.1.1.( ( / ( / / / / ^ ^ R R R R T T T T R T 8 m.].oXOXOXOXOXOXOXOXOXOXOXOX|.|.|.|.|.|.|.|.|.|.|.|.|.|.|.|.|.|.|.|.",
"OXOXOXOXOXOXOXOXOXOXOXOXOXOXOXOXOXOXOXOX|.|.|.|.|.|.|.|.|.|.|.|.|.|.|.|.|.|.|.|.OXOXOXOXOXOXOXOXOXOXOXOXOXOXOXOXOXOXOXOX|.|.|.|.|.|.|.|.|.|.|.|.|.|.|.|.|.|.|.|.OXOXOXOXOXOXOXOXOXOXOXOXOXOXOXOXOXOXOXOX|.|.|.|.|.|.|.|.|.|.|.|.|.|.|.|.|.|.|.|.OXOXOXOXoX~.5.2.3.2.3.8.5.7 $ o O . O . . o . . . . . .   .           .       .   .                                                                                                                                                                             X 8 5.3.3.3.3.1.2.2.2.2.1.1.1.1.( ( ( ( / / / ^ ^ ^ R R R T T T R R R R Y ` C.XXoXOXOXOXOXOXOXOXOXOXOXOX|.|.|.|.|.|.|.|.|.|.|.|.|.|.|.|.|.|.|.|.",
"OXOXOXOXOXOXOXOXOXOXOXOXOXOXOXOXOXOXOXOX|.|.|.|.|.|.|.|.|.|.|.|.|.|.|.|.|.|.|.|.OXOXOXOXOXOXOXOXOXOXOXOXOXOXOXOXOXOXOXOX|.|.|.|.|.|.|.|.|.|.|.|.|.|.|.|.|.|.|.|.OXOXOXOXOXOXOXOXOXOXOXOXOXOXOXOXOXOXOXOX|.|.|.|.|.|.|.|.|.|.|.|.|.|.|.|.|.|.|.|.OXOXOXOXoX[.M.2.2.3.3.3.3.E $ o o . O . O o . . . . . .       . . .       .       .                   X X X X X X X X X X X X X X X X X                                                                                                                         $ ` 5.3.2.2.3.2.2.2.2.1.1.1.1.1.( ( ( / / / / ^ ^ ^ R R T T T T R Y R R R ` W.XXoXOXOXOXOXOXOXOXOXOXOXOX|.|.|.|.|.|.|.|.|.|.|.|.|.|.|.|.|.|.|.|.",
"OXOXOXOXOXOXOXOXOXOXOXOXOXOXOXOXOXOXOXOX|.|.|.|.|.|.|.|.|.|.|.|.|.|.|.|.|.|.|.|.OXOXOXOXOXOXOXOXOXOXOXOXOXOXOXOXOXOXOXOX|.|.|.|.|.|.|.|.|.|.|.|.|.|.|.|.|.|.|.|.OXOXOXOXOXOXOXOXOXOXOXOXOXOXOXOXOXOXOXOX|.|.|.|.|.|.|.|.|.|.|.|.|.|.|.|.|.|.|.|.OXOXOXOXOXXXC.5.2.3.2.3.3.5.7 o o O . O . O . o . . . . .   . .     .         .             X X + + + + + + + + + + + + + + + + + + + + + + + + X X X X X X                                                                                                     & 5.3.2.2.3.2.3.2.2.2.1.1.1.1.( ( ( / / ^ ^ ^ ^ ^ R R T T T T T R 1.1.2.2.5.!.XXOXOXOXOXOXOXOXOXOXOXOXOX|.|.|.|.|.|.|.|.|.|.|.|.|.|.|.|.|.|.|.|.",
"OXOXOXOXOXOXOXOXOXOXOXOXOXOXOXOXOXOXOXOX|.|.|.|.|.|.|.|.|.|.|.|.|.|.|.|.|.|.|.|.OXOXOXOXOXOXOXOXOXOXOXOXOXOXOXOXOXOXOXOX|.|.|.|.|.|.|.|.|.|.|.|.|.|.|.|.|.|.|.|.OXOXOXOXOXOXOXOXOXOXOXOXOXOXOXOXOXOXOXOX|.|.|.|.|.|.|.|.|.|.|.|.|.|.|.|.|.|.|.|.OXOXOXOXOXXX~.5.2.2.3.8.3.5.` $ o o O O o o . o . . . . . o       .     . .     .       X X + + + + + + @ @ @ @ @ @ @ @ @ @ @ @ @ @ @ @ @ + + + + + + + + + + X X X X                                                                                         . 4 5.3.1.3.2.2.1.2.1.1.1.1.1.( ( ( / / / ^ ^ ^ ^ R R T T T T T R 1.3.3.3.1.5.C.XXoXOXOXOXOXOXOXOXOXOXOXOX|.|.|.|.|.|.|.|.|.|.|.|.|.|.|.|.|.|.|.|.",
"OXOXOXOXOXOXOXOXOXOXOXOXOXOXOXOXOXOXOXOX|.|.|.|.|.|.|.|.|.|.|.|.|.|.|.|.|.|.|.|.OXOXOXOXOXOXOXOXOXOXOXOXOXOXOXOXOXOXOXOX|.|.|.|.|.|.|.|.|.|.|.|.|.|.|.|.|.|.|.|.OXOXOXOXOXOXOXOXOXOXOXOXOXOXOXOXOXOXOXOX|.|.|.|.|.|.|.|.|.|.|.|.|.|.|.|.|.|.|.|.OXOXOXOXOXoX~.M.2.2.3.3.3.3.5.4 . o O o O O . O o . . . . . .           . .       .   X + @ + @ + @ @ @ @ @ @ @ @ @ @ @ @ @ @ @ @ @ @ @ @ @ @ + + + + + + + + + + + + + + X X X                                                                               o 8 5.3.2.2.2.2.2.2.1.1.1.1.( ( ( / / / ^ ^ ^ ^ R R T R T T T R 1.8.q.q.2./ W m.[.oXOXOXOXOXOXOXOXOXOXOXOX|.|.|.|.|.|.|.|.|.|.|.|.|.|.|.|.|.|.|.|.",
"OXOXOXOXOXOXOXOXOXOXOXOXOXOXOXOXOXOXOXOX|.|.|.|.|.|.|.|.|.|.|.|.|.|.|.|.|.|.|.|.OXOXOXOXOXOXOXOXOXOXOXOXOXOXOXOXOXOXOXOX|.|.|.|.|.|.|.|.|.|.|.|.|.|.|.|.|.|.|.|.OXOXOXOXOXOXOXOXOXOXOXOXOXOXOXOXOXOXOXOX|.|.|.|.|.|.|.|.|.|.|.|.|.|.|.|.|.|.|.|.OXOXOXOXOXXXXXC.1.1.2.2.3.2.5.E $ o o O O o O . o . . . . . . . o     .     .       X + @ @ @ @ @ @ @ @ @ @ # # # # # # # # # # @ @ @ @ @ @ @ @ @ @ @ @ @ @ @ @ @ @ @ + + + + + X X X                                                                         $ W 3.2.2.2.2.2.2.1.1.( ( ( ( ( / / / ^ ^ ^ ^ R R R T T T T R ( 8.9.u.2.^ R E m.[.oXOXOXOXOXOXOXOXOXOXOXOX|.|.|.|.|.|.|.|.|.|.|.|.|.|.|.|.|.|.|.|.",
"OXOXOXOXOXOXOXOXOXOXOXOXOXOXOXOXOXOXOXOX|.|.|.|.|.|.|.|.|.|.|.|.|.|.|.|.|.|.|.|.OXOXOXOXOXOXOXOXOXOXOXOXOXOXOXOXOXOXOXOX|.|.|.|.|.|.|.|.|.|.|.|.|.|.|.|.|.|.|.|.OXOXOXOXOXOXOXOXOXOXOXOXOXOXOXOXOXOXOXOX|.|.|.|.|.|.|.|.|.|.|.|.|.|.|.|.|.|.|.|.OXOXOXOXOXOXoX!.5.1.2.2.3.2.8.5.& o o O o O O . o o . . . . . . .   .     .     . X + @ @ @ @ @ @ @ # # # # # # # # # # # # # # # # # @ @ @ @ @ @ @ @ @ @ @ @ @ @ @ @ @ @ @ + + + + + + X X X                                                               o 7 W 2.2.2.2.2.2.2.1.1.( ( ( ( / / / ^ ^ ^ / Q R R T T T T R ( 8.u.9.3.( R R ` M.XXoXOXOXOXOXOXOXOXOXOXOXOX|.|.|.|.|.|.|.|.|.|.|.|.|.|.|.|.|.|.|.|.",
"OXOXOXOXOXOXOXOXOXOXOXOXOXOXOXOXOXOXOXOX|.|.|.|.|.|.|.|.|.|.|.|.|.|.|.|.|.|.|.|.OXOXOXOXOXOXOXOXOXOXOXOXOXOXOXOXOXOXOXOX|.|.|.|.|.|.|.|.|.|.|.|.|.|.|.|.|.|.|.|.OXOXOXOXOXOXOXOXOXOXOXOXOXOXOXOXOXOXOXoX|.|.|.|.|.|.|.|.|.|.|.|.|.|.|.|.|.|.|.|.OXOXOXOXOXOXoX[.M.1.1.2.3.3.3.5.E $ o O O o O O O O o . . . . . . . .         . X X @ @ @ # # # # # # # # # # # # # # # # # # # # # # # @ @ @ @ @ @ @ @ # # # @ # # @ @ @ @ @ @ @ + + + + + X X X                                                           $ 8 5.2.2.2.2.2.1.1.1.( ( ( ( / / / ^ ^ ^ ^ R Q R T T T T R ( 8.9.z.3./ R R T ` U.XXoXOXOXOXOXOXOXOXOXOXOXOX|.|.|.|.|.|.|.|.|.|.|.|.|.|.|.|.|.|.|.|.",
"OXOXOXOXOXOXOXOXOXOXOXOXOXOXOXOXOXOXOXOX|.|.|.|.|.|.|.|.|.|.|.|.|.|.|.|.|.|.|.|.OXOXOXOXOXOXOXOXOXOXOXOXOXOXOXOXOXOXOXOX|.|.|.|.|.|.|._.|.|.|.|.|.|.|.|.|.|.|.|.OXOXOXOXOXOXOXOXOXOXOXOXOXOXOXOXOXOXOXOX|.|.|.|.|.|.|.|.|.|.|.|.|.|.|.|.|.|.|.|.OXOXOXOXOXOXOXXXC.W ( 2.2.3.2.3.5.4 o o O O O O O . O o o . . . . . . . . .     X + @ # # # # - # - - - - - - - - - - - # # # # # # # # @ # @ @ @ # # # # # # # # # # # # @ @ @ @ @ @ + + + + + X X                                                         $ E 2.2.2.1.1.1.1.1.( ( ( ( / / / ^ ^ ^ ^ ^ Q T T T T T T ^ 3.u.z.8.( R R R R ` !.oXOXOXOXOXOXOXOXOXOXOXOXOX|.|.|.|.|.|.|.|.|.|.|.|.|.|.|.|.|.|.|.|.",
"OXOXOXOXOXOXOXOXOXOXOXOXOXOXOXOXOXOXOXOX|.|.|.|.|.|.|.|.|.|._.|.|.|.|.|.|.|.|.|.OXOXOXOXOXOXOXOXOXOXOXOXOXOXOXOXOXOXOXOX|.|.|.|.|.|.|.|.|.|.|.|.|.|.|.|.|.|.|.|.OXOXOXOXOXOXOXOXOXOXOXOXOXOXOXOXOXOXOXOX|.|.|.|.|.|.|.|.|.|.|.|.|.|.|.|.|.|.|.|.OXOXOXOXOXOXOXoX~.5.( 1.2.2.2.3.5.` $ o o O O O O O O o o o . . . . . .     . X + @ # # # - - - - - - - - - - - - - - - - - # # # # # # # # # # # # # # # # # # # # # # # # @ @ @ @ @ + + + + + + +                                           .     .   . X 4 5.2.1.2.1.1.1.1.1.( ( ( ( / / ^ ^ R ^ Q R ^ Q T T T T ^ 3.u.p.8.( R R R R ` m.].oXOXOXOXOXOXOXOXOXOXOXOXOX|.|.|.|.|.|.|.|.|.|.|.|.|.|.'.|.|.|.|.|.",
"OXOXOXOXOXOXOXOXOXOXOXOXOXOXOXOXOXOXOXOX|.|.|.|.|.|.|.|.|.|.|.|.|.|.|.|.|.|.|.|.OXOXOXOXOXOXOXOXOXOXOXOXOXOXOXOXOXOXOXOX|.|.|.|.|.|.|.|.|.|.|.|.|.|.|.|.|.|.|.|.OXOXOXOXOXOXOXOXOXOXOXOXOXOXOXOXOXOXOXOX|.|.|.|.|.|.|.|.|.|.|.|.|.|.|.|.|.|.|.|.OXOXOXOXOXOXOXoX[.C.W ( 1.2.2.3.3.5.7 $ o O O O O O o O o O o . . . . . . .   X @ - - - - - - - ; ; ; ; ; ; ; ; - - - - - - - - # # # # # # # # # # # # # # # # # # # # # # # @ @ @ @ @ + + + + X + X                                                     o 8 5.2.2.1.1.1.1.1.( ( / / / / ^ ^ ^ ^ Q R Q T T T Q T T ( q.p.9.2.T R R R R ` C.XXOXOXOXOXOXOXOXOXOXOXOXOXOX|.|.|.|.|.|.|.|.|.|.|.|.|.|.|.|.|.|.|.|.",
"OXOXOXOXOXOXOXOXOXOXOXOXOXOXOXOXOXOXOXOX|.|.|.|.|.|.|.|.|.|.|.|.|.|.|.|.|.|.|.|.OXOXOXOXOXOXOXOXOXOXOXOXOXOXOXOXOXOXOXOX|.|.|.|.|.|.|.|.|.|.|.|.|.|.|.|.|.|.|.|.OXOXOXOXOXOXOXOXOXOXOXOXOXOXOXOXOXOXOXOX|.|.|.|.|.|.|.|.|.|.|.|.|.|.|.|.|.|.|.|.OXOXOXOXOXOXOXOXXX!.4.( 1.1.2.2.3.5.` $ o O O O O O O O O o o o . . . . .   X + # - - - ; ; ; ; ; ; ; ; ; ; ; ; ; ; ; ; ; - - - - - - # # # # # # # # # # # # # # # # # # # # # @ @ @ @ @ + + + + + X                                       .     . .   X $ ` 3.2.2.1.1.1.1.( ( ( / / / ^ ^ ^ ^ R ^ T T T Q T T T ^ 8.u.u.2.R T R R R R 4.~.oXOXOXOXOXOXOXOXOXOXOXOXOXOX|.|.|.|.|.|.|.|.|.|.|.|.|.|.|.|.|.|.|.|.",
"OXOXOXOXOXOXOXOXOXOXOXOXOXOXOXOXOXOXOXOX|.|.|.|.|.|.|.|.|.|.|.|.|.|.|.|.|.|.|.|.OXOXOXOXOXOXOXOXOXOXOXOXOXOXOXOXOXOXOXOX|.|.|.|.|.|.|.|.|.|.|.|.|.|.|.|.|.|.|.|.OXOXOXOXOXOXOXOXOXOXOXOXOXOXOXOXOXOXOXOX|.|.|.|.|.|.|.|.|.|.|.|.|.|.|.|.|.|.|.|.OXOXOXOXOXOXOXOXXX[.m.5.1.1.1.2.2.3.5.8 $ o O O O O O O O . O . o . o . . X + @ - ; ; ; ; ; ; > > > > > > > > > ; ; ; ; ; ; ; - - - - - - - # # - - - # # # - - # # - # # # # # # # @ @ @ @ + + + + X X                           .     .         . .   o 7 W 2.1.1.2.1.( ( ( / / / / ^ ^ ^ ^ Q ^ T T T Q R T T Q 3.u.z.3.^ T T R T Y T M.[.oXOXOXOXOXOXOXOXOXOXOXOXOXOX|.|.|.|.|.|.|.|.|.|.|.|.|.|.|.|.|.|.|.|.",
"OXOXOXOXOXOXOXOXOXOXOXOXOXOXOXOXOXOXOXOX|.|.|.|.|.|.|.|.|.|.|.|.|.|.|.|.|.|.|.|.OXOXOXOXOXOXOXOXOXOXOXOXOXOXOXOXOXOXOXOX|.|.|.|.|.|.|.|.|.|.|.|.|.|.|.|.|.|.|.|.OXOXOXOXOXOXOXOXOXOXOXOXOXOXOXOXOXOXOXOX|.|.|.|.|.|.|.|.|.|.|.|.|.|.|.|.|.|.|.|.OXOXOXOXOXOXOXOXoXXXW.W 1.R 1.2.2.2.1.W & o O O O O O O O O O O O o o . . X + # ; ; ; ; ; > > ; > > > > > > > > ; > > > ; ; ; ; ; - - - - - - - - # - - - - - - - - - - - # # # # # @ @ @ + @ + + + + X                                       .       o $ 8 1.2.2.1.) 1.1.( ( / / / ^ ^ ^ ^ R Q T U Q T T U Q R ( 9.u.8./ R T T T Y U Y V.[.XXoXOXOXOXOXOXOXOXOXOXOXOXOX|.|.|.|.|.|.|.|.|.|.|.|.|.|.|.|.|.|.|.|.",
"OXOXOXOXOXOXOXOXOXOXOXOXOXOXOXOXOXOXOXOX|.|.|.|.|.|.|.|.|.|.|.|.|.|.|.|.|.|.|.|.OXOXOXOXOXOXOXOXOXOXOXOXOXOXOXOXOXOXOXOX|.|.|.|.|.|.|.|.|.|.|.|.|.|.|.|.|.|.|.|.OXOXOXOXOXOXOXOXOXOXOXOXOXOXOXOXOXOXOXOX|.|.|.|.|.|.|.|.|.|.|.|.|.|.|.|.|.|.|.|.OXOXOXOXOXOXOXOXOXoX~.m.R 1.1.1.2.2.1.5.E $ o O O O O O O O O . O . o . . X + - ; > > > > > , , , , , , , , , , > > > > > > ; ; ; ; ; ; - - - - - - - - - - - - - - - # - - - # # # # @ @ @ @ + + + + X                           . .   .   .   .   . o 4 W 1.2.1.1.1.( ( / / / ^ ^ ^ ^ Q ^ Q ^ T Q T T Q U T / 8.u.q.( R T T T Y U Q Q ` C.~.XXoXOXOXOXOXOXOXOXOXOXOXOX|.|.|.|.|.|.|.|.|.|.|.|.|.|.|.|.|.|.|.|.",
"OXOXOXOXOXOXOXOXOXOXOXOXOXOXOXOXOXOXOXOX|.|.|.|.|.|.|.|.|.|.|.|.|.|.|.|.|.|.|.|.OXOXOXOXOXOXOXOXOXOXOXOXOXOXOXOXOXOXOXOX|.|.|.|.|.|.|.|.|.|.|.|.|.|.|.|.|.|.|.|.OXOXOXOXOXOXOXOXOXOXOXOXOXOXOXOXOXOXOXOX|.|.|.|.|.|.|.|.|.|.|.|.|.|.oX|.|.|.|.|.OXOXOXOXOXOXOXOXOXoXXXW.5.R 1.1.1.2.2.2.5.7 $ O O O O O O O O O O O o o . X @ - > > > > , , < < , < < < , < , , , , , > > > > > > ; ; ; ; ; ; ; - ; - - - - - - - - - - - # - # # # # # @ @ @ @ + + + +                     . .                 . . O $ 8 W 1.1.1.1.( ( ( / / ^ ^ ^ ^ ^ R Q T Q T T Y Q T ^ R 2.9.9.2.^ R T T Y Q ^ / ) ( 5.V.~.[.oXoXOXOXOXOXOXOXOXOXOX|.|.|.|.|.|.|.|.|.|.|.|.|.|.|.|.|.|.|.|.",
"|.|.|.|.|.|.|.|.|.|.|.|.|.|.|.|.|.|.|.|.OXOXOXOXOXOXOXOXOXOXOXOXOXOXOXOXOXOXOXOX|.|.|.|.|.|.|.|.|.|.|.|.|.|.|.|.|.|.|.|.OXOXOXOXOXOXOXOXOXOXOXOXOXOXOXOXOXOXOXOX|.|.|.|.|.|.|.|.|.|.|.|.|.|.|.|.|.|.|.|.OXOXOXOXOXOXOXOXOXOXOXOXOXOXOXOXOXOXOXOX|.|.|.|.|.|.|.|.|.|.].!.m.1.R 1.1.1.1.2.2.5.& $ O O O O O O O O O . O . o X @ ; > , , , < < < < < < < < < < < < < < , , , , > > > > > > ; ; ; ; ; ; ; ; ; ; ; ; - - - - - - - - - # # # # # @ @ + @ + + X           .           X   .       . . . o $ 4 ` 1.1.1.1.( ( ( / / ^ ^ ^ ^ Q ^ Q ^ T Y T Q T T T T ( 9.u.3.^ R T T Q U Q ) ) 7.7.3.3.6.C.~.]..X|.|.|.|.|.|.|.|.OXOXOXOXOXOXOXOXOXOXOXOXOXOXOXOXOXOXOXOX",
"|.|.|.|.|.|.|.|.|.|.|.|.|.|.|.|.|.|.|.|.OXOXOXOXOXOXOXOXOXOXOXOXOXOXOXOXOXOXOXOX|.|.|.|.|.|.|.|.|.|.|.|.|.|.|.|.|.|.|.|.OXOXOXOXOXOXOXOXOXOXOXOXOXOXOXOXOXOXOXOX|.|.|.|.|.|.|.|.|.|.|.|.|.|.|.|.|.|.|.|.OXOXOXOXOXOXOXOXOXOXOXOXOXOXOXOXOXOXOXOX|.|.|.|.|.|.|.|.|.|.|.].C.5.1.1.1.1.1.1.1.5.E $ $ O O O O O O O O O O O o X @ ; , < < , < < < 1 t 1 1 t 1 1 < 1 1 < < < < , , , , > > ; > > ; ; ; ; ; ; ; ; ; ; ; ; ; ; ; - - - - - - # # # @ @ @ + + + X                 . .   .         o . . o o $ 8 W 1.1.( 1.( ( / / ^ ^ ^ ^ ^ ^ Q Q Q T ^ T Q T Q R ^ 3.9.8./ R T T Q U Q ) ) 7.7.0.0.9.q.s.V.!.].[. X|.|.|.|.|.|.OXOXOXOXOXOXOXOXOXOXOXOXOXOXOXOXOXOXOXOX",
"|.|.|.|.|.|.|.|.|.|.|.|.|.|.|.|.|.|.|.|.OXOXOXOXOXOXOXOXOXOXOXOXOXOXOXOXOXOXOXOX|.|.|.|.|.|.|.|.|.|.|.|.|.|.|.|.|.|.|.|.OXOXOXOXOXOXOXOXOXOXOXOXOXOXOXOXOXOXOXOX|.|.|.|.|.|.|.|.|.|.|.|.|.|.|.|.|.|.|.|.OXOXOXOXOXOXOXOXOXOXOXOXOXOXOXOXOXOXOXOX|.|.|.|.|.|.|.|.|.|.|. X!.m.R R 1.1.R 1.1.1.5.7 $ O O O * O O O O O O . O o # ; , < < < < t 1 t t t t t t 1 1 1 1 < < < < < < , , , , , > > > > > > > > > ; ; ; ; ; ; ; ; ; ; - - - - - # # # @ @ @ + + X           . .   .             . . . o O $ 4 ` 1.1.1.2.( / / / / ^ ^ ^ ^ Q Q ^ T T Q Q Q U ! T Q 1.9.9.1.Q Y T Y U Q ) ) 7.7.0.7.f.9.0.9.z.z.A.~.[. X|.|.|.|.|.OXOXOXOXOXOXOXOXOXOXOXOXOXOXOXOXOXOXOXOX",
"|.|.|.|.|.|.|.|.|.|.|.|.|.|.|.|.|.|.|.|.OXOXOXOXOXOXOXOXOXOXOXOXOXOXOXOXOXOXOXOX|.|.|.|.|.|.|.|.|.|.|.|.|.|.|.|.|.|.|.|.OXOXOXOXOXOXOXOXOXOXOXOXOXOXOXOXOXOXOXOX|.|.|.|.|.|.|.|.|.|.|.|.|.|.|.|.|.|.|.|.OXOXOXOXOXOXOXOXOXOXOXOXOXOXOXOXOXOXOXOX|.|.|.|.|.|.|.|.|.|.|..X].U.5.R R 1.1.1.1.1.1.W 4 $ O O O O O O O O O O O o @ ; , < t 1 1 t t y y y y y t t t t t 1 1 1 < < < < < < , , , , > > > > > > > > > ; ; ; ; ; ; ; ; ; ; - - - - # # @ @ @ @ + X X                   .   . . . . o o O O $ 8 5.1.1.( ) / ( / / ^ ^ ^ ^ Q ^ Q Q Q ^ ! T Q T ! T ^ 3.8.2.^ Q R Q U U ! ~ ) 7.0.0.0.0.i.i.p.p.p.z.C.~.[. X|.|.|.|.OXOXOXOXOXOXOXOXOXOXOXOXOXOXOXOXOXOXOXOX",
"|.|.|.|.|.|.|.|.|.|.|.|.|.|.|.|.|.|.|.|.OXOXOXOXOXOXOXOXOXOXOXOXOXOXOXOXOXOXOXOX|.|.|.|.|.|.|.|.|.|.|.|.|.|.|.|.|.|.|.|.OXOXOXOXOXOXOXOXOXOXOXOXOXOXOXOXOXOXOXOX|.|.|.|.|.|.|.|.|.|.|.|.|.|.|.|.|.|.|.|.OXOXOXOXOXOXOXOXOXOXOXOXOXOXOXOXOXOXOXOX|.|.|.|.|.|.|.|.|.|.|.|..X!.m.Y ^ / ( ( 1.1.1.5.` & $ O O O O O O O O O o o + - , 1 1 1 t t y y y y y y y y y t t t t 1 1 1 1 < < < < < , , , , , , > > > > > > > > > > > ; ; ; ; ; - - - - # # @ @ @ + X X                   . .   . . o o O O $ 4 ` 1.( 1.( ( ( / / ^ ^ ^ ^ ^ Q ^ Q Q Q Q Y Q Q Q Q Q 1.8.3./ Q Q Q U J Q ) o.=.7.0.i.0.f.0.f.p.f.p.d.z.V.A.~.].|.|.|.OXOXOXOXOXOXOXOXOXOXOXOXOXOXOXOXOXOXOXOX",
"|.|.|.|.|.|.|.|.|.|.|.|.|.|.|.|.|.|.|.|.OXOXOXOXOXOXOXOXOXOXOXOXOXOXOXOXOXOXOXOX|.|.|.|.|.|.|.|.|.|.|.|.|.|.|.|.|.|.|.|.OXOXOXOXOXOXOXOXOXOXOXOXOXOXOXOXOXOXOXOX|.|.|.|.|.|.|.|.|.|.|.|.|.|.|.|.|.|.|.|.OXOXOXOXOXOXOXOXOXOXOXOXOXOXOXOXOXOXOXOX|.|.|.|.|._.|.|.|.|.|.|.|.].W.5.R ^ / ( ( 1.1.1.` E $ $ O O O % % O O O O O + - , 1 t t y y y u u u u u u y y y y y t t t 1 1 1 < < < < < < , < , , , , , , > , > > > > > > ; ; ; ; ; - - - # # # @ @ + + X   . .   X .   .   . . . . o O O O O $ 8 W ( ( ( ( / / / / R ^ ^ Q Q Q ^ Q Q Y ! Q Q P Q Q ^ 3.8.1.^ Q Q Q J P ^ ) 2.3.7.0.0.0.0.f.f.f.h.p.h.h.s.V.A.~.|.|.|.OXOXOXOXOXOXOXOXOXOXOXOXOXOXOXOXOXOXOXOX",
"|.|.|.|.|.|.|.|.|.|.|.|.|.|.|.|.|.|.|.|.OXOXOXOXOXOXOXOXOXOXOXOXOXOXOXOXOXOXOXOX|.|.|.|.|.|.|.|.|.|.|.|.|.|.|.|.|.|.|.|.OXOXOXOXOXOXOXOXOXOXOXOXOXOXOXOXOXOXOXOX|.|.|.|.|.|.|.|.|.|.|.|.|.|.|.|.|.|.|.|.OXOXOXOXOXOXOXOXOXOXOXOXOXOXOXOXOXOXOXOX|.|.|.|.|.|.|.|.|.|.|.|.|.[.].M.E R ^ / / ( ( 1.( W E & $ O O O O % O O O O o @ > 1 t y y u i i i i i i u u u u y y y t t t t 1 t 1 < < < < < < < < < , , , , , , , , , > > > > ; ; ; ; - - - # # # @ + + X             .     . . . o O O O O & 7 W ( 2.( / ) / / ^ ^ ) ^ Q ^ ^ Q Q Q Q Q Q Q Q Q Q Q ) 3.2.^ Q Q Q J J P ! ) ) 7.7.7.i.0.f.i.f.f.h.h.h.h.d.d.x.Q.~..X|.OXOXOXOXOXOXOXOXOXOXOXOXOXOXOXOXOXOXOXOX",
"|.|.|.|.|.|.|.|.|.|.|.|.|.|.|.|.|.|.|.|.OXOXOXOXOXOXOXOXOXOXOXOXOXOXOXOXOXOXOXOX|.|.|.|.|.|.|.|.|._.|.|.|.|.|.|.|.|.|.|.OXOXOXOXOXOXOXOXOXOXOXOXOXOXOXOXOXOXOXOX|.|.|.|.|.|.|.|.|.|.|.|.|.|.|.|.|.|.|.|.OXOXOXOXOXOXOXOXOXOXOXOXOXOXOXOXOXOXOXOX|.|.|.|.|.|.|.|.|.|.|.|.|.|..X!.m.R R ^ / / ( ( 1.( 5.8 $ $ O O % O % O O O O + ; < y u u i i f f f f i f i i u u u y y y t y t t 1 1 1 t < < < < < < < 1 < < < < , , > , , > > > > ; ; ; - - - # # @ + X X .     .   .     . . . o O O O % O & E ( ( ( ( / ( / ^ ^ ^ ^ Q ^ Q Q ^ Q Q U Q Q Q P Q ! / 7.3./ Q Q Q U J P P ! ) ) 7.7.7.0.0.0.i.f.h.h.h.j.j.j.h.s.z.A.].].OXOXOXOXOXOXOXOXOXOXOXOXOXOXOXOXOXOXOXOX",
"|.|.|.|.|.|.|.|.|.|.|.|.|.|.|.|.|.|.|.|.OXOXOXOXOXOXOXOXOXOXOXOXOXOXOXOXOXOXOXOX|.|.|.|.|.|.|.|.|.|.|.|.|.|.|.|.|.|.|.|.OXOXOXOXOXOXOXOXOXOXOXOXOXOXOXOXOXOXOXOX|.|.|.|.|.|.|.|.|.|.|.|.|.|.|.|.|.|.|.|.OXOXOXOXOXOXOXOXOXOXOXOXOXOXOXOXOXOXOXOX|.|.|.|.|.|.|.|.|.|.|.|.|.|..X[.U.` U R ^ / / ( ( ( 1.W 8 $ $ O O % O % O O O + - , t u i f f f f f f f f f f i i u u u y u y y y t t 1 t 1 1 3 1 < < 3 < 1 , 2 1 , < < , , , , > > > ; ; - - - # # @ + X .   .       . . . . . o o O O % % $ 8 W ( ( / / / ^ / ^ Q Q Q ^ ^ Q Q Q Q Q P Q Q ! Q ! Q 7.7.) ) ! Q P J G P P ~ ~ ) ) 7.7.7.0.0.f.f.f.h.j.j.c.c.h.a.d.V.A.~.oXOXOXOXOXOXOXOXOXOXOXOXOXOXOXOXOXOXOXOX",
"|.|.|.|.|.|.|.|.|.|.|.|.|.|.|.|.|.|.|.|.OXOXOXOXOXOXOXOXOXOXOXOXOXOXOXOXOXOXOXOX|.|.|.|.|.|.|.|.|.|.|.|.|.|.|.|.|.|.|.|.OXOXOXOXOXOXOXOXOXOXOXOXOXOXOXOXOXOXOXOX|.|.|.|.|.|.|.|.|.|.|.|.|.|._.|.|.|.|.|.OXOXOXOXOXOXOXOXOXOXOXOXOXOXOXOXOXOXOXOX|.|.|.|.|.|.|.|.|.|.|.|.|.|.|.[.].C.W R R ^ / / / ( ( 1.W 4 $ O O O % O O O * O @ ; 1 u f f f f g g g g g f f f i i i u u u u y y y y t t t t t 1 1 t 1 1 < 1 1 < < < 1 < < , , , > > > ; ; - - - # @ + X .     .   . o . . . o o O O % % $ 7 W ( ( / ( ^ / ^ ^ ^ ^ ^ ^ Q Q Q ^ Q Q Q Q Q ! ! ! ! Q 7.8.) ^ ! P P G G G P P ~ ) ) 7.7.7.0.i.0.i.p.f.h.j.h.c.c.c.c.d.V.!.XXoXOXOXOXOXOXOXOXOXOXOXOXOXOXOXOXOXOXOX",
"|.|.|.|.|.|.|.|.|.|.|.|.|.|.|.|.|.|.|.|.OXOXOXOXOXOXOXOXOXOXOXOXOXOXOXOXOXOXOXOX|.|.|.|.|.|.|.|.|.|.|.|.|.|.|.|.|.|.|.|.OXOXOXOXOXOXOXOXOXOXOXOXOXOXOXOXOXOXOXOX|.|.|.|.|.|.|.|.|.|.|.|.|.|.|.|.|.|.|.|.OXOXOXOXOXOXOXOXOXOXOXOXOXOXOXOXOXOXOXOX|.|.|.|.|.|.|.|.|.|.|.|.|.|.|.|. X!.m.E R R R / / / ( ( W W 7 $ O O % O % % O O $ # > t i f g g g g g g g g g f d f f i i i u u u y y y y t t t t t t t 1 t 1 1 1 1 1 < < < , < , , > > ; ; ; - - # @ + X     . . . . . o o o O O O % % & & E W / / / / ^ ^ Q ^ Q ^ Q Q Q Q Q Q Q ! ! Q ! ! ! ! ! ) 7.o.~ ! ! P G x G G G ! ~ ~ ) ) 7.7.7.0.0.0.i.f.f.j.j.j.h.c.c.a.d.V.~.oXOXOXOXOXOXOXOXOXOXOXOXOXOXOXOXOXOXOX",
"|.|.|.|.|.|.|.|.|.|.|.|.|.|._.|.|.|.|.|.OXOXOXOXOXOXOXOXOXOXOXOXOXOXOXOXOXOXOXOX|.|.|.|.|.|.|.|.|.|.|.|.|.|.|.|.|.|.|.|.OXOXOXOXOXOXOXOXOXOXOXOXOXOXOXOXOXOXOXOX|.|.|.|.|.|.|.|.|.|.|.|.|.|.|.|.|.|.|.|.OXOXOXOXOXOXOXOXOXOXOXOXOXOXOXOXOXOXOXOX|.|.|.|.|.|.|.|.|.|.|.|.|.|.|.|.|.[.W.m.T R R R ^ ^ / / ( W W 7 $ $ O O % % % % O + - , y i g h g g g h g h g h g f f f f i f i u u u u y y y y y y t y t t t 1 t 1 1 1 1 < 1 < < , , > > ; ; - - @ + X X . . . . . o o o O O O O % % % & 8 W / / / ) ^ ^ ^ Q Q Q ^ Q Q Q Q Q Q U ! ! ! ! ! ! ! ) ) ) ) ~ ~ P G x x x G G K P ~ ~ ) ) 7.7.7.0.0.0.i.f.p.j.a.c.c.c.v.a.d.A.[.oXOXOXOXOXOXOXOXOXOXOXOXOXOXOXOXOXOX",
"|.|.|.|.|.|.|.|.|.|.|.|.|.|.|.|.|.|.|.|.OXOXOXOXOXOXOXOXOXOXOXOXOXOXOXOXOXOXOXOX|.|.|.|.|.|.|.|.|.|.|.|.|.|.|.|.|.|.|.|.OXOXOXOXOXOXOXOXOXOXOXOXOXOXOXOXOXOXOXOX|.|.|.|.|.|.|.|.|.|.|.|.|.|.|.|.|.|.|.|.OXOXOXOXOXOXOXOXOXOXOXOXOXOXOXOXOXOXOXOX|.|.|.|.|.|.|.|.|.|.|.|.|.|.|.|.|.|.].U.` Y R R R ^ ^ / / / W W 8 $ $ O O % O % % $ + - > y i g h h h h h h h g h g g d g f f f f u i u u u u u y y y y y y t t t t t 1 1 1 < < , < , , > > ; - # @ X X . . o o o o o O O O O % O % * & 8 W / / / ^ ^ Q ^ Q ^ ^ Q ^ Q Q P Q Q Q ! ! ! ! ! ~ ~ ~ ) ) ) ! o.K G G c x x x G G G P ~ ~ ) ) 7.o.7.0.0.0.f.g.h.l.l.l.c.c.a.s.V.~.XXOXOXOXOXOXOXOXOXOXOXOXOXOXOXOXOXOX",
"|.|.|.|.|.|.|.|.|.|.|.|.|.|.|.|.|.|.|.|.OXOXOXOXOXOXOXOXOXOXOXOXOXOXOXOXOXOXOXOX|.|.|.|.|.|.|.|.|.|.|.|.|.|.|.|.|.|.|.|.OXOXOXOXOXOXOXOXOXOXOXOXOXOXOXOXOXOXOXOX|.|.|.|.|.|.|.|.|.|.|.|.|.|.|.|.|.|.|.|.OXOXOXOXOXOXOXOXOXOXOXOXOXOXOXOXOXOXOXOX|.|.|.|.|.|.|.|.|.|.|.|.|.|.|.|.|.|.|.].M.W Y R R R ^ ^ / / / W 5.8 $ $ O % % % O % $ + - , t i g h h h h h h h h h h h g d g g d f f f f f i u u u u u y y y y y y t t t 1 1 < < < < , > > ; - @ + X . . o o o O O O O O O % % * % & 7 E R / ^ ^ ^ ^ Q / Q Q Q Q Q Q Q Q Q Q P ! ! ! ! ~ ~ ~ ~ ) 2.[ [ ' [ L N l j l x x x G G P P ~ ) ) q.7.7.0.0.0.i.f.j.j.l.l.c.j.a.z.Q.XXoXOXOXOXOXOXOXOXOXOXOXOXOXOXOXOXOX",
"|.|.|.|.|.|.|.|.|.|.|.|.|.|.|.|.|.|.|.|.OXOXOXOXOXOXOXOXOXOXOXOXOXOXOXOXOXOXOXOX|.|.|.|.|.|.|.|.|.|.|.|.|.|.|.|.|.|.|.|.OXOXOXOXOXOXOXOXOXOXOXOXOXOXOXOXOXOXOXOX|.|.|.|.|.|.|.|.|.|.|.|.|.|.|.|.|.|.|.|.OXOXOXOXOXOXOXOXOXOXOXOXOXOXOXOXOXOXOXOX|.|.|.|.|.|.|.|.|.|.|.|.|.|.|.|.|.|.|.[.].m.E Y T T R ^ ^ ^ ^ / ^ W 8 & $ O O O % % % % $ - ; < y f g h h h h h h h h h h h h g g g g f f d f f f u f u i u u u y y y y t t 1 1 1 < < > > > ; # + X O o o O O O O O O % % % % * * & 4 E ( ^ ^ ^ ) Q ^ ^ Q Q Q Q ^ Q Q Q U ! ! ! ! ! ! ~ ~ ~ ~ ~ ) ~ } { ..@.@...{ A N l l x x G G G P ~ ) ) ) 7.7.0.0.i.g.f.j.h.h.c.c.a.d.z.[.oXOXOXOXOXOXOXOXOXOXOXOXOXOXOXOXOX",
"|.|.|.|.|.|.|.|.|.|.|.|.|.|.|.|.|.|.|.|.OXOXOXOXOXOXOXOXOXOXOXOXOXOXOXOXOXOXOXOX|.|.|.|.|.|.|.|.|.|.|.|.|.|.|.|.|.|.|.|.OXOXOXOXOXOXOXOXOXOXOXOXOXOXOXOXOXOXOXOX|.|.|.|.|.|.|.|.|.|.|.|.|.|.|.|.|.|.|.|.OXOXOXOXOXOXOXOXOXOXOXOXOXOXOXOXOXOXOXOX|.|.|.|.|.|.|.|.|.|.|.|.|.|.|.|.|.|.|..XXX!.4.E Y Y T T R ^ R / R / W E & $ $ O O % % % % o @ - , t u i g h h h h h h h h h h h h h h h g f g f d f f d i f i u u u y y t t t 1 1 < < , > ; # @ X o o O O O O O O O O % % % * * $ 4 E ^ / ^ ^ ^ ^ Q Q Q ^ Q T P Q ! Q ! ! ! ! ! ! ~ ~ ~ ~ o.o.o.[ { { X.+.@.X.$.$.+.O.[ K b x x G G G P ~ ) 2.7.7.7.0.0.i.i.h.k.c.c.j.a.d.z.~.oXOXOXOXOXOXOXOXOXOXOXOXOXOXOXOXOX",
"|.|.|.|.|.|.|.|.|.|.|.|.|.|.|.|.|.|.|.|.OXOXOXOXOXOXOXOXOXOXOXOXOXOXOXOXOXOXOXOX|.|.|.|.|.|.|.|.|.|.|.|.|.|.|.|.|.|.|.|.OXOXOXOXOXOXOXOXOXOXOXOXOXOXOXOXOXOXOXOX|.|.|.|.|.|.|.|.|.|.|.|.|.|.|.|.|.|.|.|.OXOXOXOXOXOXOXOXOXOXOXOXOXOXOXOXOXOXOXOX|.|.|.|.|.|.|.|.|.|.|.|.|.|.|.|.|.|.|.|.OXXX!.4.E Y Y T T R R ^ ^ ^ ^ W ` 4 & $ O O O % % % % + # - , 1 y i g h h h h h h h h h h h h g h h h g g g f f f f f i i u u y y t t 1 1 < , > ; - + + o O O O O O O % % % % % * * * & 4 E R ^ ^ ^ ) ^ ^ ^ Q Q ! Q ! Q ! Q ! ! ! ! ! ~ ~ ~ ~ ~ o.~ K o.[ { X.X.$.X.$.$.$.&.%.%.#.| L L x G G G P ~ ~ ) o.7.7.0.i.h.k.v.c.c.l.h.p.6.!.oXOXOXOXOXOXOXOXOXOXOXOXOXOXOXOXOX",
"|.|.|.|.|.|.|.|.|.|.|.|.|.|.|.|.|.|.|.|.OXOXOXOXOXOXOXOXOXOXOXOXOXOXOXOXOXOXOXOX|.|.|.|.|.|.|.|.|.|.|.|.|.|.|.|.|.|.|.|.OXOXOXOXOXOXOXOXOXOXOXOXOXOXOXOXOXOXOXOX|.|.|.|.|.|.|.|.|.|.|.|.|.|.|.|.|.|.|.|.OXOXOXOXOXOXOXOXOXOXOXOXOXOXOXOXOXOXOXOX|.|.|.|.|.|.|.|.|.|.|.|.|.|.|.|.|.|.|.|.OXXXXX!.4.E Y Y T T T R R ^ ^ ^ T ` 8 & $ $ % % % % % % * @ # ; , 1 t u u f g g h h h h h h h h g h g h h g h g d f f f i i u u y t t < < , ; ; # + $ o O O O O O % % % % % * * * * & 4 E R ^ ^ ^ Q R ^ Q Q ! ^ Q ! Q Q Q ! ! ! ! ! ~ ~ ~ ~ o.o.~ L L ' } X.X.X.X.$.$.&.&.&.*.*.*.%.+.[ o.~ P G P ! ~ ~ 2.7.0.g.k.c.c.c.c.c.j.f.u.6.!.oXOXOXOXOXOXOXOXOXOXOXOXOXOXOXOXOX",
"|.|.|.|.|.|.|.|.|.|.|.|.|.|.|.|.|.|.|.|.OXOXOXOXOXOXOXOXOXOXOXOXOXOXOXOXOXOXOXOX|.|.|.|.|.|.|.|.|.|.|.|.|.|.|.|.|.|.|.|.OXOXOXOXOXOXOXOXOXOXOXOXOXOXOXOXOXOXOXOX|.|.|.|.|.|.|.|.|.|.|.|.|.|.|.|.|.|.|.|.OXOXOXOXOXOXOXOXOXOXOXOXOXOXOXOXOXOXOXOX|.|.|.|.|.|.|.|.|.|.|.|.|.|.|.|.|.|.|.|.OXOXoXXXW.` E Y Y T Y T T R R ^ R R ` E 7 & $ O % % * % % * O @ @ - ; , < t y u i i f g f f f f g g g g f d f f g f f i u u u y t 1 < < > ; # @ + $ O O O % O % % % % * * * * * * & 7 E R Q ^ ^ Q ) Q Q ! Q Q ! ! Q Q ! ! ! ! ! ~ ~ ~ ~ ~ ~ o.K L L ' ]  .X.X.@.$.$.$.&.&.&.*.-.*.e.*.=.=.=.B.B.<.U ! ) 7.f.k.k.c.c.v.c.c.h.a.p.8.5.!.oXOXOXOXOXOXOXOXOXOXOXOXOXOXOXOXOX",
"|.|.|.|.|.|.|.|.|.|.|.|.|.|.|.|.|.|.|.|.OXOXOXOXOXOXOXOXOXOXOXOXOXOXOXOXOXOXOXOX|.|.|.|.|.|.|.|.|.|.|.|.|.|.|.|.|.|.|.|.OXOXOXOXOXOXOXOXOXOXOXOXOXOXOXOXOXOXOXOX|.|.|.|.|.|.|.|.|.|.|.|.|.|.|.|.|.|.|.|.OXOXOXOXOXOXOXOXOXOXOXOXOXOXOXOXOXOXOXOX|.|.|.|.|.|.|.|.|.|.|.|.|.|.|.|.|.|.|.|.OXOXOXOXXXW.` E J Y Y Y T T T R R R ^ R E 8 & & % % % * * % * * % O @ - - > , < 1 t t y y u u u u u i i i i i u u u u y y t 1 < < , > ; - @ + $ O O O O O O % % % % * * * * * * & 7 E R Q Q ^ ^ Q Q ! ^ Q ! Q ! Q ! ! ! ! ! ! ! ! ~ ~ ~ K [ ~ K L D {  .X.X.@.@.$.$.&.&.*.*.-.*.e.e.e.r.e.=.=.B.Y.Y.0.i.k.k.k.v.v.c.c.c.h.h.p.u.3.5.].oXOXOXOXOXOXOXOXOXOXOXOXOXOXOXOXOX",
"OXOXOXOXOXOXOXOXOXOXOXOXOXOXOXOXOXOXOXOX|.|.|.|.|.|.|.|.|.|.|.|.|.|.|.|.|.|.|.|.OXOXOXOXOXOXOXOXOXOXOXOXOXOXOXOXOXOXOXOX|.|.|.|.|.|.|.|.|.|.|.|.|.|.|.|.|.|.|.|.OXOXOXOXOXOXOXOXOXOXOXOXOXOXOXOXOXOXOXOX|.|.|.|.|.|.|.|.|.|.|.|.|.|.|.|.|.|.|.|.OXOXOXOXOXOXOXOXOXOXOXOXOXOXOXOXOXOXOXOX|.|.|.|.|.].U.` E I I Y Y T T T T R R R R ` E 7 & $ * * * * * % * % % % $ @ @ - - ; ; > > , < < < t 1 t t t t y 1 1 1 < , , > ; - # @ + + $ $ O % % O % % % % * * * * * * * 4 & 8 E R Q ^ ^ ^ Q Q Q Q Q ! Q ! ! ! ! ! ! ! ~ ~ ~ ~ ~ K o.~ K L C C ]  .X.X.@.@.@.$.*.&.&.-.*.-.-.e.e.r.r.r.e.w.=.=.=.t.g.k.c.c.c.c.c.c.l.h.h.u.3.1.m.].|.|.|.|.|.|.|.|.|.|.|.|.|.|.|.|.|.",
"OXOXOXOXOXOXOXOXOXOXOXOXOXOXOXOXOXOXOXOX|.|.|.|.|.|.|.|.|.|.|.|.|.|.|.|.|.|.|.|.OXOXOXOXOXOXOXOXOXOXOXOXOXOXOXOXOXOXOXOX|.|.|.|.|.|.|.|.|.|.|.|.|.|.|.|.|.|.|.|.OXOXOXOXOXOXOXOXOXOXOXOXOXOXOXOXOXOXOXOX|.|.|.|.|.|.|.|.|.|.|.|.|.|.|.|.|.|.|.|.OXOXOXOXOXOXOXOXOXOXOXOXOXOXOXOXOXOXOXOX|.|.|.|.|.].].U.` I I Y Y Y Y T T T T T T R R ` E 7 & $ O * * * * * * * * % O % + @ @ @ # # - - ; ; ; ; > > > ; ; ; ; - - - - @ + + + $ O % % % % % % * % % * * * * * * * & 4 8 Y Q ^ ^ Q Q ) T ! ^ Q ! ! ! ! ! ! ! ! ! ~ ! ~ ! ~ o.~ o.~ L L C F  . .X.X.X.@.$.$.&.&.&.*.-.e.e.r.e.r.r.r.t.r.e.w.=.=.y.k.c.c.c.c.c.l.j.p.p.9.2.5.C.].|.|.|.|.|.|.|.|.|.|.|.|.|.|.|.|.|.",
"OXOXOXOXOXOXOXOXOXOXOXOXOXOXOXOXOXOXOXOX|.|.|.|.|.|.|.|.|.|.|.|.|.|.|.|.|.|.|.|.OXOXOXOXOXOXOXOXOXOXOXOXOXOXOXOXOXOXOXOX|.|.|.|.|.|.|.|.|.|.|.|.|.|.|.|.|.|.|.|.OXOXOXOXOXOXOXOXOXOXOXOXOXOXOXOXOXOXOXOX|.|.|.|.|.|.|.|.|.|.|.|.|.|.|.|.|.|.|.|.OXOXOXOXOXOXOXOXOXOXOXOXOXOXOXOXOXOXOXOX|.|.|.|.|.|..X].U.` I Y I Y Y Y Y T T R T T T T ` ` E 7 & & * * * * * * * * * % O * % $ $ $ + + + + + + + + + + + + + + + o $ o $ O % % O % % % % * * * * * * * * * % & & 7 E T ^ Q Q Q ) Q Q Q Q ! ! Q ! Q ! ! ! ! ! ~ ~ ~ ~ o.~ [ ~ K L L C D  . .X.X.@.@.$.@.$.&.&.&.*.-.-.-.e.e.e.r.r.t.t.r.r.*.=.=.t.k.k.k.c.l.h.f.i.9.3.1.4.W.].|.|.|.|.|.|.|.|.|.|.|.|.|.|.|.|.|.",
"OXOXOXOXOXOXOXOXOXOXOXOXOXOXOXOXOXOXOXOX|.|.|.|.|.|.|.|.|.|.|.|.|.|.|.|.|.|.|.|.OXOXOXOXOXOXOXOXOXOXOXOXOXOXOXOXOXOXOXOX|.|.|.|.|.|.|.|.|.|.|.|.|.|.|.|.|.|.|.|.OXOXOXOXOXOXOXOXOXOXOXOXOXOXOXOXOXOXOXOX|.|.|.|.|.|.|.|.|.|.|.|.|.|.|.|.|.|.|.|.OXOXOXOXOXOXOXOXOXOXOXOXOXOXOXOXOXOXOXOX|.|.|.|.|.|.|.].].C.8 Y I I I Y Y Y Y Y Y T T T T T Y ` 8 7 & $ $ * * * * * * * * * * * O * O * % % O % O O O % O O O O % O % % % % * O * * % % * * * * * * * * * & & 4 8 E R ^ Q Q Q ^ Q ! ^ ! ! ! ! ! ! ! ! ! ! ! ~ ~ ~ ~ ~ K o.L ~ L L C A F  . .X.X.@.@.$.$.$.&.&.&.*.-.-.e.r.r.r.r.t.r.r.r.r.r.-.%.=.w.g.k.k.j.g.i.u.3./ 5.M.]. X|.|.|.|.|.|.|.|.|.|.|.|.|.|.|.|.|.",
"OXOXOXOXOXOXOXOXOXOXOXOXOXOXOXOXOXOXOXOX|.|.|.|.|.|.|.|.|.|.|.|.|.|.|.|.|.|.|.|.OXOXOXOXOXOXOXOXOXOXOXOXOXOXOXOXOXOXOXOX|.|.|.|.|.|.|.|.|.|.|.|.|.|.|.|.|.|.|.|.OXOXOXOXOXOXOXOXOXOXOXOXOXOXOXOXOXOXOXOX|.|.|.|.|.|.|.|.|.|.|.|.|.|.|.|.|.|.|.|.OXOXOXOXOXOXOXOXOXOXOXOXOXOXOXOXOXOXOXOX|.|.|.|.|.|.|.|.].!.4.I E I Y I I Y Y Y Y Y Y Y Y T T T ` W E 8 4 4 * * * * * * * * % * * * * * O * * % * % % % % % % % % % * % * * * * * % * * * * * * * * * * & 4 8 E T Q ^ Q Q ^ ! Q ! T ! ! Q ! ! ! ! ! ! ~ ~ ~ ~ ~ ~ o.o.~ K ~ L C N C D F  . .X.@.@.@.$.$.$.&.&.&.&.-.-.e.-.e.e.r.t.r.r.t.e.e.-.-.&.=.=.y.f.g.i.9.3.2./ 4.!.]..X|.|.|.|.|.|.|.|.|.|.|.|.|.|.|.|.|.",
"OXOXOXOXOXOXOXOXOXOXOXOXOXOXOXOXOXOXOXOX|.|.|.|.|.|.|.|.|.|.|.|.|.|.|.|.|.|.|.|.OXOXOXOXOXOXOXOXOXOXOXOXOXOXOXOXOXOXOXOX|.|.|.|.|.|.|.|.|.|.|.|.|.|.|.|.|.|.|.|.OXOXOXOXOXOXOXOXOXOXOXOXOXOXOXOXOXOXOXOX|.|.|.|.|.|.|.|.|.|.|.|.|.|.|.|.|.|.|.|.OXOXOXOXOXOXOXOXOXOXOXOXOXOXOXOXOXOXOXOX|.|.|.|.|.|.|.|.|.].C.` I I Y 8 I I I I Y Y Y Y Y Y Y Y I Y Y E E 8 7 & & $ * * * * * * * * * * * * * * * * % * * * * * * * * * * * * * * * * * * * * * * * & 4 8 E Y Q Q Q Q Q Q Q ! ! ! ! Q ! ! ! ! ! ! ~ ! ~ ~ ~ ~ o.~ o.o.[ ~ L K N b B A F  . .X.X.@.@.$.@.$.&.&.&.-.-.-.-.-.r.e.e.e.e.e.e.r.r.e.-.*.&.#.=.w.0.0.0.2./ W C.]..X|.|.|.|.|.|.|.|.|.|.|.|.|.|.|.|.|.|.",
"OXOXOXOXOXOXOXOXOXOXOXOXOXOXOXOXOXOXOXOX|.|.|.|.|.|.|.|.|.|.|.|.|.|.|.|.|.|.|.|.OXOXOXOXOXOXOXOXOXOXOXOXOXOXOXOXOXOXOXOX|.|.|.|.|.|.|.|.|.|.|.|.|.|.|.|.|.|.|.|.OXOXOXOXOXOXOXOXOXOXOXOXOXOXOXOXOXOXOXOX|.|.|.|.|.|.|.|.|.|.|.|.|.|.|.|.|.|.|.|.OXOXOXOXOXOXOXOXOXOXOXOXOXOXOXOXOXOXOXOX|.|.|.|.|.|.|.|.|.|.~.m.` H I I I I I I I I I Y Y Y Y Y Y Y Y Y Y E E E 8 4 & & * * * * * * * * * * * * * * * * * % * * * * % * * * * * * * * * * * * & & 4 8 E Y T Q Q Q Q Q ! ! Q ! Q ! ! ! ) ! ! ~ ! ~ ) ~ ~ ~ ~ ~ o.o.o.~ L L N c l k n V A D F  .X.@.@.$.$.$.$.&.&.&.-.-.-.-.e.e.e.-.e.e.e.-.e.-.-.*.*.&.#.O.=.7.7./ T M.[. X|.|.|.|.|.|.|.|.|.|.|.|.|.|.|.|.|.|.|.",
"OXOXOXOXOXOXOXOXOXOXOXOXOXOXOXOXOXOXOXOX|.|.|.|.|.|.|.|.|.|.|.|.|.|.|.|.|.|.|.|.OXOXOXOXOXOXOXOXOXOXOXOXOXOXOXOXOXOXOXOX|.|.|.|.|.|.|.|.|.|.|.|.|.|.|.|.|.|.|.|.OXOXOXOXOXOXOXOXOXOXOXOXOXOXOXOXOXOXOXOX|.|.|.|.|.|.|.|.|.|.|.|.|.|.|.|.|.|.|.|.OXOXOXOXOXOXOXOXOXOXOXOXOXOXOXOXOXOXOXOX|.|.|.|.|.|.|.|.|.|.[.W.m.5.Y I I I I I I Y I I I I I Y Y Y Y Y Y Y Y Y E E 8 8 4 & & & & * * * * * * * * * * * * * * * * * * * * * * * * * & * & & 4 7 8 E Y Y U P Q Q Q ! Q ! Q ! ! ! ! ! ! ! ) ~ ~ Q ~ ~ ~ ~ ~ [ o.o.o.K K G N x l j k v m Z A D F  .X.X.@.$.$.$.&.&.&.-.-.-.-.-.e.-.e.e.-.-.-.-.-.-.*.*.&.&.%.| ~ ) T 4.~.oX.X|.|.|.|.|.|.|.|.|.|.|.|.|.|.|.|.|.|.|.",
"OXOXOXOXOXOXOXOXOXOXOXOXOXOXOXOXOXOXOXOX|.|.|.|.|.|.|.|.|.|.|.|.|.|.|.|.|.|.|.|.OXOXOXOXOXOXOXOXOXOXOXOXOXOXOXOXOXOXOXOX|.|.|.|.|.|.|.|.|.|.|.|.|.|.|.|.|.|.|.|.OXOXOXOXOXOXOXOXOXOXOXOXOXOXOXOXOXOXOXOX|.|.|.|.|.|.|.|.|.|.|.|.|.|.|.|.|.|.|.|.OXOXOXOXOXOXOXOXOXOXOXOXOXOXOXOXOXOXOXOX|.|.|.|.|.|.|.|.|..X].].W.m.5.Y I I I I I I I I Y I I I Y I I Y Y I Y Y Y Y E ` E E 8 8 7 4 & & & * * * * * * * * * * * * * * * * * & & & & 4 4 8 E E T T T Q Q Q Q Q Q Q ! Q ! ! ! ! ! ! ! ~ ! ! ~ ) ~ ~ ) o.o.o.o.~ [ ~ L K x x j j a a d n m Z V A D ]  ...@.@.$.&.$.&.&.-.-.*.*.-.-.-.-.-.*.-.-.*.-.*.&.&.&.$.#.| ~ ~ R.XXOX|.|.|.|.|.|.|.|.|.|.|.|.|.|.|.|.|.|.|.|.",
"OXOXOXOXOXOXOXOXOXOXOXOXOXOXOXOXOXOXOXOX|.|.|.|.|.|.|.|.|.|.|.|.|.|.|.|.|.|.|.|.OXOXOXOXOXOXOXOXOXOXOXOXOXOXOXOXOXOXOXOX|.|.|.|.|.|.|.|.|.|.|.|.|.|.|.|.|.|.|.|.OXOXOXOXOXOXOXOXOXOXOXOXOXOXOXOXOXOXOXOX|.|.|.|.|.|.|.|.|.|.|.|.|.|.|.|.|.|.|.|.OXOXOXOXOXOXOXOXOXOXOXOXOXOXOXOXOXOXOXOX|.|.|.|.|.|.|.|.|.|.|..X].W.4.5.R Y 8 I I I I I I I T I I I U I I I Y I U Y I Y Y Y Y E E E 8 8 7 4 4 4 4 4 & 4 & & & & & 4 & 4 & 4 4 7 8 8 E ` T T T ! Q Q Q ! Q Q ! ! Q ! ! ! ! ! ! ! ) ~ ! ~ ~ ~ ~ ) o.~ o.o.o.o.K K L N x l p j k k v n m Z Z Z V A D D ]  ...X.$.$.$.&.&.&.&.-.*.*.*.*.*.*.-.&.&.&.&.&.&.$.%.#.+.| <.!.XXoX|.|.|.|.|.|.|.|.|.|.|.|.|.|.|.|.|.|.|.|.",
"OXOXOXOXOXOXOXOXOXOXOXOXOXOXOXOXOXOXOXOX|.|.|.|.|.|.|.|.|.|.|.|.|.|.|.|.|.|.|.|.OXOXOXOXOXOXOXOXOXOXOXOXOXOXOXOXOXOXOXOX|.|.|.|.|.|.|.|.|.|.|.|.|.|.|.|.|.|.|.|.OXOXOXOXOXOXOXOXOXOXOXOXOXOXOXOXOXOXOXOX|.|.|.|.|.|.|.|.|.|.|.|.|.|.|.|.|.|.|.|.OXOXOXOXOXOXOXOXOXOXOXOXOXOXOXOXOXOXOXOX|.|.|.|.|.|.|.|.|.|.|..X|.].!.m.5.R 8 Y H I I I I I I I Y I I I Y I I I I I Y U U U U Y Y E E E E E E E E 8 8 8 8 8 8 8 8 8 E 8 E E E ` T T Y T Y Q Q Y Q U Q Q P ! U Q ! ! Q ! ! ! ! ~ Q ~ ) ~ ) ~ ~ o.o.o.o.o.o.~ K K x x l l b B B A D D F  .D S S S D A A F ] ..X.@.$.$.&.&.&.-.&.&.&.&.&.&.&.&.&.&.&.&.$.$.@.#.#.O.o.C.].OX.X|.|.|.|.|.|.|.|.|.|.|.|.|.|.|.|.|.|.|.",
"OXOXOXOXOXOXOXOXOXOXOXOXOXOXOXOXOXOXOXOX|.|.|.|.|.|.|.|.|.|.|.|.|.|.|.|.|.|.|.|.OXOXOXOXOXOXOXOXOXOXOXOXOXOXOXOXOXOXOXOX|.|.|.|.|.|.|.|.|.|.|.|.|.|.|.|.|.|.|.|.OXOXOXOXOXOXOXOXOXOXOXOXOXOXOXOXOXOXOXOX|.|.|.|.|.|.|.|.|.|.|.|.|.|.|.|.|.|.|.|.OXOXOXOXOXOXOXOXOXOXOXOXOXOXOXOXOXOXOXOX|.|.|.|.|.|.|.|.|.|.|.|.|.].[.W.m.W 5.Y I I H I I I I I I I I I I I I I I I I I I I I I I U U U U Y U Y Y Y R E Y E Y ` Y Y T Y Y Y Y Q Y Q Y Q Q U Q Q Q U P ! U ! Q ! Q ! ! ! ! ! ~ ! ~ ~ ~ ~ ~ ~ o.o.o.o.o.K K K N z z l b C A F F  .X. . . . . . .F S S D A F ] ] ..X.$.$.$.&.&.&.*.&.&.&.&.&.$.&.&.%.&.$.$.#.#.+.+.O.<.B. X X|.|.|.|.|.|.|.|.|.|.|.|.|.|.|.|.|.|.|.",
"OXOXOXOXOXOXOXOXOXOXOXOXOXOXOXOXOXOXOXOX|.|.|.|.|.|.|.|.|.|.|.|.|.|.|.|.|.|.|.|.OXOXOXOXOXOXOXOXOXOXOXOXOXOXOXOXOXOXOXOX|.|.|.|.|.|.|.|.|.|.|.|.|.|.|.|.|.|.|.|.OXOXOXOXOXOXOXOXOXOXOXOXOXOXOXOXOXOXOXOX|.|.|.|.|.|.|.|.|.|.|.|.|.|.|.|.|.|.|.|.OXOXOXOXOXOXOXOXOXOXOXOXOXOXOXOXOXOXOXOX|.|.|.|.|.|.|.|.|.|.|.|.|.|.|.[.!.m.5.R R I I H I 8 I I I I I I I I I I I I I I I Y I I I I I I U I U I I U U U Y U Y U U Y U U U U U U U J U Q J Q Q J P U Q Q ! Q ! ! ! ! ! ! ~ ! ~ ~ ~ ~ ~ ~ o.o.o.o.o.o.~ L N z l b M m S F ]  . ...X.X.X.X.X.X.X. . .F S S D D F ] { ..@.$.$.&.&.%.$.&.$.&.$.$.$.$.&.@.$.#.#.+.+.+.O.| <.Y.`. X|.|.|.|.|.|.|.|.|.|.|.|.|.|.|.|.|.|.",
"OXOXOXOXOXOXOXOXOXOXOXOXOXOXOXOXOXOXOXOX|.|.|.|.|.|.|.|.|.|.|.|.|.|.|.|.|.|.|.|.OXOXOXOXOXOXOXOXOXOXOXOXOXOXOXOXOXOXOXOX|.|.|.|._.|.|.|.|.|.|.|.|.|.|.|.|.|.|.|.OXOXOXOXOXOXOXOXOXOXOXOXOXOXOXOXOXOXOXOX|.|.|.|.|.|.|.|.|.|.|.|.|.|.|.|.|.|.|.|.OXOXOXOXOXOXOXOXOXOXOXOXOXOXOXOXOXOXOXOX|.|.|.|.|.|.|.|.|.|.|.|.|.|.|.|.[.W.1.R / ^ Y I I H I H I H I I H I I I I I I I I I I I I U I U I I I U I I U I U U J U U U U U U Q U U U Q U U U Q U Q Q Q ! Q Q ! ! ! ! ! ~ ! ! ~ ~ ~ ~ ~ ~ o.o.o.o.[ o.L K N z z n C S F  . . .X.X.X.X.@.X.X.X.@.@.@.X.X. .S S S A D F ] { X.$.$.$.$.$.$.$.$.&.$.$.@.#.#.+.%.+.+.O.O...| } <.R. X.X|.|.|.|.|.|.|.|.|.|.|.|.|.|.|.|.|.",
"OXOXOXOXOXOXOXOXOXOXOXOXOXOXOXOXOXOXOXOX|.|.|.|.|.|.|.|.|.|.|.|.|.|.|.|.|.|.|.|.OXOXOXOXOXOXOXOXOXOXOXOXOXOXOXOXOXOXOXOX|.|.|.|.|.|.|.|.|.|.|.|.|.|.|.|.|.|.|.|.OXOXOXOXOXOXOXOXOXOXOXOXOXOXOXOXOXOXOXOX|.|.|.|.|.|.|.|.|.|.|.|.|.|.|.|.|.|.|.|.OXOXOXOXOXOXOXOXOXOXOXOXOXOXOXOXOXOXOXOX|.|.|.|.|.|.|.|.|.|.|.|.|.|.|.|. X!.W Q ^ ^ ^ T I I H H H I H I I I H I I I I I I I I I U I J I U I U I I U I I U U Y J U U U U U U U U U U U Q P U P Q P ! P Q P ! P ! ! ~ P ~ ~ ~ ~ ~ o.~ o.o.o.o.o.~ K N z b n A S F  ...X.X.X.X.X.@.@.@.@.X.@.@.X.@.@.X.X.X. .D S Z A D ] { ..X.$.$.$.$.@.$.$.$.#.$.+.$.+.+.+.@.O.O.| | | o.<.!. X.X|.|.|.'.|.|.|.|.|.|.|.|.|.|.|.|.",
"OXOXOXOXOXOXOXOXOXOXOXOXOXOXOXOXOXOXOXOX|.|.|.|.|.|.|.|.|._.|.|.|.|.|.|.|.|.|.|.OXOXOXOXOXOXOXOXOXOXOXOXOXOXOXOXOXOXOXOX|.|.|.|.|.|.|.|.|.|.|.|.|.|.|.|._.|.|.|.OXOXOXOXOXOXOXOXOXOXOXOXOXOXOXOXOXOXOX|.|.|.|.|.|.|.|.|.|.|.|.|.|.|.|.|.|.|.|.|.OXOXOXOXOXOXOXOXOXOXOXOXOXOXOXOXOXOXOXOX|.|.|.|.|.|.|.|.|.|.|.|.|.|.|.|.|.!.4.^ Q Q T R R Y I H H H H I H H H I H I H I I I I I J I I I J I J I J I J I I Y H Y U J U U U U U U U U P U U J Q U P Q P ! ! ! P ! ! ~ ~ ~ ~ ~ [ ! o.o.o.o.o.K L L N z n C F F  . .X.X.X.X.@.@.@.@.@.$.@.$.$.$.$.@.@.@.X. .X. .F S S A D F ] { X.X.$.$.$.#.$.+.@.+.X.+.+.X.O.O.O.| O.} } } o.B.`.|.|.|.|.|.|.|.|.|.|.|.|.|.|.|.|.|.",
"OXOXOXOXOXOXOXOXOXOXOXOXOXOXOXOXOXOXOXOX|.|.|.|.|.|.|.|.|.|.|.|.|.|.|.|.|.|.|.|.OXOXOXOXOXOXOXOXOXOXOXOXOXOXOXOXOXOXOXOX|.|.|.|.|.|.|.|.|.|.|.|.|.|.|.|.|.|.|.|.OXOXOXOXOXOXOXOXOXOXOXOXOXOXOXOXOXOXOXOX|.|.|.|.|.|.|.|.|.|.|.|.|.|.|.|.|.|.|.|.OXOXOXOXOXOXOXOXOXOXOXOXOXOXOXOXOXOXOXOX|.|.|.|.|.|.|.|.|.|.|.|.|.|.|.|..X].m./ ) Q Q Y Y T T I H I H H H H I H H I Y H I H I J I I J I I I I I I I I J I I I U J U U J U U U J U U U P U P P P ! Q P ! P P ! P ~ P ~ ~ ~ ~ ~ [ ~ [ o.K L L N B B S D F  . .X.X.X.X.@.@.@.$.X.$.$.$.$.$.$.$.$.$.@.@.@.@.@.X.X. .S S S F D ] { ..X.X.@.+.@.+.+.+.#.X.+.+.O.| | | } } [ [ L :.R. X.X|.|.|.|.|.|.|.|.|.|.|.|.|.|.|.",
"OXOXOXOXOXOXOXOXOXOXOXOXOXOXOXOXOXOXOXOX|.|.|.|.|.|.|.|.|.|.|.|.|.|.|.|.|.|.|.|.OXOXOXOXOXOXOXOXOXOXOXOXOXOXOXOXOXOXOXOX|.|.|.|.|.|.|.|.|.|.|.|.|.|.|.|.|.|.|.|.OXOXOXOXOXOXOXOXOXOXOXOXOXOXOXOXOXOXOXOX|.|.|.|.|.|.|.|.|.|.|.|.|.|.|.|.|.|.|.|.OXOXOXOXOXOXOXOXOXOXOXOXOXOXOXOXOXOXOXOX|.|.|.|.|.|.|.|.|.|.|.|.|.|.|.|..X].M.( ) ) ~ T Q U Y Y Y I H H J 8 H H H H H H I H H I H J I H J I J I J I J I J I J J U U J U U U J U U P U U P U P U P P P P ! P P ~ ~ ~ ~ ~ o.o.K ~ ~ [ L L G n B V D F  . . .X.X.X.X.X.@.@.$.$.&.$.$.$.$.$.$.$.$.$.&.$.$.@.@.@.X.X...F S S D S ] ] { ..X.+.+.+.@.+.X.O...O...| | } } [ [ [ [ ~ N.`. X|.|.|.|.|.|.|.|.|.|.|..X|.|.|.",
"OXOXOXOXOXOXOXOXOXOXOXOXOXOXOXOXOXOXOXOX|.|.|.|.|.|.|.|.|.|.|.|.|.|.|.|.|.|.|.|.OXOXOXOXOXOXOXOXOXOXOXOXOXOXOXOXOXOXOXOX|.|.|.|.|.|.|.|.|.|.|.|.|.|.|.|.|.|.|.|.OXOXOXOXOXOXOXOXOXOXOXOXOXOXOXOXOXOXOXOX|.|.|.|.|.|.|.|.|.|.|.|.|.|.|.|.|.|.|.|.OXOXOXOXOXOXOXOXOXOXOXOXOXOXOXOXOXOXOXOX|.|.|.|.|.|.|.|.|.|.|.|.|.|.|.|.|.].V.1.( ) ) ) ! Q U U U U I I H H H H 8 H H H H H I H H I H I H J J I J I J J J J J I J J I J J J U J P J J P P U P P P P ! P P ~ K K ~ L ~ L K [ K [ L L N B Z D F S F  . .X.X.X.@.@.@.@.$.$.$.$.$.&.&.&.&.&.&.-.&.&.$.$.$.$.$.@.@.@.X. . .] S A D ' [ { ....| @.X.O.O.O.O...} | } } [ [ [ ' ' K :.!.{.|.|.|.|.|.|.|.|.|.|.|.|.|.|.|.",
"OXOXOXOXOXOXOXOXOXOXOXOXOXOXOXOXOXOXOXOX|.|.|.|.|.|.|.|.|.|.|.|.|.|.|.|.|.|.|.|.OXOXOXOXOXOXOXOXOXOXOXOXOXOXOXOXOXOXOXOX|.|.|.|.|.|.|.|.|.|.|.|.|.|.|.|.|.|.|.|.OXOXOXOXOXOXOXOXOXOXOXOXOXOXOXOXOXOXOXOX|.|.|.|.|.|.|.|.|.|.|.|.|.|.|.|.|.|.|.|.OXOXOXOXOXOXOXOXOXOXOXOXOXOXOXOXOXOXOXOX|.|.|.|.|.|.|.|.|.|.|.|.|.|.|.|.|.].C.5.2.7.) ) ~ ) ! Q U U U H I H H H H H H H H H H H H H H H I H H H I H J I J I J J J I J J J J J J J J P J J P P P P P P P ! L ! ~ K ~ K ~ K [ L L N C C A D D F  . . .X.X.X.@.@.@.$.$.$.&.$.&.&.&.&.&.&.&.&.&.&.&.&.&.&.$.$.$.@.@.@.X.X. .F D A A S ' ] { ..| O...O.| ..| } } } [ [ ' L [ L N G I.{..X|.|.|..X|.|.|.|.|.|.|.|.|.|.",
"|.|.|.|.|.|.|.|.|.|.|.|.|.|.|.|.|.|.|.|.OXOXOXOXOXOXOXOXOXOXOXOXOXOXOXOXOXOXOXOX|.|.|.|.|.|.|.|.|.|.|.|.|.|.|.|.|.|.|.|.OXOXOXOXOXOXOXOXOXOXOXOXOXOXOXOXOXOXOXOX|.|.|.|.|.|.|.|.|.|.|.|.|.|.|.|.|.|.|.|.OXOXOXOXOXOXOXOXOXOXOXOXOXOXOXOXOXOXOXOX|.|.|.|.|.|.|.|.|.|.|.|.|.|.|.|.|.|.|.|.OXOXOXOXOXOXOXOXOXOXOXOXOXOXOXOXoXXX!.5.3.7.7.) ) ) ) ! ! Q Q J J J H H H H H H H H H H H H H H H H H H H H H H J H J H J J J J J J J J P J J J P J P P P P K ~ K ~ K [ ~ ~ L ' L L C C S A D D F F  . . .X.X.@.@.@.@.$.$.&.$.&.&.&.*.&.&.-.-.-.-.-.&.-.-.-.&.&.&.$.@.$.@.@.X.X. . .A A A A ' ] { { ....| ..} } } } [ [ ' [ ' L C L G ,.`.oXOXOXOXOXOXOXOXOXOXOXOXOXOXOX",
"|.|.|.|.|.|.|.|.|.|.|.|.|.|.|.|.|.|.|.|.OXOXOXOXOXOXOXOXOXOXOXOXOXOXOXOXOXOXOXOX|.|.|.|.|.|.|.|.|.|.|.|.|.|.|.|.|.|.|.|.OXOXOXOXOXOXOXOXOXOXOXOXOXOXOXOXOXOXOXOX|.|.|.|.|.|.|.|.|.|.|.|.|.|.|.|.|.|.|.|.OXOXOXOXOXOXOXOXOXOXOXOXOXOXOXOXOXOXOXOX|.|.|.|.|.|.|.|.|.|.|.|.|.|.|.|.|.|.|.|.OXOXOXOXOXOXOXOXOXOXOXOXOXOXOXOXOXXX~.6.3.8.7.7.7.) ) ) ) ! ! Q Q U J H H H H H 8 H 8 H H H H H H H H H H H H H H J H H H J H J J J J J J J J J J P G P G P G P L P L K L L L L C C C A A D F F  . . .X.X.X.@.X.@.$.$.$.$.$.&.&.&.&.&.-.-.&.&.-.-.-.-.-.-.-.&.-.&.&.$.$.@.@.X.X.X. . .D A Z A A A ] { } } } } } [ [ [ [ ' ' K C L N M _ `.oXOXOXOXOXOXOXOXOXOXOXOXOXOXOX",
"|.|.|.|.|.|.|.|.|.|.|.|.|.|.|.|.|.|.|.|.OXOXOXOXOXOXOXOXOXOXOXOXOXOXOXOXOXOXOXOX|.|.|.|.|.|.|.|.|.|.|.|.|.|.|.|.|.|.|.|.OXOXOXOXOXOXOXOXOXOXOXOXOXOXOXOXOXOXOXOX|.|.|.|.|.|.|.|.|.|.|.|.|.|.|.|.|.|.|.|.OXOXOXOXOXOXOXOXOXOXOXOXOXOXOXOXOXOXOXOX|.|.|.|.|.|.|.|.|.|.|.|.|.|.|.|.|.|.|.|.OXOXOXOXOXOXOXOXOXOXOXOXOXOXOXOXOXoX~.M.8.u.u.0.9.7.7.) ) ~ ! ! ! Q Q U J H H H E E 8 ` E E 8 H H H H H H H H H H H H J H H J H H H G J J G J G P G P G K G L L G L G K N C m V V A A D D F F  . . .X.X.X.@.@.$.$.$.$.&.&.&.&.&.&.*.-.*.-.-.-.-.-.-.-.e.-.e.-.e.-.-.&.$.$.$.@.@.@.X. . .F A A V A ' ] { { { [ { [ [ [ ' ' K L L N N N G !.oXOXOXOXOXOXOXOXOXOXOXOXOXOXOX",
"|.|.|.|.|.|.|.|.|.|.|.|.|.|.|.|.|.|.|.|.OXOXOXOXOXOXOXOXOXOXOXOXOXOXOXOXOXOXOXOX|.|.|.|.|.|.|.|.|.|.|.|.|.|.|.|.|.|.|.|.OXOXOXOXOXOXOXOXOXOXOXOXOXOXOXOXOXOXOXOX|.|.|.|.|.|.|.|.|.|.|.|.|.|.|.|.|.|.|.|.OXOXOXOXOXOXOXOXOXOXOXOXOXOXOXOXOXOXOXOX|.|.|.|.|.|.|.|.|.|.|.|.|.|.|.|.|.|.|.|.OXOXOXOXOXOXOXOXOXOXOXOXOXOXOXOXOXoX].V.8.u.u.0.0.0.0.7.7.) ~ ) ! ! Q P P J J m.~.!.].[.].!.U.4.H H H H H H H H H H J H H J H J J J J J J J P P P P P P P ~ P ~ L ~ ~ L C B V V A D F F  . . . .X.X.X.@.@.$.$.$.$.&.&.&.&.&.&.&.*.-.*.-.-.-.e.e.-.e.e.e.e.e.e.-.-.-.&.&.$.$.$.@.X.X.X. . .F A V V A ' ' ] [ [ [ ' ' K [ L L L N N N x G R.oXOXOXOXOXOXOXOXOXOXOXOXOXOXOX",
"|.|.|.|.|.|.|.|.|.|.|.|.|.|.|.|.|.|.|.|.OXOXOXOXOXOXOXOXOXOXOXOXOXOXOXOXOXOXOXOX|.|.|.|.|.|.|.|.|.|.|.|.|.|.|.|.|.|.|.|.OXOXOXOXOXOXOXOXOXOXOXOXOXOXOXOXOXOXOXOX|.|.|.|.|.|.|.|.|.|.|.|.|.|.|.|.|.|.|.|.OXOXOXOXOXOXOXOXOXOXOXOXOXOXOXOXOXOXOXOX|.|.|.|.|.|.|.|.|.|.|.|.|.|.|.|.|.|.|.|.OXOXOXOXOXOXOXOXOXOXOXOXOXOXOXOXOXoX[.A.q.u.p.p.i.i.0.0.7.7.) ) ) ! ! Q U J I C.XXoXoXoXoXoXXX].4.E I I I Y Y Y Y Y Y Y Q Y Y Y T T Q Q Q Q ! Q P ! P ~ K ~ K ~ K K K L B V V A D F ]  .]  .X. .X.X.$.X.$.$.$.$.&.&.&.&.&.&.&.*.*.-.e.-.e.e.-.e.r.e.e.r.e.r.e.e.e.-.-.&.&.$.$.$.@.X.X... .] ] D Z B B C ' ' ] ' ' ' L L L L N N N N N G R.OXOXOXOXOXOXOXOXOXOXOXOXOXOXOX",
"|.|.|.|.|.|.|.|.|.|.|.|.|.|.|.|.|.|.|.|.OXOXOXOXOXOXOXOXOXOXOXOXOXOXOXOXOXOXOXOX|.|.|.|.|.|.|.|.|.|.|.|.|.|.|.|.|.|.|.|.OXOXOXOXOXOXOXOXOXOXOXOXOXOXOXOXOXOXOXOX|.|.|.|.|.|.|.|.|.|.|.|.|.|.|.|.|.|.|.|.OXOXOXOXOXOXOXOXOXOXOXOXOXOXOXOXOXOXOXOX|.|.|.|.|.|.|.|.|.|.|.|.|.|.|.|.|.|.|.|.OXOXOXOXOXOXOXOXOXOXOXOXOXOXOXOXOXoXXXC.q.u.f.p.f.p.i.i.0.0.7.7.o.) ! ! P J H M.XXOXOXOXOXOXOXXX!.4.` E E Y Y Y Y T R R T R ^ T ! T Q Q Q Q Q P ! ~ P K ~ L ~ L L L C C V A S ' F ] .. . . .X.X.X.X.X.@.$.&.$.&.&.&.&.&.&.-.-.-.-.-.e.e.-.e.r.e.r.e.r.e.r.e.r.e.e.-.-.-.&.&.$.$.$.@.X..... .] F A m M B C ' ' A ' L L N L N N N N N x _ `.oXOXOXOXOXOXOXOXOXOXOXOXOXOXOX",
"|.|.|.|.|.|.|.|.|.|.|.|.|._.|.|.|.|.|.|.OXOXOXOXOXOXOXOXOXOXOXOXOXOXOXOXOXOXOXOX|.|.|.|.|.|.|.|.|.|.|.|.|.|.|.|.|.|.|.|.OXOXOXOXOXOXOXOXOXOXOXOXOXOXOXOXOXOXOXOX|.|.|.|.|.|.|.|.|.|.|.|.|.|.|.|.|.|.|.|.OXOXOXOXOXOXOXOXOXOXOXOXOXOXOXOXOXOXOXOX|.|.|.|.|.|.|.|.|.|.|.|.|.|.|.|.|.|.|.|.OXOXOXOXOXOXOXOXOXOXOXOXOXOXOXOXOXoXXXW.6.u.f.f.h.h.h.p.i.0.0.7.7.2.~ ! U U J m. XOXOXOXOXOXOXOXXX].W.m.m.8 8 Y I I Y J H J U U U J J J P P P ! P P L ~ L L G L L A B C C A ' ] ] .. . .X.X.X.X.X.$.$.$.$.$.$.&.&.&.*.*.-.*.-.-.-.e.-.e.e.r.e.r.r.r.e.r.r.e.r.e.e.e.e.-.-.&.&.$.@.@.@.+.....{ ] D V n n M C C L L L C L N N N N x x x :. XOXOXOXOXOXOXOXOXOXOXOXOXOXOXOX",
"|.|.|.|.|.|.|.|.|.|.|.|.|.|.|.|.|.|.|.|.OXOXOXOXOXOXOXOXOXOXOXOXOXOXOXOXOXOXOXOX|.|.|.|.|.|.|.|.|.|.|.|.|.|.|.|.|.|.|.|.OXOXOXOXOXOXOXOXOXOXOXOXOXOXOXOXOXOXOXOX|.|.|.|.|.|.|.|.|.|.|.|.|.|.|.|.|.|.|.|.OXOXOXOXOXOXOXOXOXOXOXOXOXOXOXOXOXOXOXOX|.|.|.|.|.|.|.|.|.|.|.|.|.|.|.|.|.|.|.|.OXOXOXOXOXOXOXOXOXOXOXOXOXOXOXOXOXOXXX~.6.0.f.f.f.h.h.g.f.i.0.0.7.8.o.) Q Y J m.XXOXOXOXOXOXOXOXOXOXXXXX].!.C.m.4.` ` 8 E I J H J J J J J J J G G G G G L L L L L B B V C A F ]  . .X.X. .X.X.@.$.$.$.$.$.&.&.*.&.*.*.*.-.-.-.-.e.e.e.e.e.r.e.r.r.r.r.r.r.t.e.e.e.e.-.-.*.&.&.$.$.$.@.X.....{ { ] A B v v b B C L L N N N N N x N G _ R.XXOXOXOXOXOXOXOXOXOXOXOXOXOXOXOX",
"|.|.|.|.|.|.|.|.|.|.|.|.|.|.|.|.|.|.|.|.OXOXOXOXOXOXOXOXOXOXOXOXOXOXOXOXOXOXOXOX|.|.|.|.|.|.|.|.|.|.|.|.|.|.|.|.|.|.|.|.OXOXOXOXOXOXOXOXOXOXOXOXOXOXOXOXOXOXOXOX|.|.|.|.|.|.|.|.|.|.|.|.|.|.|.|.|.|.|.|.OXOXOXOXOXOXOXOXOXOXOXOXOXOXOXOXOXOXOXOX|.|.|.|.|.|.|.|.|.|.|.|.|.|.|.|.|.|.|.|.|.OXOXOXOXOXOXOXOXOXOXOXOXOXOXOXOXOXoX~.6.u.p.h.h.f.j.g.h.i.i.0.0.7.2.) ! U J 4.[.OXOXOXOXOXOXOXOXOXOXoXXXXXXXXX[.!.~.!.U.C.` U Q U ! ! ! ! ~ ! ~ ~ ~ o.o.o.~ [ C C C B C A F ]  . .X. .X.X.X.@.$.$.$.$.$.&.&.*.&.*.*.*.-.-.-.e.e.e.r.e.r.e.r.r.r.r.r.r.r.r.e.e.e.-.e.-.*.-.$.&.&.$.$.X.X.....} { ' C m k k b z N N N N N N z N x G I. XOXOXOXOXOXOXOXOXOXOXOXOXOXOXOXOX",
"|.|.|.|.|.|.|.|.|.|.|.|.|.|.|.|.|.|.|.|.OXOXOXOXOXOXOXOXOXOXOXOXOXOXOXOXOXOXOXOX|.|.|.|.|.|.|.|.|.|.|.|.|.|.|.|.|.|.|.|.OXOXOXOXOXOXOXOXOXOXOXOXOXOXOXOXOXOXOXOX|.|.|.|.|.|.|.|._.|.|.|.|.|.|.|.|.|.|.|.OXOXOXOXOXOXOXOXOXOXOXOXOXOXOXOXOXOXOXOX|.|.|.|.|.|.|.|.|.|.|.|.|.|.|.|.|.|.|.|.OXOXOXOXOXOXOXOXOXOXOXOXOXOXOXOXOXOXXX~.z.9.p.f.h.h.j.h.h.h.i.i.i.7.7.2.! Q J ` [.OXOXOXOXOXOXOXOXOXOXOXOXOXOXOXOXoXoXoX X].M./ ~ ) ) ) ) ) ) ) ) ) ) ~ o.o.o.' C C A A A A F ] X.X.X.X.X.@.X.$.$.$.&.&.&.&.&.*.*.*.*.e.-.*.e.e.-.e.r.r.e.r.r.r.t.r.t.r.r.r.r.r.r.-.e.-.*.-.&.&.$.$.#.@.X.+.....{ ] ' B b s l l z z z N z x N x _ N.`.oXOXOXOXOXOXOXOXOXOXOXOXOXOXOXOXOX",
"|.|.|.|.|.|.|.|.|.|.|.|.|.|.|.|.|.|.|.|.OXOXOXOXOXOXOXOXOXOXOXOXOXOXOXOXOXOXOXOX|.|.|.|.|.|.|.|.|.|.|.|.|.|.|.|.|.|.|.|.OXOXOXOXOXOXOXOXOXOXOXOXOXOXOXOXOXOXOXOX|.|.|.|.|.|.|.|.|.|.|.|.|.|.|.|.|.|.|.|.OXOXOXOXOXOXOXOXOXOXOXOXOXOXOXOXOXOXOXOX|.|.|.|.|.|.|.|.|.|.|.|.|.|.|.|.|.|.|.|.OXOXOXOXOXOXOXOXOXOXOXOXOXOXOXOXOXOXOX[.V.u.p.f.h.h.h.h.h.h.i.i.0.0.7.o.) Q J ` ].oXOXOXOXOXOXOXOXOXOXOXOXOXOXOXOXOXOXOX.X].W.W ) ) ) 7.o.8.o.7.) ) ) =.o.o.} [ C S C S C V ] ]  . .X.X.@.@.$.$.$.&.&.&.&.&.*.*.*.e.-.e.-.e.e.e.e.e.r.r.r.r.r.r.t.r.t.t.r.r.r.r.r.-.-.-.*.*.&.&.$.$.$.+.+.X.....{ ] ' B b s s j l z z z N z l _ N.`.OXOXOXOXOXOXOXOXOXOXOXOXOXOXOXOXOXOX",
"|.|.|.|.|.|.|.|.|.|.|.|.|.|.|.|.|.|.|.|.OXOXOXOXOXOXOXOXOXOXOXOXOXOXOXOXOXOXOXOX|.|.|.|.|.|._.|.|.|.|.|.|.|.|.|.|.|.|.|.OXOXOXOXOXOXOXOXOXOXOXOXOXOXOXOXOXOXOXOX|.|.|.|.|.|.|.|.|.|.|.|.|.|.|.|.|.|.|.|.OXOXOXOXOXOXOXOXOXOXOXOXOXOXOXOXOXOXOXOX|.|.|.|.|.|.|.|.|.|.|.|.|.|.|.|.|.|.|.|.OXOXOXOXOXOXOXOXOXOXOXOXOXOXOXOXOXOXOX[.M.q.p.f.h.h.h.j.f.f.f.i.0.0.7.) ~ Q J ` !.oXOXOXOXOXOXOXOXOXOXOXOXOXOXOXOXOXOXOX|.[.W.m.) 7.7.7.7.8.9.7.7.7.7.=.=.o.| [ ' A A ' A V F  . . .X.X.@.$.$.$.$.&.&.&.&.*.e.*.*.e.e.e.e.e.e.e.r.r.r.r.r.r.r.t.t.r.t.r.r.r.r.e.r.-.e.-.*.*.*.-.$.&.$.#.+.+.....{ [ ] ' N s a j j l z z x x _ ,.[.oXOXOXOXOXOXOXOXOXOXOXOXOXOXOXOXOXOXOX",
"|.|.|.|.|.|.|.|.|.|.|.|.|.|.|.|.|.|.|.|.OXOXOXOXOXOXOXOXOXOXOXOXOXOXOXOXOXOXOXOX|.|.|.|.|.|.|.|.|.|.|.|.|.|.|.|.|.|.|.|.OXOXOXOXOXOXOXOXOXOXOXOXOXOXOXOXOXOXOXOX|.|.|.|.|.|.|.|.|.|.|.|.|.|.|.|.|.|.|.|.OXOXOXOXOXOXOXOXOXOXOXOXOXOXOXOXOXOXOXOX|.|.|.|.|.|.|.|.|.|.|.|.|.|.|.|.|.|.|.|.OXOXOXOXOXOXOXOXOXOXOXOXOXOXOXOXOXOXOXXXC.q.p.p.f.h.j.g.h.f.f.i.i.0.7.( ) Q U E !.oXOXOXOXOXOXOXOXOXOXOXOXOXOXOXOXOXOXOX|.[.Q.m.1.7.0.0.0.0.0.0.0.0.w.w.=.O.| } ' S F F ' S F ]  .X.X.@.@.$.&.&.&.&.&.-.-.-.-.-.-.e.r.e.r.e.e.r.r.r.r.r.r.t.t.r.t.r.r.r.r.r.r.e.e.e.e.-.*.*.&.&.$.$.$.#.+.+.+.....{ [ L C b a j j l z z x G ,.{.oXOXOXOXOXOXOXOXOXOXOXOXOXOXOXOXOXOXOXOX",
"|.|.|.|.|.|.|.|.|.|.|.|.|.|.|.|.|.|.|.|.OXOXOXOXOXOXOXOXOXOXOXOXOXOXOXOXOXOXOXOX|.|.|.|.|.|.|.|.|.|.|.|.|.|.|.|.|.|.|.|.OXOXOXOXOXOXOXOXOXOXOXOXOXOXOXOXOXOXOXOX|.|.|.|.|.|.|.|.|.|.|.|.|.|.|.|.|.|.|.|.OXOXOXOXOXOXOXOXOXOXOXOXOXOXOXOXOXOXOXOX|.|.|.|.|.|.|.|.|.|.|.|.|.|.|.|.|.|.|.|.OXOXOXOXOXOXOXOXOXOXOXOXOXOXOXOXOXOXOXXXC.q.u.f.f.h.j.j.h.g.f.f.i.0.8.=.) ! U E W.oXOXOXOXOXOXOXOXOXOXOXOXOXOXOXOXOXOXOX|. X].M.2.8.0.0.i.i.g.g.g.y.t.w.w.=.| } A D F F ] A F { ..$.$.&.$.&.&.&.&.-.-.-.-.-.e.-.e.e.e.r.r.r.r.r.r.r.r.r.r.t.t.r.r.t.r.r.r.r.r.e.e.-.e.*.*.*.&.&.&.$.#.#.+.+.O.O.| } [ ' L z j p s a x x _ R.`..XOXOXOXOXOXOXOXOXOXOXOXOXOXOXOXOXOXOXOXOX",
"|.|.|.|.|.|.|.|.|.|.|.|.|.|.|.|.|.|.|.|.OXOXOXOXOXOXOXOXOXOXOXOXOXOXOXOXOXOXOXOX|.|.|.|.|.|.|.|.|.|.|.|.|.|.|.|.|.|.|.|.OXOXOXOXOXOXOXOXOXOXOXOXOXOXOXOXOXOXOXOX|.|.|.|.|.|.|.|.|.|.|.|.|.|.|.|.|.|.|.|.OXOXOXOXOXOXOXOXOXOXOXOXOXOXOXOXOXOXOXOX|.|.|.|.|.|.|.|.|.|.|.|.|.|.|.|.|.|.|.|.OXOXOXOXOXOXOXOXOXOXOXOXOXOXOXOXOXOXOXXXA.6.i.f.f.h.h.j.g.h.f.i.i.0.7.7.) T Y I U.XXOXOXOXOXOXOXOXOXOXOXOXOXOXOXOXOXOXOX|.|.[.C.5.0.u.p.f.h.j.g.g.g.y.t.w.=.O.| ' D ] ] ] ] ] ..X.$.$.&.&.&.&.-.&.-.-.e.-.e.e.e.e.r.r.r.r.r.r.r.r.t.t.t.r.t.t.t.t.r.r.r.r.e.e.e.e.e.-.*.*.*.&.&.$.$.#.#.+.+.+.O...} [ [ L N l j a c _ N.!.{.{.|.OXOXOXOXOXOXoXOXOXOXOXOXOXOXOXOXOXOXOXOX",
"|.|.|.|.|.|.|.|.|.|.|.|.|.|.|.|.|.|.|.|.OXOXOXOXOXOXOXOXOXOXOXOXOXOXOXOXOXOXOXOX|.|.|.|.|.|.|.|.|.|.|.|.|.|.|.|.|.|.|.|.OXOXOXOXOXOXOXOXOXOXOXOXOXOXOXOXOXOXOXOX|.|.|.|.|.|.|.|.|.|.|.|.|.|.|.|.|.|.|.|.OXOXOXOXOXOXOXOXOXOXOXOXOXOXOXOXOXOXOXOX|.|.|.|.|.|.|.|.|.|.|.|.|.|.|.|.|.|.|.|.OXOXOXOXOXOXOXOXOXOXOXOXOXOXOXOXOXOXOXXX!.6.9.i.f.h.h.k.h.f.g.f.f.0.0.7.) Q I I C.XXoXOXOXOXOXOXOXOXOXOXOXOXOXOXOXOXOXOX|.|. X!.5.0.p.p.g.j.k.k.k.k.g.t.w.=.+.| ] F F  . .] ..@.$.$.&.&.&.-.-.-.-.e.e.-.e.r.r.t.r.r.t.r.t.t.r.t.r.t.r.t.t.t.r.r.t.r.r.r.r.r.e.e.e.-.-.*.*.&.&.&.&.&.#.#.+.+.O.O.| } [ ' C N l c :.F.R.`..X.X|.|.OXOXOXOXOXOXOXOXOXOXOXOXOXOXOXOXOXOXOXOX",
"|.|.|.|.|.|.|.|.|.|.|.|.|.|.|.|.|.|.|.|.OXOXOXOXOXOXOXOXOXOXOXOXOXOXOXOXOXOXOXOX|.|.|.|.|.|.|.|.|.|.|.|.|.|.|.|.|.|.|.|.OXOXOXOXOXOXOXOXOXOXOXOXOXOXOXOXOXOXOXOX|.|.|.|.|.|.|.|.|.|.|.|.|.|.|.|.|.|.|.|.OXOXOXOXOXOXOXOXOXOXOXOXOXOXOXOXOXOXOXOX|.|.|.|.|.|.|.|.|.|.|.|.|.|.|.|.|.|.|.|.OXOXOXOXOXOXOXOXOXOXOXOXOXOXOXOXOXOXOXXX~.6.q.p.f.h.f.h.h.h.f.f.i.0.0.7.7.) U J M.XXoXOXOXOXOXOXOXOXOXOXOXOXOXOXOXOXOXOX|..X X!.6.8.i.f.j.j.k.l.k.k.g.y.r.=.+.O.{ ]  . . ...X.$.$.&.&.-.-.-.-.e.-.e.e.r.t.r.t.r.t.r.t.t.t.t.t.t.t.t.t.t.t.t.t.t.t.r.r.r.e.r.e.e.e.*.-.*.*.&.&.&.&.#.#.#.+.+.O.O.| } [ [ L N _ I.!.`..X{..X|.|.|.OXOXOXOXOXOXOXOXOXOXOXOXOXOXOXOXOXOXOXOX",
"|.|.|.|.|.|.|.|.|.|.|.|.|.|.|.|.|.|.|.|.OXOXOXOXOXOXOXOXOXOXOXOXOXOXOXOXOXOXOXOX|.|.|.|.|.|.|.|.|.|.|.|.|.|.|.|.|.|.|.|.OXOXOXOXOXOXOXOXOXOXOXOXOXOXOXOXOXOXOXOX|.|.|.|.|.|.|.|.|.|.|.|.|.|.|.|.|.|.|.|.OXOXOXOXOXOXOXOXOXOXOXOXOXOXOXOXOXOXOXOX|.|.|.|.|.|.|.|.|.|.|.|.|.|.|.|.|.|.|.|.OXOXOXOXOXOXOXOXOXOXOXOXOXOXOXOXOXOXOXoX~.M.q.p.f.h.h.h.h.f.g.f.f.0.0.7.) ) T I m.XXoXOXOXOXOXOXOXOXOXOXOXOXOXOXOXOXOXOX|.|..X].M.8.u.f.f.j.j.k.k.k.g.y.r.w.#.O...]  .....X.$.$.&.&.-.-.-.e.e.e.r.r.r.r.t.t.t.y.t.t.t.y.t.t.t.t.t.t.t.t.y.t.r.t.t.r.r.e.r.e.e.-.-.*.*.*.&.&.&.&.&.$.$.#.+.+.O.| } [ ' L N N _ !.{.|.|.|.|.|.|.|.OXOXOXOXOXOXOXOXOXOXOXOXOXOXOXOXOXOXOXOX",
"|.|.|.|.|.|.|.|.|.|.|.|.|.|.|.|.|.|.|.|.OXOXOXOXOXOXOXOXOXOXOXOXOXOXOXOXOXOXOXOX|.|.|.|.|.|.|.|.|.|.|.|.|.|.|.|.|.|.|.|.OXOXOXOXOXOXOXOXOXOXOXOXOXOXOXOXOXOXOXOX|.|.|.|.|.|.|.|.|.|.|.|.|.|.|.|.|.|.|.|.OXOXOXOXOXOXOXOXOXOXOXOXOXOXOXOXOXOXOXOX|.|.|.|.|.|.|.|.|.|.|.|.|.|.|.|.|.|.|.|.OXOXOXOXOXOXOXOXOXOXOXOXOXOXOXOXOXOXOXoX~.V.q.i.f.f.h.f.f.h.g.f.i.0.0.7.7.) Q J 4.].oXOXOXOXOXOXOXOXOXOXOXOXOXOXOXOXOXOX|.|.|.[.C.8.9.f.h.j.l.k.k.k.g.y.t.w.=.O... ... ...@.$.$.&.&.-.-.e.-.e.r.r.r.t.t.r.t.t.t.t.y.t.t.t.t.t.y.y.t.y.t.y.t.t.r.r.r.r.r.e.e.e.e.-.-.*.*.&.*.&.&.&.%.&.+.+.+.O.| } } ' [ L M _ `.{.|.|.|.|.|.|.|.OXOXOXOXOXOXOXOXOXOXOXOXOXOXOXOXOXOXOXOX",
"|.|.|.|.|.|.|.|.|.|.|.|.|.|.|.|.|.|.|.|.OXOXOXOXOXOXOXOXOXOXOXOXOXOXOXOXOXOXOXOX|.|.|.|.|.|.|.|.|.|.|.|.|.|.|.|.|.|.|.|.OXOXOXOXOXOXOXOXOXOXOXOXOXOXOXOXOXOXOXOX|.|.|.|.|.|.|.|.|.|.|.|.|.|.|.|.|.|.|.|.OXOXOXOXOXOXOXOXOXOXOXOXOXOXOXOXOXOXOXOX|.|.|.|.|.|.|.|.|.|.|.|.|.|.|.|.|.|.|.|.OXOXOXOXOXOXOXOXOXOXOXOXOXOXOXOXOXOXOXoX'.V.q.u.f.f.f.h.h.h.g.i.i.0.0.7.7.) ! I :.[.oXOXOXOXOXOXOXOXOXOXOXOXOXOXOXOXOXOX|.|.|.[.A.5.9.p.h.h.k.k.k.k.g.g.t.w.=.+.O.{  . ...+.$.&.&.-.-.-.-.r.e.r.r.t.r.t.t.t.t.t.t.t.y.t.t.t.t.t.t.t.y.t.t.t.t.t.t.r.r.r.e.e.e.e.-.-.*.*.&.&.&.&.#.%.#.#.+.+.O.| } [ [ K L G _ `..X|.|.|.|.|..X|.OXOXOXOXOXOXOXOXOXOXOXOXOXOXOXOXOXOXOXOX",
"OXOXOXOXOXOXOXOXOXOXOXOXOXOXOXOXOXOXOXOX|.|.|.|.|.|.|.|.|.|.|.|.|.|.|.|.|.|.|.|.OXOXOXOXOXOXOXOXOXOXOXOXOXOXOXOXOXOXOXOX|.|.|.|.|.|.|.|.|.|.|.|.|.|.|.|.|.|.|.|.OXOXOXOXOXOXOXOXOXOXOXOXOXOXOXOXOXOXOXOX|.|.|.|.|.|.|.|.|.|.|.|.|.|.|.|.|.|.|.|.OXOXOXOXOXOXOXOXOXOXOXOXOXOXOXOXOXOXOXOX|.|.|.|.|.|.|.|.|.|.|.|.|.|.|.|.|.|.|..XXXC.6.u.p.f.h.f.g.f.g.f.i.0.0.7.7.) T U ` !.[.|.|.|.|.|.|.|.|.|.|.|.|.|.|.|.|.|.OXOXOXXX~.6.8.i.f.j.j.g.k.k.k.t.t.r.=.+.O..... .X.#.&.&.&.&.-.e.-.e.t.r.r.t.t.t.t.t.t.t.y.y.t.y.y.t.t.t.t.t.t.y.t.t.t.t.t.r.r.e.e.e.e.*.e.&.*.&.&.&.&.#.%.%.#.#.+.O.O.| } [ L L C K _ `.OXOXOXOXOXOXOXOX|.|.|.|.|.|.|.|.|.|.|.|.|.|.|.|.|.|.|.|.",
"OXOXOXOXOXOXOXOXOXOXOXOXOXOXOXOXOXOXOXOX|.|.|.|.|.|.|.|.|.|.|.|.|.|.|.|.|.|.|.|.OXOXOXOXOXOXOXOXOXOXOXOXOXOXOXOXOXOXOXOX|.|.|.|.|.|.|.|.|.|.|.|.|.|.|.|.|.|.|.|.OXOXOXOXOXOXOXOXOXOXOXOXOXOXOXOXOXOXOXOX|.|.|.|.|.|.|.|.|.|.|.|.|.|.|.|.|.|.|.|.OXOXOXOXOXOXOXOXOXOXOXOXOXOXOXOXOXOXOXOX|.|.|.|.|.|.|.|.|.|.|.|.|.|.|.|.|.|.|..XXX!.6.9.p.p.f.h.h.g.g.f.i.0.0.0.7.) ) U E !.|.|.|.|.|.|.|.|.|.|.|.|.|.|.|.|.|.|.OXOXOXoX~.6.8.i.f.h.j.k.k.k.g.g.y.r.w.=.+... ...X.#.%.%.&.-.-.e.e.e.e.r.r.r.t.r.t.t.t.t.t.t.y.t.y.t.y.t.t.y.t.t.t.t.t.r.r.r.e.r.e.e.*.e.&.e.&.&.*.&.&.%.%.#.#.+.+.O.O.| } [ [ L L K :. XoXOXOXOXOXOXOXOX|.|.|.|.|.|.|.|.|.|.|.|.|.|.|.|.|.|.|.|.",
"OXOXOXOXOXOXOXOXOXOXOXOXOXOXOXOXOXOXOXOX|.|.|.|.|.|.|.|.|.|.|.|.|.|.|.|.|.|.|.|.OXOXOXOXOXOXOXOXOXOXOXOXOXOXOXOXOXOXOXOX|.|.|.|.|.|.|.|.|.|.|.|.|.|.|.|.|.|.|.|.OXOXOXOXOXOXOXOXOXOXOXOXOXOXOXOXOXOXOXOX|.|.|.|.|.|.|.|.|.|.|.|.|.|.|.|.|.|.|.|.OXOXOXOXOXOXOXOXOXOXOXOXOXOXOXOXOXOXOXOX|.|.|.|.|.|.|.|.|.|.|.|.|.|.|.|.|.|.|..XXX!.6.u.u.p.p.g.g.g.i.f.i.0.f.7.7.) ) U 8 !.[.|.|.|.|.|.|.|.|.|.|.|.|.|.|.|.|.|.OXOXOXoX[.V.8.0.f.g.h.l.k.k.k.g.y.t.w.=.+.O.{ ..+.#.&.&.&.-.-.-.e.-.r.e.r.r.r.r.r.t.t.t.t.y.t.t.y.y.t.t.y.t.y.t.r.t.r.t.r.r.e.e.e.e.*.*.*.*.&.&.&.&.$.%.%.#.#.+.+.O.| } } [ [ L N G :. XoXOXOXOXOXOXOXOX|.|.|.|.|.|.|.|.|.|.|.|.|.|.|.|.|.|.|.|.",
"OXOXOXOXOXOXOXOXOXOXOXOXOXOXOXOXOXOXOXOX|.|.|.|.|.|.|.|.|.|.|.|.|.|.|.|.|.|.|.|.OXOXOXOXOXOXOXOXOXOXOXOXOXOXOXOXOXOXOXOX|.|.|.|.|.|.|.|.|.|.|.|.|.|.|.|.|.|.|.|.OXOXOXOXOXOXOXOXOXOXOXOXOXOXOXOXOXOXOXOX|.|.|.|.|.|.|.|.|.|.|.|.|.|.|.|.|.|.|.|.OXOXOXOXOXOXOXOXOXOXOXOXOXOXOXOXOXOXOXOX|.|.|.|.|.|.|.|.|.|.|.|.|.|.|.|.|.|.|.|.oX~.6.9.u.i.f.f.f.g.g.i.i.0.0.0.7.) ) U ` W..X|.|.|.|.|.|.|.|.|.|.|.|.|.|.|.|.|.OXOXOXoXXXC.3.u.f.f.j.h.g.k.k.g.y.t.w.=.+.O.{ ..+.#.%.&.&.&.-.&.-.e.e.e.r.e.r.r.r.w.t.t.t.t.t.t.t.y.t.y.t.y.t.t.t.t.r.r.r.r.e.e.e.&.e.*.*.*.&.&.%.&.%.%.#.#.#.+.+.O.| } } [ [ L K G I.XXoXOXOXOXOXOXOXOX|.|.|.|.|.|.|.|.|.|.|.|.|.|.|.|.|.|.|.|.",
"OXOXOXOXOXOXOXOXOXOXOXOXOXOXOXOXOXOXOXOX|.|.|.|.|.|.|.|.|.|.|.|.|.|.|.|.|.|.|.|.OXOXOXOXOXOXOXOXOXOXOXOXOXOXOXOXOXOXOXOX|.|.|.|.|.|.|.|.|.|.|.|.|.|.|.|.|.|.|.|.OXOXOXOXOXOXOXOXOXOXOXOXOXOXOXOXOXOXOXOX|.|.|.|.|.|.|.|.|.|.|.|.|.|.|.|.|.|.|.|.OXOXOXOXOXOXOXOXOXOXOXOXOXOXOXOXOXOXOXOX|.|.|.|.|.|.|.|.|.|.|.|.|.|.|.|.|.|.|..XoX].6.8.9.i.i.p.g.f.i.i.i.0.0.0.9.o.) Q Y U.[.|.|.|.|.|.|.|.|.|.|.|.|.|.|.|.|.|.OXOXOXoXXX!.6.9.i.f.j.j.g.k.g.y.t.r.=.O.{ ] } O.+.#.%.%.&.&.-.-.-.&.-.-.e.e.e.r.r.r.r.r.t.r.t.t.t.t.t.t.t.t.t.t.t.t.r.r.r.e.e.e.*.*.*.*.*.&.*.&.&.$.%.%.%.#.+.+.O.O.| } [ [ ' K G G R.OXOXOXOXOXOXOXOXOX|.|.|.|.|.|.|.|.|.|.|.|.|.|.|.|.|.|.|.|.",
"OXOXOXOXOXOXOXOXOXOXOXOXOXOXOXOXOXOXOXOX|.|.|.|.|.|.|.|.|.|.|.|.|.|.|.|.|.|.|.|.OXOXOXOXOXOXOXOXOXOXOXOXOXOXOXOXOXOXOXOX|.|.|.|.|.|.|.|.|.|.|.|.|.|.|.|.|.|.|.|.OXOXOXOXOXOXOXOXOXOXOXOXOXOXOXOXOXOXOXOX|.|.|.|.|.|.|.|.|.|.|.|.|.|.|.|.|.|.|.|.OXOXOXOXOXOXOXOXOXOXOXOXOXOXOXOXOXOXOXOX|.|.|.|.|.|.|.|.|.|.|.|.|.|.|.|.|.|.|.|.oX[.V.8.u.u.i.i.g.i.g.i.i.0.0.7.7.) ~ Q H C. X|.|.|.|.|.|.|.|.|.|.|.|.|.|.|.|.|.OXOXOXOXoX~.6.9.i.g.g.g.g.y.y.w.o.L M n v V } O.O.+.#.%.%.&.$.&.&.-.-.-.-.e.e.e.r.r.r.r.r.r.t.r.t.t.t.t.t.t.t.t.t.r.r.r.r.e.e.e.e.*.*.*.&.&.&.&.&.%.%.#.#.#.+.+.O.| | } [ ' L K N :.`.OXOXOXOXOXOXOXOXOX|.|.|.|.|.|.|.|.|.|.|.|.|.|.|.|.|.|.|.|.",
"OXOXOXOXOXOXOXOXOXOXOXOXOXOXOXOXOXOXOXOX|.|.|.|.|.|.|.|.|.|.|.|.|.|.|.|.|.|.|.|.OXOXOXOXOXOXOXOXOXOXOXOXOXOXOXOXOXOXOXOX|.|.|.|.|.|.|.|.|.|.|.|.|.|.|.|.|.|.|.|.OXOXOXOXOXOXOXOXOXOXOXOXOXOXOXOXOXOXOXOX|.|.|.|.|.|.|._.|.|.|.|.|.|.|.|.|.|.|.|.OXOXOXOXOXOXOXOXOXOXOXOXOXOXOXOXOXOXOXOX|.|.|.|.|.|.|.|.|.|.|.|.|.|.|.|.|.|.|.|.oX[.V.8.9.u.i.i.f.i.i.f.0.0.0.0.9.) ) U H M.].|.|.|.|.|.|.|.|.|.|.|.|.|.|.|.|.|.OXOXOXOXoX~.z.3.u.p.g.y.w.o.b d d d g h v A } | O.+.+.#.#.%.%.&.&.&.&.-.-.-.-.-.-.r.r.r.r.r.r.t.t.t.t.r.t.t.r.r.r.r.r.e.e.e.e.*.e.*.*.&.&.&.&.%.&.%.%.#.#.#.+.+.O.| } } [ L L K G ,. XOXOXOXOXOXOXOXOXOX|.|.|.|.|.|.|.|.|.|.|.|.|.|.|.|.|.|.|.|.",
"OXOXOXOXOXOXOXOXOXOXOXOXOXOXOXOXOXOXOXOX|.|.|.|._.|.|.|.|.|.|.|.|.|.|.|.|.|.|.|.OXOXOXOXOXOXOXOXOXOXOXOXOXOXOXOXOXOXOXOX|.|.|.|.|.|.|.|.|.|.|.|.|.|.|.|.|.|.|.|.OXOXOXOXOXOXOXOXOXOXOXOXOXOXOXOXOXOXOXOX|.|.|.|.|.|.|.|.|.|.|.|.|.|.|.|.|.|.|.|.OXOXOXOXOXOXOXOXOXOXOXOXOXOXOXOXOXOXOXoX|.|.|.|.|.|.|.|.|.|.|.|.|.|.|.|.|.|.|.|.OXXXC.5.8.i.0.i.i.i.i.0.i.i.0.7.7.7.~ Q H m.].|.|.|.|.|.|.|.|.|.|.|.|.|.|.|.|.|.OXOXOXOXOXXXV.9.0.0.=.L v d f f g g d h v ' } | O.O.+.+.#.#.%.%.&.&.&.&.&.-.-.-.*.r.-.-.r.r.r.r.w.t.t.r.t.r.r.r.r.r.e.e.e.e.e.*.*.*.&.&.&.&.&.&.%.%.%.%.#.#.+.O.O.| } } [ [ L K G R.oXOXOXOXOXOXOXOXOXOX|.|.|.|.|.|.|.|.|.|.|.|.|.|.|.|.|.|.|.|.",
"OXOXOXOXOXOXOXOXOXOXOXOXOXOXOXOXOXOXOXOX|.|.|.|.|.|.|.|.|.|.|.|.|.|.|.|.|.|.|.|.OXOXOXOXOXOXOXOXOXOXOXOXOXOXOXOXOXOXOXOX|.|.|.|.|.|.|.|.|.|.|.|.|.|.|.|.|.|.|.|.OXOXOXOXOXOXOXOXOXOXOXOXOXOXOXOXOXOXOXOX|.|.|.|.|.|.|.|.|.|.|.|.|.|.|.|.|.|.|.|.OXOXOXOXOXOXOXOXOXOXOXOXOXOXOXOXOXOXOXOX|.|.|.|.|.|.|.|.|.|.|.|.|.|.|.|.|.|.|.|.OXXXA.5.8.0.0.0.i.i.f.0.0.0.0.7.7.) ~ Q H 4.`.|.|.|.|.|..X|.|.|.|.|.|.|.|.|.|.|.OXOXOXOXOXXXC.7.<.M s d f f d f f d f d d ' [ } | O.O.+.+.+.#.#.%.%.&.&.&.&.-.-.*.-.-.-.-.e.r.r.r.r.r.r.r.r.r.r.r.r.e.e.-.e.e.*.*.*.*.&.&.&.&.%.%.%.%.#.#.+.+.O.| | } [ ' [ L N :.`.oXOXOXOXOXOXOXOXOXOX|.|.|.|.|.|.|.|.|.|.|.|.|.|.|.|.|.|.|.|.",
"OXOXOXOXOXOXOXOXOXOXOXOXOXOXOXOXOXOXOXOX|.|.|.|.|.|.|.|.|.|.|.|.|.|.|.|.|.|.|.|.OXOXOXOXOXOXOXOXOXOXOXOXOXOXOXOXOXOXOXOX|.|.|.|.|.|.|.|.|.|.|.|.|.|.|.|.|.|.|.|.OXOXOXOXOXOXOXOXOXOXOXOXOXOXOXOXOXOXOXOX|.|.|.|.|.|.|.|.|.|.|.|.|.|.|.|.|.|.|.|.OXOXOXOXOXOXOXOXOXOXOXOXOXOXOXOXOXOXOXOX|.|.|.|.|.|.|.|.|..X.X.X{..X.X{.{..X.X.XoXXX!.5.7.0.0.i.0.0.0.0.0.0.0.7.7.) ) ! H 4.`..X|.|.|.|..X.X.X.X.X.X.X|.|.|.|.|.OXOXOXOXoXoXY.G s u i i f d y y 3 < p p l L [ [ } | O.O.O.+.+.#.#.%.%.%.&.&.&.&.*.*.-.-.-.-.-.e.r.e.e.r.r.e.r.e.e.e.e.e.e.*.-.*.*.&.&.&.%.&.$.%.%.%.#.#.#.+.+.O.| | } [ [ K L N I.XXoXOXOXOXOXOXOXOXOXOX|.|.|.|.|.|.|.|.|.|.|.|.|.|.|.|.|.|.|.|.",
"OXOXOXOXOXOXOXOXOXOXOXOXOXOXOXOXOXOXOXOX|.|.|.|.|.|.|.|.|.|.|.|.|.|.|.|.|.|.|.|.OXOXOXOXOXOXOXOXOXOXOXOXOXOXOXOXOXOXOXOX|.|.|.|.|.|.|.|.|.|.|.|.|._.|.|.|.|.|.|.OXOXOXOXOXOXOXOXOXOXOXOXOXOXOXOXOXOXOXOX|.|.|.|.|.|.|.|.|.|.|.|.|.|.|.|.|.|.|.|.OXOXOXOXOXOXOXOXOXOXOXOXOXOXOXOXOXOXOXOX|.|.|.|.|.|.|.|..X.X{.{.`.`.`.{.{.`.`.`.{.`.!.<.8.7.7.0.f.0.0.0.0.0.0.7.3.) ~ ! J ` {..X.X.X X X X X XXX X X X.X.X|.|.|.OXOXOXOXoX{.,.p y i i a p 3 6 6 w ;.,.,.<.L [ [ [ } | O.O.O.+.+.#.#.%.%.%.&.&.$.&.&.-.*.-.-.-.-.-.r.e.r.e.r.e.e.e.e.e.-.*.-.-.*.*.&.&.&.&.$.%.%.%.#.#.#.+.+.+.O.| } } [ ' K G ;.R.oXOXOXOXOXOXOXOXOXOXOX|.|.|.|.|.|.|.|.|.|.|.|.|.|.|.|.|.|.|.|.",
"OXOXOXOXOXOXOXOXOXOXOXOXOXOXOXOXOXOXOXOX|.|.|.|.|.|.|.|.|.|.|.|.|.|.|.|.|.|.|.|.OXOXOXOXOXOXOXOXOXOXOXOXOXOXOXOXOXOXOXOX|.|.|.|.|.|.|.|.|.|.|.|.|.|.|.|.|.|.|.|.OXOXOXOXOXOXOXOXOXOXOXOXOXOXOXOXOXOXOXOX|.|.|.|.|.|.|.|.|.|.|.|.|.|.|.|.|.|.|.|.OXOXOXOXOXOXOXOXOXOXOXOXOXOXOXOXOXOXOXOX|.|.|.|.|.|..X.X{.R.I.,.;.w _ _ c _ _ ;._ _ _ x K o.o.7.0.0.0.0.0.0.7.7.7.) ) ! J J R.`.`.(.T.R.T.T.I.I.I.I.R.!.`..X|.|.OXOXOXoX X,.p u u y 3 3 6 ;.I.I.T.P.P.R.R.:.L ' [ } } | | O.O.O.+.#.#.#.%.%.%.&.&.*.*.*.-.-.-.-.-.-.-.e.-.e.-.e.e.-.e.-.-.-.*.*.&.&.&.*.&.&.&.%.%.%.#.#.#.+.O.O.| } [ [ [ L K <. XOXOXOXOXOXOXOXOXOXOXOX|.|.|.|.|.|.|.|.|.|.|.|.|.|.|.|.|.|.|.|.",
"OXOXOXOXOXOXOXOXOXOXOXOXOXOXOXOXOXOXOXOX|.|.|.|.|.|.|.|.|.|.|.|.|.|.|.|.|.|.|.|.OXOXOXOXOXOXOXOXOXOXOXOXOXOXOXOXOXOXOXOX|.|.|.|.|.|.|.|.|.|.|.|.|.|.|.|.|.|.|.|.OXOXOXOXOXOXOXOXOXOXOXOXOXOXOXOXOXOXOXOX|.|.|.|.|.|.|.|.|.|.|.|.|.|.|.|.|.|.|.|.OXOXOXOXOXOXOXOXOXOXOXOXOXOXOXOXOXOXOXOX|.|.|.|.|..X XR.:.c p 3 y y y t t y y y u u j u y p a l K ) 7.0.0.0.7.o.7.) ) ! H _ 6 6 6 2 6 6 2 , 2 2 3 3 5 5 ;.R..X|.OXOXOXoXI.5 t y t 3 6 ,.R.P.T.(./././.(.(.,.K L ' [ [ } } | O.O...+.+.#.#.%.%.%.$.%.&.&.&.-.-.-.-.-.-.-.e.-.e.e.e.-.-.-.-.-.-.-.&.&.&.&.&.&.&.%.%.%.%.#.+.+.O.| | } [ ' L K G R.oXOXOXOXOXOXOXOXOXOXOXOX|.|.|.|.|.|.|.|.|.|.|.|.|.|.|.|.|.|.|.|.",
"OXOXOXOXOXOXOXOXOXOXOXOXOXOXOXOXOXOXOXOX|.|.|.|.|.|.|.|.|.|.|.|.|.|.|.|.|.|.|.|.OXOXOXOXOXOXOXOXOXOXOXOXOXOXOXOXOXOXOXOX|.|.|.|.|.|.|.|.|.|.|.|.|.|.|.|.|.|.|.|.OXOXOXOXOXOXOXOXOXOXOXOXOXOXOXOXOXOXOXOX|.|.|.|.|.|.|.|.|.|.|.|._.|.|.|.|.|.|.|.OXOXOXOXOXOXOXOXOXOXOXOXOXOXOXOXOXOXOXOX|.|.|.|.|. X!._ 3 t y y u y u y u u u f u u u f f u u y 1 p x ~ 7.7.0.8.7.) ) ! G G 2 ; ; ; > , < < < t 1 1 1 < 2 w `.|.OXOXoX`._ 3 t t 2 ;.R.E./.(.).).).).(.(.!.B.K L K [ [ [ } } | O.O.O.+.+.+.#.#.#.%.%.%.&.$.&.&.&.*.*.*.-.-.-.-.-.-.-.-.*.&.-.&.&.&.&.&.&.&.&.&.$.%.%.%.#.+.+.O.| } } [ [ L K :.`.oXOXOXOXOXOXOXOXOXOXOXOX|.|.|.|.|.|.|.|.|.|.|.|.|.|.|.|.|.|.|.|.",
"OXOXOXOXOXOXOXOXOXOXOXOXOXOXOXOXOXOXOXOX|.|.|.|.|.|.|.|.|.|.|.|.|.|.|.|.|.|.|.|.OXOXOXOXOXOXOXOXOXOXOXOXOXOXOXOXOXOXOXOX|.|.|.|.|.|.|.|.|.|.|.|.|.|.|.|.|.|.|.|.OXOXOXOXOXOXOXOXOXOXOXOXOXOXOXOXOXOXOXOX|.|.|.|.|.|.|.|.|.|.|.|.|.|.|.|.|.|.|.|.OXOXOXOXOXOXOXOXOXOXOXOXOXOXOXOXOXOXOXOX|.|.|.|.|.{.N.3 1 y y y t t t y t y y u y y u u i i i u y t t 3 x ) 7.o.) ) ~ P G x 2 ; ; > > , < < < 1 1 < < < > 6 (..XOXoXXX,.3 1 1 2 ;.K.^.)._./._.(.).(.(.^.R.Y.K L L L ' [ [ } } | | O.O.O.+.+.+.#.#.%.%.%.%.&.&.-.&.&.&.*.*.-.-.*.*.*.-.-.-.&.&.-.*.&.&.&.$.&.&.#.%.%.#.#.#.+.O.| | } [ ' L G I. XoXOXOXOXOXOXOXOXOXOXOXOX|.|.|.|.|.|.|.|.|.|.|.|.|.|.|.|.|.|.|.|.",
"OXOXOXOXOXOXOXOXOXOXOXOXOXOXOXOXOXOXOXOX|.|.|.|.|.|.|.|.|.|.|.|.|.|.|.|.|.|.|.|.OXOXOXOXOXOXOXOXOXOXOXOXOXOXOXOXOXOXOXOX|.|.|.|.|.|.|.|.|.|.|.|.|.|.|.|.|.|.|.|.OXOXOXOXOXOXOXOXOXOXOXOXOXOXOXOXOXOXOXOX|.|.|.|.|.|.|.|.|.|.|.|.|.|.|.|.|.|.|.|.OXOXOXOXOXOXOXOXOXOXOXOXOXOXOXOXOXOXOXOX|.|.|.|..X X_ 2 1 < < < < < 2 2 2 2 2 2 2 p 3 3 t t y y y y t < , 5 ~ 3.) ) ! P G x 2 ; ; > , , < < < < < < , < > 2 T..XOXOX`._ < 1 2 _ T.^.(.)./.)./.).(.(./.R.V.N.) G L L ' ' [ [ } } | | O.O.O.+.+.+.#.#.#.%.%.%.&.$.&.&.*.&.&.&.&.*.*.*.&.&.&.&.&.&.&.&.&.&.%.&.&.&.&.%.%.#.+.+.O.| } [ ' K N _ `.oXOXOXOXOXOXOXOXOXOXOXOXOX|.|.|.|.|.|.|.|.|.|.|.|.|.|.|.|.|.|.|.|.",
"OXOXOXOXOXOXOXOXOXOXOXOXOXOXOXOXOXOXOXOX|.|.|.|.|.|.|.|.|.|.|.|.|.|.|.|.|.|.|.|.OXOXOXOXOXOXOXOXOXOXOXOXOXOXOXOXOXOXOXOX|.|.|.|.|.|.|.|.|.|.|.|.|.|.|.|.|.|.|.|.OXOXOXOXOXOXOXOXOXOXOXOXOXOXOXOXOXOXOXOX|.|.|.|.|.|.|.|.|.|.|.|.|.|.|.|.|.|.|.|.OXOXOXOXOXOXOXOXOXOXOXOXOXOXOXOXOXOXOXOX|.|.|.|..X`.;.6 6 6 w w w w w ;.>.,.>.H.,.,.>.;.6 c 2 1 t t t t < , c ) ) ) ! P G x 2 ; > ; , < < < < < < , , > > : R..XOXoXR.6 < < ; ,.T.(.).(.(.(./././.(.C.m.6.z.u.~ N N L L ' [ [ } } | | O.O.O.O.=.+.#.#.#.#.%.%.%.$.&.&.&.&.&.&.-.&.&.&.-.-.&.&.&.&.&.$.&.&.&.&.&.&.%.#.#.+.+.O.| | [ ' K K <.{.oXOXOXOXOXOXOXOXOXOXOXOXOX|.|.|.|.|.|.|.|.|.|.|.|.|.|.|.|.|.|.|.|.",
"OXOXOXOXOXOXOXOXOXOXOXOXOXOXOXOXOXOXOXOX|.|.|.|.|.|.|.|.|.|.|.|.|.|.|.|.|.|.|.|.OXOXOXOXOXOXOXOXOXOXOXOXOXOXOXOXOXOXOXOX|.|.|.|.|.|.|.|.|.|.|.|.|.|.|.|.|.|.|.|.OXOXOXOXOXOXOXOXOXOXOXOXOXOXOXOXOXOXOXOX|.|.|.|.|.|.|.|.|.|.|.|.|.|.|.|.|.|.|.|.OXOXOXOXOXOXOXOXOXOXOXOXOXOXOXOXOXOXOXOX|.|.|.|..X{.w :.I.K.K.T.J.T.T.P.P.E.E.E.P.L.K.K.J.G.;.6 2 1 1 1 1 , 2 Q ~ ~ Q G x j 3 , , < < < < < < , , > > > ; 2 T. XOXoXR.6 , , 2 H.(.(.).(./.(./.(.T.C.6.z.s.d.d.0.K N N L L ' L [ [ } } | | O.O.O.O.+.+.#.#.#.#.%.%.$.%.*.&.$.&.&.&.&.&.&.&.&.$.&.$.&.&.&.&.$.&.%.&.%.&.#.#.O.O.} [ [ K K G R.oXOXOXOXOXOXOXOXOXOXOXOXOXOX|.|.|.|.|.|.|.|.|.|.|.|.|.|.|.|.|.|.|.|.",
"OXOXOXOXOXOXOXOXOXOXOXOXOXOXOXOXOXOXOXOX|.|.|.|.|.|.|.|.|.|.|.|.|.|.|.|.|.|.|.|.OXOXOXOXOXOXOXOXOXOXOXOXOXOXOXOXOXOXOXOX|.|.|.|.|.|.|.|.|.|.|.|.|.|.|.|.|.|.|.|.OXOXOXOXOXOXOXOXOXOXOXOXOXOXOXOXOXOXOXOX|.|.|.|.|.|.|.|.|.|.|.|.|.|.|.|.|.|.|.|.OXOXOXOXOXOXOXOXOXOXOXOXOXOXOXOXOXOXOXOX|.|.|.|. XT.w I.T.^./.(.^././././.(.(./././.(.^.^.E.K.H.w 2 1 < , , ; x K K l j p 1 1 1 < 1 < < < , , > > ; ; ; ; 2 I. XoXoX`.6 , > 6 G.^.(.(./.(.^.(.T.C.6.z.d.a.a.d.s.7.G N N C L ' ' [ [ } } | | O.O.O.O.+.+.+.#.#.#.#.%.%.%.%.%.&.$.&.&.&.$.&.$.&.&.&.&.%.&.&.$.&.&.&.&.#.#.+.O.| } [ ' L K :.`.OXOXOXOXOXOXOXOXOXOXOXOXOXOX|.|.|.|.|.|.|.|.|.|.|.|.|.|.|.|.|.|.|.|.",
"OXOXOXOXOXOXOXOXOXOXOXOXOXOXOXOXOXOXOXOX|.|.|.|.|.|.|.|.|.|.|.|.|.|.|.|.|.|.|.|.OXOXOXOXOXOXOXOXOXOXOXOXOXOXOXOXOXOXOXOX|.|.|.|.|.|.|.|.|.|.|.|.|.|.|.|.|.|.|.|.OXOXOXOXOXOXOXOXOXOXOX|.OXOXOXOXOXOXOXOX|.|.|.|.|.|.|.|.|.|.|.|.|.|.|.|.|.|.|.|.OXOXOXOXOXOXOXOXOXOXOXOXOXOXOXOXOXOXOXOX|.|.|. XR.w 6 I.).).)././././.).(./././._./.(./.(.^.E.T.H.6 2 , < , ; 2 z a s y t t 1 1 < < < < , > > > ; ; ; > ; 2 ;.R.{.oX`.6 > > : H.P./././.(.(.(.U.6.z.d.h.a.a.a.a.s.7.G N N N L ' ' [ [ } } | | | O.O.O.O.+.+.+.#.#.#.#.%.#.%.%.#.%.%.&.&.&.&.&.&.&.&.&.&.&.&.&.&.&.#.&.#.+.O.| } [ ' L K I. XoXOXOXOXOXOXOXOXOXOXOXOXOXOX|.|.|.|.|.|.|.|.|.|.|.|.|.|.|.|.|.|.|.|.",
"|.|.|.|.|.|.|.|.|.|.|.|.|.|.|.|.|.|.|.|.OXOXOXOXOXOXOXOXOXOXOXOXOXOXOXOXOXOXOXOX|.|.|.|.|.|.|.|.|.|.|.|.|.|.|.|.|.|.|.|.OXOXOXOXOXOXOXOXOXOXOXOXOXOXOXOXOXOXOXOX|.|.|.|.|.|.|.|.|.|.|.|.|.|.|.|.|.|.|.|.OXOXOXOXOXOXOXOXOXOXOXOXOXOXOXOXOXOXOXOX|.|.|.|.|.|.|.|.|.|.|.|.|.|.|.|.|.|.|.|.OXOXOX{.;.3 2 N.).(.)././.(.W.W.W.W.(.^././././.^././.E.K.>.6 ; , , ; > t u u y t t t < < , , > ; 2 ; ; ; ; ; > < < 3 5 _ I.!.;., > : >.L.^.^././.(.U.m.z.d.a.a.a.a.a.a.d.s.7.G z z N C ' ' ' [ } } } | | O.O.O.O.O.+.+.+.+.#.#.#.#.#.%.%.%.%.%.%.%.&.&.%.&.&.&.$.&.&.$.%.%.#.#.+.| | [ ' K K _ R. X.X|.|.|.|..X|.|.|.|.|.|.|.|.OXOXOXOXOXOXOXOXOXOXOXOXOXOXOXOXOXOXOXOX",
"|.|.|.|.|.|.|.|.|.|.|.|.|.|.|.|.|.|.|.|.OXOXOXOXOXOXOXOXOXOXOXOXOXOXOXOXOXOXOXOX|.|.|.|.|.|.|.|.|.|.|.|.|.|.|.|.|.|.|.|.OXOXOXOXOXOXOXOXOXOXOXOXOXOXOXOXOXOXOXOX|.|.|.|.|.|.|.|.|.|.|.|.|.|.|.|.|.|.|.|.OXOXOXOXOXOXOXOXOXOXOXOXOXOXOXOXOXOXOXOX|.|.|.|.|.|.|.|.|.|.|.|.|.|.|.|.|.|.|..XOXOXOX`.c < > ;./.(./.(.T.I.m.m.m.m.C.W.T.^.(.^.^.^.^.(.E.H.6 2 > > ; , y u y t 1 < < < , > > > ; ; ; - - ; ; , 1 t y u p 5 I.:.2 > : ;.K.^./.^.^.(.U.6.s.a.a.a.a.a.a.a.a.d.d.7.G z z z C L ' ' [ } } } | | | O.O.O.O.O.+.+.+.+.#.#.#.#.#.%.%.%.%.%.%.%.%.&.$.&.&.&.&.&.%.&.#.+.O.| } [ ' L N H.{..X|.|.|.|.|.|.|.|.|.|.|.|.|.|.OXOXOXOXOXOXOXOXOXOXOXOXOXOXOXOXOXOXOXOX",
"|.|.|.|.|.|.|.|.|.|.|.|.|.|.|.|.|.|.|.|.OXOXOXOXOXOXOXOXOXOXOXOXOXOXOXOXOXOXOXOX|.|.|.|.|.|.|.|.|.|.|.|.|.|.|.|.|.|.|.|.OXOXOXOXOXOXOXOXOXOXOXOXOXOXOXOXOXOXOXOX|.|.|.|.|.|.|.|.|.|.|.|.|.|.|.|.|.|.|.|.OXOXOXOXOXOXOXOXOXOXOXOXOXOXOXOXOXOXOXOX|.|.|.|.|.|.|.|.|.|.|.|.|.|.|.|.|.|.|.|.OXOXOX`._ < , : T.^.(.T.C.6.z.z.z.z.6.m.C.W.E.E.E.E.E.^.^.K.;.: > > ; < y u t t < < < , > > ; ; - - - @ - ; < 1 t t y y u 1 6 ;.2 ; : w J.E.^./.(.(.C.6.V.d.a.c.a.a.a.a.a.a.f.s.7.G z z z N C ' ' [ } } } | | | | O.O.O.O.O.+.+.+.+.#.#.#.#.#.#.%.%.%.%.%.&.&.&.&.&.&.%.%.%.#.+.O.| } [ L K _ R.{.|.|.|.|.|.|.|.|.|.|.|.|.|.|.|.OXOXOXOXOXOXOXOXOXOXOXOXOXOXOXOXOXOXOXOX",
"|.|.|.|.|.|.|.|.|.|.|.|.|.|.|.|.|.|.|.|.OXOXOXOXOXOXOXOXOXOXOXOXOXOXOXOXOXOXOXOX|.|.|.|.|.|.|.|.|.|.|.|.|.|.|.|.|.|.|.|.OXOXOXOXOXOXOXOXOXOXOXOXOXOXOXOXOXOXOXOX|.|.|.|.|.|.|.|.|.|.|.|.|.|.|.|.|.|.|.|.OXOXOXOXOXOXOXOXOXOXOXOXOXOXOXOXOXOXOXOX|.|.|.|.|.|.|.|.|.|.|.|.|.|.|.|.|.|.|.|.OXOXOX{._ 3 < : N.(.^.U.6.z.d.a.a.s.s.q.6.M.U.E.E.E.E.E.P.T.>.: ; > > < y y 1 < , , , > ; - - : : : 6 6 w 5 < 1 t t t y f y 1 , ; ; - 6 G.P.^./.^.T.C.m.6.6.z.z.s.d.a.a.a.a.a.d.s.0.G z b z M L ' ' [ [ } } } | | | | O.O.O.O.O.O.+.+.+.+.#.#.#.#.#.%.%.%.%.%.%.&.%.%.%.%.#.+.O.| } [ ' L K ,.`. X|.|.|.|.|.|.|.|.|.|.|.|.|.|.|.OXOXOXOXOXOXOXOXOXOXOXOXOXOXOXOXOXOXOXOX",
"|.|.|.|.|.|.|.|.|.|.|.|.|.|.|.|.|.|.|.|.OXOXOXOXOXOXOXOXOXOXOXOXOXOXOXOXOXOXOXOX|.|.|.|.|.|.|.|.|.|.|.|.|.|.|.|.|.|.|.|.OXOXOXOXOXOXOXOXOXOXOXOXOXOXOXOXOXOXOXOX|.|.|.|.|.|.|.|.|.|.|.|.|.|.|.|.|.|.|.|.OXOXOXOXOXOXOXOXOXOXOXOXOXOXOXOXOXOXOXOX|.|.|.|.|.|.|.|.|.|.|.|.|.|.|.|.|.|.|.|.OXOXOX X,.3 < ; ;.T.^.M.z.s.a.a.a.d.a.d.z.6.M.W.E.E.P.^.P.P.N.: - ; > 1 y y 1 , , > ; : 4 w w ;.;.;.r ;.;.5 1 < 1 1 1 t u u t , ; ; - 6 >.L.^./.^.(.T.W.U.C.M.M.5.3.u.a.a.a.a.d.d.s.0.P z l b M C ' ' [ [ } } } } | | | | | O.O.O.O.O.+.+.+.+.#.#.#.#.%.%.%.%.%.%.%.*.%.%.#.+.O.| } ' K K G I.{.|.|.|.|.|.|.|.|.|.|.|.|.|.|.|.|.OXOXOXOXOXOXOXOXOXOXOXOXOXOXOXOXOXOXOXOX",
"|.|.|.|.|.|.|.|.|.|.|.|._.|.|.|.|.|.|.|.|.OXOXOXOXOXOXOXOXOXOXOXOXOXOXOXOXOXOXOX|.|.|.|.|.|.|.|.|.|.|.|.|.|.|.|.|.|.|.|.OXOXOXOXOXOXOXOXOXOXOXOXOXOXOXOXOXOXOXOX|.|.|.|.|.|.|.|.|.|.|.|.|.|.|.|.|.|.|.|.OXOXOXOXOXOXOXOXOXOXOXOXOXOXOXOXOXOXOXOX|.|.|.|.|.|.|.|.|.|.|.|.|.|.|.|.|.|.|.|.OXOXOXoXR.5 < , : I.!.C.z.d.a.a.a.a.d.c.a.z.6.M.U.E.P.P.^.L.G.w - ; > < y t 1 , > ; : w r F.>.G.>.>.>.>.:.5 , < < 1 < 1 y u y 1 ; ; - : r J.E.^./.^./.(.(.T.W.C.z.3.u.a.a.a.a.a.a.d.s.0.G x l b b C ' ' ' [ [ } } } } } | | O.| O.O.O.O.O.+.+.+.+.#.#.#.#.%.%.%.%.%.%.%.#.+.O.| } [ ' L G :.{.|.|.|.|.|.|.|.|.|.|.|.|.|.|.|.|.|.OXOXOXOXOXOXOXOXOXOXOXOXOXOXOXOXOXOXOXOX",
"|.|.|.|.|.|.|.|.|.|.|.|.|.|.|.|.|.|.|.|.OXOXOXOXOXOXOXOXOXOXOXOXOXOXOXOXOXOXOXOX|.|.|.|.|.|.|.|.|.|.|.|.|.|.|.|.|.|.|.|.OXOXOXOXOXOXOXOXOXOXOXOXOXOXOXOXOXOXOXOX|.|.|.|.|.|.|.|.|.|.|.|.|.|.|.|.|.|.|.|.OXOXOXOXOXOXOXOXOXOXOXOXOXOXOXOXOXOXOXOX|.|.|.|.|.|.|.|.|.|.|.|.|.|.|.|.|.|.|.|.OXOXOXoX X_ 3 , ; ;.R.U.z.s.a.a.a.a.a.d.a.d.z.6.C.E.P.^.P.P.J.e - ; > < y t , > ; 6 w >.N.F.G.F.N.N.F.>.,.5 > , > < < < t y u t > ; - : e G.P.^.^.^.^.^.(.T.W.M.6.p.a.a.a.a.a.d.a.d.s.z.<.:.x k l b B C ' ' [ [ } } } } } } | | | | O.O.O.O.O.+.+.+.+.#.#.#.%.%.%.%.%.%.#.+.O.| [ ~ L K G I.{..X|.|.|.|.|.|.|.|.|.|.|.|.|.|.|.|.OXOXOXOXOXOXOXOXOXOXOXOXOXOXOXOXOXOXOXOX",
"|.|.|.|.|.|.|.|.|.|.|.|.|.|.|.|.|.|.|.|.OXOXOXOXOXOXOXOXOXOXOXOXOXOXOXOXOXOXOXOX|.|.|.|.|.|.|.|.|.|.|.|.|.|.|.|.|.|.|.|.OXOXOXOXOXOXOXOXOXOXOXOXOXOXOXOXOXOXOXOX|.|.|.|.|.|.|.|.|.|.|.|.|.|.|.|.|.|.|.|.OXOXOXOXOXOXOXOXOXOXOXOXOXOXOXOXOXOXOXOX|.|.|.|.|.|.|.|.|.|.|.|.|.|.|.|.|.|.|.|.OXOXOXOXoXI.5 < > 6 T.U.V.z.z.d.d.a.a.a.a.h.d.z.m.U.^.P.P.P.K.>.: - ; < y t < > 6 ;.>.H.H.H.H.N.F.G.G.N.,.c 2 ; 2 2 > > < t u y < ; - - q G.L.E.^.^./.(.^.W.M.6.s.a.a.a.a.a.a.a.a.a.s.q.m.I.:._ l l z M C L K [ [ [ [ } } } } } | | | | | O.O.O.+.+.+.+.#.#.#.#.#.%.#.#.+.O.| } [ L K G :.`. X|.|.|.|.|.|.|.|.|.|.|.|.|.|.|.|.|.OXOXOXOXOXOXOXOXOXOXOXOXOXOXOXOXOXOXOXOX",
"|.|.|.|.|.|.|.|.|.|.|.|.|.|.|.|.|.|.|.|.OXOXOXOXOXOXOXOXOXOXOXOXOXOXOXOXOXOXOXOX|.|.|.|.|.|.|.|.|.|.|.|.|.|.|.|.|.|.|.|.OXOXOXOXOXOXOXOXOXOXOXOXOXOXOXOXOXOXOXOX|.|.|.|.|.|.|.|.|.|.|.|.|.|.|.|.|.|.|.|.OXOXOXOXOXOXOXOXOXOXOXOXOXOXOXOXOXOXOXOX|.|.|.|.|.|.|.|.|.|.|.|.|.|.|.|.|.|.|.|.OXOXOXOXOX`.;., > > >.(.W.C.M.6.z.d.a.a.a.a.d.s.6.C.E.E.P.P.L.N.: # ; 1 t t < : w D.N.N.H.H.H.H.F.N.N.F.,.w 2 2 w ;.6 2 > 1 y u < > - # 6 >.J.P.^.^.^.T.A.6.q.d.a.a.a.a.a.a.a.a.a.d.z.5.C.T.I.,._ j l z N N L L ' L [ [ [ } } } } } } | | | | O.O.O.+.+.+.+.+.#.#.#.#.+.O.O.} [ ' L K G I.{..X|.|.|.|.|.|.|.|.|.|.|.|.|.|.|.|.|.OXOXOXOXOXOXOXOXOXOXOXOXOXOXOXOXOXOXOXOX",
"|.|.|.|.|.|.|.|.|.|.|.|.|.|.|.|.|.|.|.|.OXOXOXOXOXOXOXOXOXOXOXOXOXOXOXOXOXOXOXOX|.|.|.|.|.|.|.|.|.|.|.|.|._.|.|.|.|.|.|.OXOXOXOXOXOXOXOXOXOXOXOXOXOXOXOXOXOXOXOX|.|.|.|.|.|.|.|.|.|.|.|.|.|.|.|.|.|.|.|.OXOXOXOXOXOXOXOXOXOXOXOXOXOXOXOXOXOXOXOX|.|.|.|.|.|.|.|.|.|.|.|.|.|.|.|.|.|.|.|.OXOXOXOXOXoXI.5 > ; ;.(.).(.W.C.3.u.a.a.a.a.a.d.q.m.U.P.P.P.L.H.6 : ; < t t < 2 ;.N.G.F.H.H.H.H.G.G.F.N.N.r 6 6 H.J.H.;.6 < t u t , ; # : r J.P.E.^.^.U.m.z.d.a.a.a.a.a.a.a.a.a.d.s.6.M.U.P.K.T.I.:.c l z z N C L K L [ [ [ [ [ } } } } } | | | | O.O.O.+.+.+.+.+.+.+.O.O.| } ' L L G :.`. X.X|.|.|.|.|.|.|.|.|.|.|.|.|.|.|.|.|.OXOXOXOXOXOXOXOXOXOXOXOXOXOXOXOXOXOXOXOX",
"|.|.|.|.|.|.|.|.|.|.|.|.|.|.|.|.|.|.|.|.OXOXOXOXOXOXOXOXOXOXOXOXOXOXOXOXOXOXOXOX|.|.|.|.|.|.|.|.|.|.|.|.|.|.|.|.|.|.|.|.OXOXOXOXOXOXOXOXOXOXOXOXOXOXOXOXOXOXOXOX|.|.|.|.|.|._.|.|.|.|.|.|.|.|.|.|.|.|.|.OXOXOXOXOXOXOXOXOXOXOXOXOXOXOXOXOXOXOXOX|.|.|.|.|.|.|.|.|.|.|.|.|.|.|.|.|.|.|.|.OXOXOXOXOXoX{.;.2 > : I.(.(.W.M.q.s.a.a.a.a.a.d.s.5.U.P.P.P.P.J.w # ; , t 3 < 2 r F.G.H.H.H.H.H.G.N.G.G.G.>.;.G.T.P.L.J.>.6 1 y y 1 ; - : e J.P.E.^.^.U.m.z.d.a.d.a.a.a.a.a.a.d.s.6.m.U.P.L.L.K.J.I._ 5 l l z N N L L L [ ' L [ [ [ } } } } } } | | | O.O.O.O.+.+.+.O.O.| } [ [ L K G U. X.X|.|.|.|.|.|.|.|.|.|.|.|.|.|.|.|.|.|.OXOXOXOXOXOXOXOXOXOXOXOXOXOXOXOXOXOXOXOX",
"|.|.|.|.|.|.|.|.|.|.|.|.|.|.|.|.|.|.|.|.OXOXOXOXOXOXOXOXOXOXOXOXOXOXOXOXOXOXOXOX|.|.|.|.|.|.|.|.|.|.|.|.|.|.|.|.|.|.|.|.OXOXOXOXOXOXOXOXOXOXOXOXOXOXOXOXOXOXOXOX|.|.|.|.|.|.|.|.|.|.|.|.|.|.|.|.|.|.|.|.OXOXOXOXOXOXOXOXOXOXOXOXOXOXOXOXOXOXOXOX|.|.|.|.|.|.|.|.|.|.|.|.|.|.|.|.|.|.|.|.OXOXOXOXOXOXoXT.5 > - >.(.T.C.6.s.a.a.a.a.a.a.d.s.5.C.P.P.P.P.K.r : - 2 t 1 , : w F.N.H.H.H.H.H.G.G.G.m.N.G.N.T.E.P.P.L.K.6 < t u t ; - @ q G.L.E.E.^.E.C.6.z.d.n.d.n.a.a.d.s.z.6.M.U.P.P.P.L.L.J.J.;.6 j l b b M N N C L L [ ' [ [ [ [ [ } } } } } | | | O.O.O.O.O.| | } [ ' L L G :.{. X|.|.|.|.|.|.|.|.|.|.|.|.|.|.|.|.|.|.|.OXOXOXOXOXOXOXOXOXOXOXOXOXOXOXOXOXOXOXOX",
"|.|.|.|.|.|.|.|.|.|.|.|.|.|.|.|.|.|.|.|.OXOXOXOXOXOXOXOXOXOXOXOXOXOXOXOXOXOXOXOX|.|.|.|.|.|.|.|.|.|.|.|.|.|.|.|.|.|.|.|.OXOXOXOXOXOXOXOXOXOXOXOXOXOXOXOXOXOXOXOX|.|.|.|.|.|.|.|.|.|.|.|.|.|.|.|.|.|.|.|.OXOXOXOXOXOXOXOXOXOXOXOXOXOXOXOXOXOXOXOX|.|.|.|.|.|.|.|.|.|.|.|.|.|.|.|.|.|.|.|.OXOXOXOXOXOXoX{.;.2 ; 6 U.T.M.x.a.a.a.a.a.a.a.s.z.5.C.P.P.P.P.K.F.6 - , t t < 2 w 4.G.H.H.H.H.H.H.H.N.G.G.N.H.K./.^.E.P.L.>.2 t y y , - # 6 r K.^.^.P.E.^.U.M.6.z.d.z.z.z.6.M.M.U.U.E.P.P.L.L.K.K.J.r : > j l b b z z N G C L L L [ L [ } [ [ } } } } } } | | | | | } } [ [ ~ K L G I. X X|.|.|.|.|.|.|.|.|.|.|.|.|.|.|.|.|.|.|.OXOXOXOXOXOXOXOXOXOXOXOXOXOXOXOXOXOXOXOX",
"|.|.|.|.|.|.|.|.|.|.|.|.|.|.|.|.|.|.|.|.OXOXOXOXOXOXOXOXOXOXOXOXOXOXOXOXOXOXOXOX|.|.|.|.|.|.|.|.|.|.|.|.|.|.|.|.|.|.|.|.OXOXOXOXOXOXOXOXOXOXOXOXOXOXOXOXOXOXOXOX|.|.|.|.|.|.|.|.|.|.|.|.|.|.|.|.|.|.|.|.OXOXOXOXOXOXOXOXOXOXOXOXOXOXOXOXOXOXOXOX|.|.|.|.|.|.|.|.|.|.|.|.|.|.|.|.|.|.|.|.OXOXOXOXOXOXOXoXR.6 2 : N.(.V.V.s.a.a.a.a.h.d.s.z.5.U.P.P.P.L.L.N.6 - , t t < 2 w >.G.G.H.H.H.H.H.H.G.G.G.F.H.J.^./.W.P.P.H.5 < t y t > - : r J.P.P.E.E.E.E.E.U.C.M.V.V.C.U.U.U.E.E.P.P.L.L.L.K.K.J.r & ; < p s l l z b b N N L L L L ' L [ [ [ [ [ } } } } } { } } } [ [ ' L K G ,.[.OX.X.X|.|.|.|.|.|.|.|.|.|.|.|.|.|.|.|.|.|.OXOXOXOXOXOXOXOXOXOXOXOXOXOXOXOXOXOXOXOX",
"|.|.|.|.|.|.|.|.|.|.|.|.|.|.|.|.|.|.|.|.OXOXOXOXOXOXOXOXOXOXOXOXOXOXOXOXOXOXOXOX|.|.|.|.|.|.|.|.|.|.|.|.|.|.|.|.|.|.|.|.OXOXOXOXOXOXOXOXOXOXOXOXOXOXOXOXOXOXOXOX|.|.|.|.|.|.|.|.|.|.|.|.|.|.|.|.|.|.|.|.OXOXOXOXOXOXOXOXOXOXOXOXOXOXOXOXOXOXOXOX|.|.|.|.|.|.|.|.|.|.|.|.|.|.|.|.|.|.|.|.OXOXOXOXOXOXOXOX X:.2 - w R.W.V.V.d.a.a.d.d.s.z.6.m.U.P.L.L.L.L.G.w - > t t < 2 w >.G.F.H.H.H.H.H.H.G.M.G.G.H.J.E./.^.E.P.K.;.2 1 y y , - # e J.L.P.P.E.E.E.E.^.^.E.W.^.E.E.L.P.E.P.L.L.L.K.K.J.J.J.r : > < 1 1 3 l l k z b z N N L L L L ' [ ' L [ [ [ [ [ [ [ [ [ ~ ' ' L L K _ R. XoX|.|.|.|.|.|.|.|.|.|.|.|.|.|.|.'.|.|.|.|.OXOXOXOXOXOXOXOXOXOXOXOXOXOXOXOXOXOXOXOX",
"|.|.|.|.|.|.|.|.|.|.|.|.|.|.|.|.|.|.|.|.OXOXOXOXOXOXOXOXOXOXOXOXOXOXOXOXOXOXOXOX|.|.|.|.|.|.|.|.|.|.|.|.|.|.|.|.|.|.|.|.OXOXOXOXOXOXOXOXOXOXOXOXOXOXOXOXOXOXOXOX|.|.|.|.|.|.|.|.|.|.|.|.|.|.|.|.|.|.|.|.OXOXOXOXOXOXOXOXOXOXOXOXOXOXOXOXOXOXOXOX|.|.|.|.|.|.|.|.|.|.|.|.|.|.|.|.|.|.|.|.OXOXOXOXOXOXOXOXoXE.5 2 6 N.^.W.M.z.z.s.s.z.z.6.m.C.P.P.L.L.L.K.J.;.; < y y 1 2 w >.D.N.H.H.J.H.J.G.G.H.G.N.H.H.P./.^.E.E.T.,.6 < y u t - # q >.K.L.P.E.E.^.^.^.^.E.^.E.P.P.L.L.L.L.L.K.K.J.J.J.G.G.r : , < 1 1 2 :.,.;.x x z z b b N G L L L L [ ' L [ ' [ ~ [ ' K [ L L L _ G ,.`.OXOX|.|.|.|.|.|.|.|.|.|.|.|.|.|.|.|.|.|.|.|.OXOXOXOXOXOXOXOXOXOXOXOXOXOXOXOXOXOXOXOX",
"|.|.|.|.|.|.|.|.|.|.|.|.|.|.|.|.|.|.|.|.OXOXOXOXOXOXOXOXOXOXOXOXOXOXOXOXOXOXOXOX|.|.|.|.|.|.|.|.|.|.|.|.|.|.|.|.|.|.|.|.OXOXOXOXOXOXOXOXOXOXOXOXOXOXOXOXOXOXOXOX|.|.|.|.|.|.|.|.|.|.|.|.|.|.|.|.|.|.|.|.OXOXOXOXOXOXOXOXOXOXOXOXOXOXOXOXOXOXOXOX|.|.|.|.|.|.|.|.|.|.|.|.|.|.|.|.|.|.|.|.oXOXOXOXOXOXOXOXOX X:.> : ;.^.T.W.W.C.M.m.m.m.m.C.P.L.L.L.K.T.K.J.>.: < y y 1 2 ;.>.G.G.H.H.H.H.H.H.H.H.H.H.H.H.K./.(.E.P.L.J.6 < t u y > - 6 >.K.L.P.E.E.E.E.E.P.P.P.L.L.K.K.K.K.K.J.J.J.J.J.J.G.F.r : 2 < < < 2 I.`.R.,._ x l z z z N N N L N L L L L L L ' K ' K L L K K G :.(.oXOXOX|.|.|.|.|.|.|.|.|.|.|.|.|.|.|.|.|.|.|.|.OXOXOXOXOXOXOXOXOXOXOXOXOXOXOXOXOXOXOXOX",
"|.|.|.|.|.|.|.|.|.|.|.|.|.|.|.|.|.|.|.|.OXOXOXOXOXOXOXOXOXOXOXOXOXOXOXOXOXOXOXOX|.|.|.|.|.|.|.|.|.|.|.|.|.|.|.|.|.|.|.|.OXOXOXOXOXOXOXOXOXOXOXOXOXOXOXOXOXOXOXOX|.|.|.|.|.|.|.|.|.|.|.|.|.|.|.|.|.|.|.|.OXOXOXOXOXOXOXOXOXOXOXOXOXOXOXOXOXOXOXOX|.|.|.|.|.|.|.|.|.|.|.|.|.|.|.|.|.|.|.|.OXOXOXOXOXOXOXOXOXoXR.6 ; 6 K.^.^.E.E.U.U.U.T.K.K.L.L.L.L.K.K.K.J.r 6 2 y y < , ;.>.r H.H.H.H.G.H.H.G.G.H.H.G.H.J.(.(.E.P.L.K.>.2 1 u u t - : r G.K.L.L.L.L.L.L.L.L.K.L.K.K.J.J.J.J.G.J.G.G.D.F.G.F.r : 2 < t < 2 ,.{..X{.!.I.:._ x l z z z N N N L L L L L L L N K L N M G G B. XOXOXOX|.|.|.|.|.|.|.|.|.|.|.|.|.|.|.|.|.|.|.|.OXOXOXOXOXOXOXOXOXOXOXOXOXOXOXOXOXOXOXOX",
"|.|.|.|.|.|.|.|.|.|.|.|.|.|.|.|.|.|.|.|.OXOXOXOXOXOXOXOXOXOXOXOXOXOXOXOXOXOXOXOX|.|.|.|.|.|.|.|.|.|.|.|.|.|.|.|.|.|.|.|.OXOXOXOXOXOXOXOXOXOXOXOXOXOXOXOXOXOXOXOX|.|.|.|.|.|.|.|.|.|.|.|.|.|.|.|.|.|.|.|.OXOXOXOXOXOXOXOXOXOXOXOXOXOXOXOXOXOXOXOX.X|.|.|.|.|.|.|.|.|.|.|.|.|.|.|.|.|.|.|.OXOXOXOXOXOXOXOXOXoX[.;.2 : >.E.E.E.L.P.L.L.K.K.K.K.K.L.K.K.J.K.J.N.6 3 y y < 6 r >.G.H.H.N.G.F.H.F.G.N.N.D.>.F.H.W.T.(.E.P.P.H.6 1 y u y , # w G.J.K.K.K.K.K.K.K.K.J.J.J.G.G.G.F.F.F.D.F.F.F.F.F.r e & 2 < < < 2 ,.{..X.X X{.`.R.,._ x l z z z z N N N N N N N N N N N N x :.`.OXOXOXOX|.|.|.|.|.|.|.|.|.|.|.|.|.|.|.|.|.|.|.|.OXOXOXOXOXOXOXOXOXOXOXOXOXOXOXOXOXOXOXOX",
"|.|.|.|.|.|.|.|.|.|.|.|.|.|.|.|.|.|.|.|.OXOXOXOXOXOXOXOXOXOXOXOXOXOXOXOXOXOXOXOX|.|.|.|.|.|.|.|.|.|.|.|.|.|.|.|.|.|.|.|.OXOXOXOXOXOXOXOXOXOXOXOXOXOXOXOXOXOXOXoX|.|.|.|.|.|.|.|.|.|.|.|.|.|.|.|.|.|.|.|.OXOXOXOXOXOXOXOXOXOXOXOXOXOXOXOXOXOXOXOX|.|.|.|.|.|.|.|.|.|.|.|.|.|.|.|.|.|.|.|.OXOXOXOXOXOXOXOXOXOXXXR.6 : q K.P.L.L.K.K.J.K.J.J.K.J.J.J.J.J.G.G.N.;.3 y y < 6 >.>.r H.N.D.N.F.N.F.F.F.r >.>.r e (.).(.E.P.L.J.;.2 1 u u < # w r J.J.J.J.J.J.J.G.J.G.D.G.D.G.F.G.G.J.G.J.D.J.J.F.F.r q 2 , , , 2 ,.{.|.|.|..X X X`.!.H.:._ x x z z z z b b G b N l N x x :.!.oXOXOXOXOX|.|.|.|.|.|.|.|.|.|.|.|.|.|.|.|.|.|.|.|.OXOXOXOXOXOXOXOXOXOXOXOXOXOXOXOXOXOXOXOX",
"OXOXOXOXOXOXOXOXOXOXOXOXOXOXOXOXOXOXOXOX|.|.|.|.|.|.|.|.|.|.|.|.|.|.|.|.|.|.|.|.OXOXOXOXOXOXOXOXOXOXOXOXOXOXOXOXOXOXOXOX|.|.|.|.|.|.|.|.|.|.|.|.|.|.|.|.|.|.|.|.OXOXOXOXOXOXOXOXOXOXOXOXOXOXOXOXOXOXOXOX|.|.|.|.|.|.|.|.|.|.|.|.|.|.|.|.|.|.|.|.OXOXOXOXOXOXOXOXOXOXOXOXOXOXOXOXOXOXOXOX|.|.|.|.|.|.|..X|.|..X'.>.6 w H.K.K.J.J.K.J.G.J.J.G.J.J.J.J.G.F.G.>.;.< y t < 6 >.>.F.F.F.G.r G.>.>.>.D.4.r ;.6 6 T._.).^.E.P.K.F.2 < y i y > 6 r G.J.G.J.G.J.F.F.G.G.G.J.J.K.L.P.P.P.P.P.P.L.L.K.K.J.w : , , > 2 ;.{.oXOXOXOXOXOXoXoX X`.R.N._ x x k l z z z z b z z l _ I.{.|.|.|.|.|.OXOXOXOXOXOXOXOXOXOXOXOXOXOXOXOXOXOXOXOX|.|.|.|.|.|.|.|.|.|.|.|.|.|.|.|.|.|.|.|.",
"OXOXOXOXOXOXOXOXOXOXOXOXOXOXOXOXOXOXOXOX|.|.|.|.|.|.|.|.|.|.|.|.|.|.|.|.|.|.|.|.OXOXOXOXOXOXOXOXOXOXOXOXOXOXOXOXOXOXOXOX|.|.|.|.|.|.|.|.|.|.|.|.|.|.|.|.|.|.|.|.OXOXOXOXOXOXOXOXOXOXOXOXOXOXOXOXOXOXOXOX|.|.|.|.|.|.|.|.|.|.|.|.|.|.|.|.|.|.|.|.OXOXOXOXOXOXOXOXOXOXOXOXOXOXOXOXOXOXOXOX|.|.|.|.|.|.|.|.|.|..X{.}.`.).(./.L.F.G.D.G.G.G.G.D.G.G.F.G.G.G.>.>._ < y t 2 ;.>.>.>.>.>.>.>.>.>.>.>.r D.w 6 : 2 T.{.).(.E.P.L.J.;.2 t i u 1 : w D.F.G.D.G.J.J.L.P.^.E.P.^.E.E.E.E.P.P.P.P.L.L.L.L.L.I.;.> , , ; 6 R.oXOXOXOXOXOXOXOXOXoXoXXX`.R.:.:.c x x x x x l _ :.R.[. X|.|.|.|.|.OXOXOXOXOXOXOXOXOXOXOXOXOXOXOXOXOXOXOXOX|.|.|.|.|.|.|.|.|.|.|.|.|.|.|.|.|.|.|.|.",
"OXOXOXOXOXOXOXOXOXOXOXOXOXOXOXOXOXOXOXOX|.|.|.|.|.|.|.|.|.|.|.|.|.|.|.|.|.|.|.|.OXOXOXOXOXOXOXOXOXOXOXOXOXOXOXOXOXOXOXOX|.|.|.|.|.|.|.|.|.|.|.|.|.|.|.|.|.|.|.|.OXOXOXOXOXOXOXOXOXOXOXOXOXOXOXOXOXOXOXOX|.|.|.|.|.|.|.|.|.|.|.|.|.|.|.|.|.|.|.|.OXOXOXOXOXOXOXOXOXOXOXOXOXOXOXOXOXOXOXOX|.|.|.|.|.|.|.|.|.|..X.X'..X'.|.'.'.^.J.J.J.G.J.J.F.G.D.F.F.F.F.r ;.c p y 1 2 ;.;.r r r >.r r r r ;.;.w 6 : ; : 6 I. X'.E.E.T.L.K.>.6 t u i y ; 6 r F.F.J.L.^.^.^.^.^.^.^.^.E.E.E.E.E.P.P.P.L.L.L.L.L.T.I.6 3 > > 2 ;.{.oXOXOXOXOXOXOXOXOXOXOXoX X`.`.T.N.:.:._ :.,.I.`.{. X|.|.|.|.|.|.OXOXOXOXOXOXOXOXOXOXOXOXOXOXOXOXOXOXOXOX|.|.|.|.|.|.|.|.|.|.|.|.|.|.|.|.|.|.|.|.",
"OXOXOXOXOXOXOXOXOXOXOXOXOXOXOXOXOXOXOXOX|.|.|.|.|.|.|.|.|.|.|.|.|.|.|.|.|.|.|.|.OXOXOXOXOXOXOXOXOXOXOXOXOXOXOXOXOXOXOXOX|.|.|.|.|.|.|.|.|.|.|.|.|.|.|.|.|.|.|.|.OXOXOXOXOXOXOXOXOXOXOXOXOXOXOXOXOXOXOXOX|.|.|.|.|.|.|.|.|.|.|.|.|.|.|.|.|.|.|.|.OXOXOXOXOXOXOXOXOXOXOXOXOXOXOXOXOXOXOXOX|.|.|.|.|.|.|.|.|..X.X.X.X.X X'.|.'._.^.P.P.E.^.^.^././.^.^.E.U.,.c s s a s p 5 6 w w w w w w w 6 6 6 2 > : 2 2 : ,.{.'.(.(.E.L.K.H.w 2 t u y < 5 e >.J.P.^.^././.^.^.^.^.^.^.E.E.E.E.P.P.L.P.L.L.L.L.L.T.I.5 , > ; 6 T.oXOXOXOXOXOXOXOXOXOXOXOX|. X X{.{.{.`.!.`.{.{.{..X.X|.|.|.|.|.|.OXOXOXOXOXOXOXOXOXOXOXOXOXOXOXOXOXOXOXOX|.|.|.|.|.|.|.|.|.|.|.|.|.|.|.|.|.|.|.|.",
"OXOXOXOXOXOXOXOXOXOXOXOXOXOXOXOXOXOXOXOX|.|.|.|.|.|.|.|.|.|.|.|.|.|.|.|.|.|.|.|.OXOXOXOXOXOXOXOXOXOXOXOXOXOXOXOXOXOXOXOX|.|.|.|.|.|.|.|.|.|.|.|.|.|.|.|.|.|.|.|.OXOXOXOXOXOXOXOXOXOXOXOXOXOXOXOXOXOXOXOX|.|.|.|.|.|.|.|.|.|.|.|.|.|.|.|.|.|.|.|.OXOXOXOXOXOXOXOXOXOXOXOXOXOXOXOXOXOXOXOX|.|.|.|.|.|..X.X.X.X.X.X|.'..X'.'.'.'.)./.P.P.E.^./.(.)././.R.N.x s k d d a a a p 5 5 5 2 5 2 2 2 2 2 2 2 2 : 2 2 w `. X).E.P.L.K.H.>.6 < y u p 6 ;.K.E.^.E.^.^.^./.^.^.^.^.E.E.E.E.P.E.P.P.L.P.L.L.L.L.L.T.,.2 , > ; ;. XOXOXOXOXOXOXOXOXOXOXOX|.|..X.X.X X X X X X.X.X|.|.|.|.|.|.|.|.OXOXOXOXOXOXOXOXOXOXOXOXOXOXOXOXOXOXOXOX|.|.|.|.|.|.|.|.|.|.|.|.|.|.|.|.|.|.|.|.",
"OXOXOXOXOXOXOXOXOXOXOXOXOXOXOXOXOXOXOXOX|.|.|.|.|.|.|.|.|.|.|.|.|.|.|.|.|.|.|.|.OXOXOXOXOXOXOXOXOXOXOXOXOXOXOXOXOXOXOXOX|.|.|.|.|.|.|.|.|.|.|.|.|.|.|.|.|.|.|.|.OXOXOXOXOXOXOXOXOXOXOXOXOXOXOXOXOXOXOXOX|.|.|.|.|.|.|.|.|.|.|.|.|.|.|.|.|.|.|.|.OXOXOXOXOXOXOXOXOXOXOXOXOXOXOXOXOXOXOXOX|.|.|.|..X|..X.X.X.X X'.'.|.'. X'.'.).(.(.^.L.L.P.^.(.R.T.N._ l k d d d d d d s a a p p 3 3 3 3 p 2 p 2 2 2 2 2 > 6 T. X XP.K.K.J.H.>.6 < y d s 3 ;.I.P.^.^.^.^././.^.^.^.^.^.E.E.E.E.E.P.P.P.L.L.L.L.L.L.L.I.;.2 > > 6 T.oXOXOXOXOXOXOXOXOXOXOX|.|.|.|.|.|.|.|.|.|.|.|.|.|.|.|.|.|.|.|.OXOXOXOXOXOXOXOXOXOXOXOXOXOXOXOXOXOXOXOX|.|.|.|.|.|.|.|.|.|.|.|.|.|.|.|.|.|.|.|.",
"OXOXOXOXOXOXOXOXOXOXOXOXOXOXOXOXOXOXOXOX|.|.|.|.|.|.|.|.|.|.|.|.|.|.|.|.|.|.|.|.OXOXOXOXOXOXOXOXOXOXOXOXOXOXOXOXOXOXOXOX|.|.|.|.|.|.|.|.|.|.|.|.|.|.|.|.|.|.|.|.OXOXOXOXOXOXOXOXOXOXOXOXOXOXOXOXOXOXOXOX|.|.|.|.|.|.|.|.|.|.|.|.|.|.|.|.|.|.|.|.OXOXOXOXOXOXOXOXOXOXOXOXOXOXOXOXOXOXOXOX|.|.|.|..X|..X.X'..X'.|..X'.'.'._.).).(././.E.J.T.T.H.;.5 p l s d d d d d d d d s a a p p p 3 3 3 3 3 2 3 3 2 3 2 : ;.`.oX).H.>.:.;.;._ p a d k k 5 :.T.^.^.^.^././.^.^.^.^.^.E.E.E.P.E.P.P.P.P.P.L.L.L.L.T.K.I.6 2 2 2 ,.XXoXOXOXOXOXOXOXOXOXOX|.|.|.|.|.|.|.|.|.|.|.|.|.|.|.|.|.|.|.|.OXOXOXOXOXOXOXOXOXOXOXOXOXOXOXOXOXOXOXOX|.|.|.|.|.|._.|.|.|.|.|.|.|.|.|.|.|.|.|.",
"OXOXOXOXOXOXOXOXOXOXOXOXOXOXOXOXOXOXOXOX|.|.|.|.|.|.|.|.|.|.|.|.|.|.|.|.|.|.|.|.OXOXOXOXOXOXOXOXOXOXOXOXOXOXOXOXOXOXOXOX|.|.|.|.|.|.|.|.|.|.|.|.|.|.|.|.|.|.|.|.OXOXOXOXOXOXOXOXOXOXOXOXOXOXOXOXOXOXOXOX|.|.|.|.|.|.|.|.|.|.|.|.|.|.|.|.|.|.|.|.OXOXOXOXOXOXOXOXOXOXOXOXOXOXOXOXOXOXOXOX}.^.P./.'.'..X.X.X'..X).'.'.'.'.).).)./././.(.K.>.6 6 3 j p d d d d d d d d d d s a a a p j 3 3 p 3 3 3 3 3 2 2 2 2 6 U.oX XN.6 5 5 5 5 a a d d k s c ,.L.^.^.}./././.^.^.^.E.^.E.E.E.E.E.P.P.P.P.P.L.P.L.L.L.T.N.6 : 2 6 `.OXOXOXOXOXOXOXOXOXOX|.|.|.|.|.|.|.|.|.|.|.|.|.|..X|.|.|.|.|.OXOXOXOXOXOXOXOXOXOXOXOXOXOXOXOXOXOXOXOX|.|.|.|.|.|.|.|.|.|.|.|.|.|.|.|.|.|.|.|.",
"OXOXOXOXOXOXOXOXOXOXOXOXOXOXOXOXOXOXOXOX|.|.|.|.|.|.|.|.|.|.|.|.|.|.|.|.|.|.|.|.OXOXOXOXOXOXOXOXOXOXOXOXOXOXOXOXOXOXOXOX|.|.|.|.|.|.|.|.|.|.|.|.|.|.|.|.|.|.|.|.OXOXOXOXOXOXOXOXOXOXOXOXOXOXOXOXOXOXOXOX|.|.|.|.|.|.|.|.|.|.|.|.|.|.|.|.|.|.|.|.OXOXOXOXOXOXOXOXOXOXOXOXOXOXOXOXOXoX|./.L.J.F.G.J.K./.|.].'.'.'.'.'.).).)._./././.^.(.P.>.: 2 3 s d d d d d d d d d d d d d s a a p p p p 3 p 3 3 3 3 3 2 2 2 ,.XX X:.5 p p j a a s s d d k a c N.T.^.^././.^.^.^.^.^.^./.(.).).).).)./.)./.(.(.E.E.E.P.K.,.2 2 6 I.oXOXOXOXOXOXOXOXOXOX|.|.|.|.|.|.|.|.|.|.|.|.|.|.|.|.|.|.|.|.OXOXOXOXOXOXOXOXOXOXOXOXOXOXOXOXOXOXOXOX|.|.|.|.|.|.|.|.|.|.|.|.|.|.|.|.|.|.|.|.",
"OXOXOXOXOXOXOXOXOXOXOXOXOXOXOXOXOXOXOXOX|.|.|.|.|.|.|.|.|.|.|.|.|.|.|.|.|.|.|.|.OXOXOXOXOXOXOXOXOXOXOXOXOXOXOXOXOXOXOXOX|.|.|.|.|.|.|.|.|.|.|.|.|.|.|.|.|.|.|.|.OXOXOXOXOXOXOXOXOXOXOXOXOXOXOXOXOXOXOXOX|.|.|.|.|.|.|.|.|.|.|.|.|.|.|.|.|.|.|.|.OXOXOXOXOXOXOXOXOXOXOXOXOXOXoXoX|.|.'.'.^.K.J.G.F.F.F.E._.'.'.).).).(.(.(.(././.^.^.E.R.R.6 ; < a d d d d d d d v d v d d d s a a a p p p p p p p 3 3 2 2 2 > 6 !. X:.j a a a a a s a s d d d 3 6 I.T.(.^.^./.^././.)./.).).).).)./.).)./._.(./.(.(./.T.R.T.;.: 2 w `.oXOXOXOXOXOXOXOXOX|.|.|.|.|.|.|.|.|.|.|.|.|.|.|.|.|.|.|.|.OXOXOXOXOXOXOXOXOXOXOXOXOXOXOXOXOXOXOXOX|.|.|.|.|.|.|.|.|.|.|.|.|.|.|.|.|.|.|.|.",
"OXOXOXOXOXOXOXOXOXOXOXOXOXOXOXOXOXOXOXOX|.|.|.|.|.|.|.|.|.|.|.|.|.|.|.|.|.|.|.|.OXOXOXOXOXOXOXOXOXOXOXOXOXOXOXOXOXOXOXOX|.|.|.|.|.|.|.|.|.|.|.|.|.|.|.|.|.|.|.|.OXOXOXOXOXOXOXOXOXOXOXOXOXOXOXOXOXOXOXOX|.|.|.|.|.|.|.|.|.|.|.|..X|.|.|.|.|.|.|.OXOXOXOXOXOXOXOXOXOXoX|..X|..X.X].|.|.'._.'.^.J.F.F.F.F.K./.'._.).(.}././.(./.(.^.^.E.E.P.,.; 3 a d d d d d v d v v v v v d d s a a a p p p p 3 3 3 3 2 2 2 2 : ,.!._ s a a s a s a s s d d d a p _ I.E.^.^./.).)./.).).).).).).).).).).(.)././.(.(.^.(.^.T.T.H.w 6 I.oXOXOXOXOXOXOXOXOX|.|.|.|.|.|.|.|.|.|.|.|.|.|.|.|.|.|.|.|.OXOXOXOXOXOXOXOXOXOXOXOXOXOXOXOXOXOXOXOX|.|.|.|.|.|.|.|.|.|.|.|.|.|.|.|.|.|.|.|.",
"OXOXOXOXOXOXOXOXOXOXOXOXOXOXOXOXOXOXOXOX|.|.|.|.|.|.|.|.|.|.|.|.|.|.|.|.|.|.|.|.OXOXOXOXOXOXOXOXOXOXOXOXOXOXOXOXOXOXOXOX|.|.|.|.|.|.|.|.|.|.|.|.|.|.|.|.|.|.|.|.OXOXOXOXOXOXOXOXOXOXOXOXOXOXOXOXOXOXOXOX|.|.|.|.|.|.|.|.|.|.|.|. X X.X X.X.X.X|.oXoXoXXX|.|..X'.'..X|.'.'.)..X).'.'.'.'.'.'.)./.J.D.G.G.G.K./._.).(././././.^.^.^.^.E.E.P.T.w 2 a d d d d v h v h v v d v v d d s s a a a p p p p 3 3 p 2 3 2 2 6 _ n d s s s s s s a s s d d a p 2 ;.L.(././.(./.)._.).).).).).).).).).).).).).).(./.(.(.(.T.(.T.I.H.).oXOXOXOXOXOXOXOX|.|.|.|.|.|.|.|.|.|.|.|.|.|.|.|.|.|.|.|.OXOXOXOXOXOXOXOXOXOXOXOXOXOXOXOXOXOXOXOX|.|.|.|.|.|.|.|.|.|.|.|.|.|.|.|.|.|.|.|.",
"OXOXOXOXOXOXOXOXOXOXOXOXOXOXOXOXOXOXOXOX|.|.|.|.|.|.|.|.|.|.|.|.|.|.|.|.|.|.|.|.OXOXOXOXOXOXOXOXOXOXOXOXOXOXOXOXOXOXOXOX|.|.|.|.|.|.|.|.|._.|.|.|.|.|.|.|.|.|.|.OXOXOXOXOXOXOXOXOXOXOXOXOXOXOXOXOXOXOXOX|.|.|.|.|.|.|.|.|.|..X X`.`.!.`.'.'.|. X|..X.X.X X'.'.).^.E.). X'.'.'.'.'.'.).'.).).)././.K.G.J.G.D.J./.)./.(.^.^.(.E.^.E.E.E.P.P.P.N.5 a d v v h n n n n v m v v d d d s s s a a p p p p 3 3 2 3 2 2 : 2 3 k s s s s s s s s s d a a a 3 6 >.T./././././.).).).).).).).).).).).).).).).(.).).(./.(.E.R.T.P.P.T.).|.OXOXOXOXOXOX|.|.|.|.|.|.|.|.|.|.|.|.|.|.|.|.|.|.|.|.OXOXOXOXOXOXOXOXOXOXOXOXOXOXOXOXOXOXOXOX|.|.|.|.|.|.|.|.|.|.|.|.|.|.|.|.|.|.|.|.",
"OXOXOXOXOXOXOXOXOXOXOXOXOXOXOXOXOXOXOXOX|.|.|.|.|.|.|.|.|.|.|.|.|.|.|.|.|.|.|.|.OXOXOXOXOXOXOXOXOXOXOXOXOXOXOXOXOXOXOXOX|.|.|.|.|.|.|.|.|.|.|.|.|.|.|.|.|.|.|.|.OXOXOXOXOXOXOXOXOXOXOXOXOXOXOXOXOXOXOXOX|.|.|.|.|.|.|.|.|. X`.!.H.:.:.I.R.^.(.)._. X'. X.X'.|.(.)./.P.(.'.'.).).).).).).)./.)././.^.J.F.G.G.G.J./.).^.E.^.^.^.E.E.E.E.P.P.L.T.;.s v v v m m m m m m m n v v s d d s s a a a p p p 3 3 3 2 2 2 2 , p k k v s s s s s s a d a p 3 _ I.T.E././././._.(.).).)._.).).'.).).).).).).).).(.).(.)./.(.T./.E.^.P.E.^.'.oXOXOXOXOX|.|.|.|.|.|.|.|.|.|.|.|.|.|.|.|.|.|.|.|.OXOXOXOXOXOXOXOXOXOXOXOXOXOXOXOXOXOXOXOX|.|.|.|.|.|.|.|.|.|.|.|.|.|.|.|.|.|.|.|.",
"OXOXOXOXOXOXOXOXOXOXOXOXOXOXOXOXOXOXOXOX|.|.|.|.|.|.|.|.|.|.|.|.|.|.|.|.|.|.|.|.OXOXOXOXOXOXOXOXOXOXOXOXOXOXOXOXOXOXOXOX|.|.|.|.|.|.|.|.|.|.|.|.|.|.|.|.|.|.|.|.OXOXOXOXOXOXOXOXOXOXOXOXOXOXOXOXOXOXOXOX|.|.|.|.|.|.|.{.{.`.B.:.C N N K :.N.R.(./.).'.'.'. X'.).).(./.E.(._.).).(.(.).(./.(.^./.^.^.L.G.G.G.G.>.J.(.(.E.E.E.E.E.E.P.E.P.P.E.T.,.b n m m m m m m m m n v v v v v k d d s a a a p p 3 3 3 2 3 , , 3 l k d k k k s s d s d a p 5 ;.T.T.(.^././././.^.(.(.).).'.).).).).).).).).).)._./.).).(.(.(.E.(.^.E.E.P.P.E.).|.oXOXOX|.|.|.'.|.|.|.|.|.|.|.|.|.|.|.|.|.|.|.|.OXOXOXOXOXOXOXOXOXOXOXOXOXOXOXOXOXOXOXOX|.|.|.|.|.|.|.|.|.|.|.|.|.|.|.|.|.|.|.|.",
"OXOXOXOXOXOXOXOXOXOXOXOXOXOXOXOXOXOXOXOX|.|.|.|.|.|.|.|.|.|.|._.|.|.|.|.|.|.|.|.OXOXOXOXOXOXOXOXOXOXOXOXOXOXOXOXOXOXOXOX|.|.|.|.|.|.|.|.|.|.|.|.|.|.|.|.|.|.|.|.OXOXOXOXOXOXOXOXOXOXOXOXOXOXOXOXOXOXOXOX|.|.|.|.|.|. X{.T.<.K m B V V B N K ,.I.R.T.(.(.).).).).)._./.^.P.^.).(.^.!.^.^.(././.^.^.E.E.J.r G.>.;.6 N.(.^.E.E.E.P.E.P.P.P.P.T.H._ l n m Z Z Z m Z m m m m n v v v v v d d k a a p p 3 3 3 < 2 2 , a b k k k k k k k s s k j c ,.R.T.^.(.(././././.^.).).).).).).'.).).).).).).).(.).).)./.).(.(.(.(.T.^.E.E.P.P.P.E.'.oXOX|.|.|.|.|.|.|.|.|.|.|.|.|.|.|.|.|.|.|.|.OXOXOXOXOXOXOXOXOXOXOXOXOXOXOXOXOXOXOXOX|.|.|.|.|.|.|.|.|.|.|.|.|.|.|.|.|.|.|.|.",
"OXOXOXOXOXOXOXOXOXOXOXOXOXOXOXOXOXOXOXOX|.|.|.|.|.|.|.|.|.|.|.|.|.|.|.|.|.|.|.|.OXOXOXOXOXOXOXOXOXOXOXOXOXOXOXOXOXOXOXOX|.|.|.|.|.|.|.|.|.|.|.|.|.|.|.|.|.|.|.|.OXOXOXOXOXOXOXOXOXOXOXOXOXOXOXOXOXOXOXOX|.|.|.|.|. X{.R.:.B C A B V V V C C N K :.I.R.R.T.(.(.E.E.E.E.P.P.L./.(.^.^.^.(.^.E.^.T.^.E.E.I.>.w c 5 5 _ I.E.E.E.P.P.P.P.P.P.I.:._ j n V Z Z Z Z m m Z m m m v v v v v v v d d a a a p p 3 3 2 < 2 < k v k k k k k k k k d j ;.I.R.E.E.^././././././././././.).).).).).).).).).).).)././.)././.)./././.^.^.E.E.E.P.E.P.P./.|.|.|.|.|.|.|.|.|.|.|.|.|.|.|.|.|.|.|.|.|.OXOXOXOXOXOXOXOXOXOXOXOXOXOXOXOXOXOXOXOX|.|.|.|.|.|.|.|.|.|.|.|.|.|.|.|.|.|.|.|.",
"OXOXOXOXOXOXOXOXOXOXOXOXOXOXOXOXOXOXOXOX|.|.|.|.|.|.|.|.|.|.|.|.|.|.|.|.|.|.|.|.OXOXOXOXOXOXOXOXOXOXOXOXOXOXOXOXOXOXOXOX|.|.|.|.|.|.|.|.|.|.|.|.|.|.|.|.|.|.|.|.OXOXOXOXOXOXOXOXOXOXOXOXOXOXOXOXOXOXOXOX|.|.|.|..X X!.:.V Z A A A A A A V V V B N K :.:.N.I.I.R.T.T.T.I.K.K.K.T.(.E.^.E.E.E.^.E.T.E.L.T.:.6 a a a 5 ;.T.T.E.P.P.P.P.R.F.;.c k n Z m Z Z Z Z Z Z m m m m m n n v v v v d d s a a p p 3 3 2 2 , < b v k k k v v v v k s _ I.T.T.^.^.^.^./././././././.)././.).).).).).).).).).).)./.'./.).)./././.^.^.^.P.E.P.E.P.P.P.P./.|.|.|.|.|.|.|.|.|.|.|.|.|.|.|.|.|.|.|.|.OXOXOXOXOXOXOXOXOXOXOXOXOXOXOXOXOXOXOXOX|.|.|.|.|.|.|.|.|.|.|.|.|.|.|.|.|.|.|.|.",
"OXOXOXOXOXOXOXOXOXOXOXOXOXOXOXOXOXOXOXOX|.|.|.|.|.|.|.|.|.|.|.|.|.|.|.|.|.|.|.|.OXOXOXOXOXOXOXOXOXOXOXOXOXOXOXOXOXOXOXOX|.|.|.|.|.|.|.|.|.|.|.|.|.|.|.|.|.|.|.|.OXOXOXOXOXOXOXOXOXOXOXOXOXOXOXOXOXOXOXOX|.|.|.|. X!.:.C C A A A A A A A A A A V m C B N N N K _ :.:.,.N.I.F.H.T.(.^.E.E.T.E.E.E.^.E.P.T.N.5 a k k a 5 :.E.E.E.E.I.I.;.c l M B Z Z Z Z Z Z Z Z m V m m m v n v n v v v v d d a a p p 3 3 < , > p k v k v v v v v n v d _ R./.E.E.^.^.^./././././././././._.).).)././.^.E.P.L.K.J.J.K.K.L.P.E.E.^.^.^.^.^.E.E.P.E.E.P.P.P.)..X|.|.|.|.|.|.|.|.|.|.|.|.|.|.|.|.|.|.OXOXOXOXOXOXOXOXOXOXOXOXOXOXOXOXOXOXOXOX|.|.|.|.|.|.|.|.|.|.|.|.|.|.|.|.|.|.|.|.",
"OXOXOXOXOXOXOXOXOXOXOXOXOXOXOXOXOXOXOXOX|.|.|.|.|.|.|.|.|.|.|.|.|.|.|.|.|.|.|.|.OXOXOXOXOXOXOXOXOXOXOXOXOXOXOXOXOXOXOXOX|.|.|.|.|.|.|.|.|.|.|.|.|.|.|.|.|.|.|.|.OXOXOXOXOXOXOXOXOXOXOXOXOXOXOXOXOXOXOXOX|.|.|..X`.I.K C A A A A A A A A A A A A A V V V Z B V C l N x _ ;._ _ ;.T.T.E.E.E.E.E.E.E.E.P.L.I.c a v v k s c N.R.P.I.,._ c v B Z Z Z Z Z Z Z Z Z Z Z m Z m m m n m n m v v v d d s a a p 3 < , > , a k v k k v v n n n b k _ I.^.E.E.^.^.^.^.^./.^././././._././.E.K.J.F.r r e e q q q q q q e e r F.G.J.K.P.E.E.E.P.P.P.P.L.P.).|.|.|.|.|.|.|.|.|.|.|.|.|.|.|.|.|.|.OXOXOXOXOXOXOXOXOXOXOXOXOXOXOXOXOXOXOXOX|.|.|.|.|.|.|.|.|.|.|.|.|.|.|.|.|.|.|.|.",
"|.|.|.|.|.|.|.|.|.|.|.|.|.|.|.|.|.|.|.|.OXOXOXOXOXOXOXOXOXOXOXOXOXOXOXOXOXOXOXOX|.|.|.|.|.|.|.|.|.|.|.|.|.|.|.|.|.|.|.|.OXOXOXOXOXOXOXOXOXOXOXOXOXOXOXOXOXOXOXOX|.|.|.|.|.|.|.|.|.|.|.|.|.|.|.|.|.|.|.|.OXOXOXoX{.:.B A A A D D D D D D S A A A A A A Z A Z B B M M M z b l j c ,.T.E.E.P.P.P.P.P.P.U.K.I._ p d v v v k ;.N.N._ 5 x M V Z Z S Z Z Z Z Z Z Z m Z Z m m m m m m v n v v v d d s a p 3 3 2 > > < s k k v k v v n n n n v l ,.T.E.^.^.^.^.^.^.^././././.^.L.J.F.r q q q q q q q q q q q q q q q q q q q e r F.J.J.L.P.P.P.L.P./.oXOXOXOXOXOXOXOXOXOXOXOXOXOXOXOXOXOX|.|.|.|.|.|.|.|.|.|.|.|.|.|.|.|.|.|.|.|.OXOXOXOXOXOXOXOXOXOXOXOXOXOXOXOXOXOXOXOX",
"|.|.|.|.|.|.|.|.|.|.|.|.|.|.|.|.|.|.|.|.OXOXOXOXOXOXOXOXOXOXOXOXOXOXOXOXOXOXOXOX|.|.|.|.|.|.|.|.|.|.|.|.|.|.|.|.|.|.|.|.OXOXOXOXOXOXOXOXOXOXOXOXOXOXOXOXOXOXOXOX|.|.|.|.|.|.|.|.|.|.|.|.|.|.|.|.|.|.|.|.OXOXOX XB.K C A A D A D ' D D D D D D D A A A A A C V A V B B M n v s p 6 I.T.P.P.P.P.P.P.P.L.T.K._ j v v n m n b K c l b B Z Z Z Z Z Z Z Z Z Z Z Z Z m Z m Z m m m m m v m v v d d s a p p 3 < > > < s k k k k v v n n n n b z _ T.^.E.E.E.^.^.^./././.^.K.F.e q q e e e r e r r r r r r r r r r r r r r r r e e e e e F.J.L.L.L.P..XOXOXOXOXOXOXOXOXOXOXOXOXOXOXOXOXOX|.|.|.|.|.|.|.|.|.|.|.|.|.|.|.|.|.|.|.|.OXOXOXOXOXOXOXOXOXOXOXOXOXOXOXOXOXOXOXOX",
"|.|.|.|.|.|.|.|.|.|.|.|.|.|.|.|.|.|.|.|.OXOXOXOXOXOXOXOXOXOXOXOXOXOXOXOXOXOXOXOX|.|.|.|.|.|.|.|.|.|.|.|.|.|.|.|.|.|.|.|.OXOXOXOXOXOXOXOXOXOXOXOXOXOXOXOXOXOXOXOX|.|.|.|.|.|.|.|.|.|.|.|.|.|.|.|.|.|.|.|.OXOXoX X:.A C A A A D D D D D F D F D D D D D D A A A V V V V m n n k a 3 ;.T.P.P.P.U.L.L.L.L.L.T.;.j v n m Z m m B n M V Z Z Z Z Z Z Z Z Z Z Z Z Z Z Z Z m Z m m m m m m v v v d s s a p 3 3 , > , < s k k k v v b n n n n n b _ N.T.E.E.^.^.^.^.(.E.J.r q q e r F.F.F.F.G.F.F.G.J.J.K.L.P.L.P.L.L.L.K.J.G.G.F.F.F.r q * 4 r H.K.L.E.|.OXOXOXOXOXOXOXOXOXOXOXOXOXOXOXOX|.|.|.|.|.|.|.|.|.|.|.|.|.|.|.|.|.|.|.|.OXOXOXOXOXOXOXOXOXOXOXOXOXOXOXOXOXOXOXOX",
"|.|.|.|.|.|.|.|.|.|.|.|.|.|.|.|.|.|.|.|.OXOXOXOXOXOXOXOXOXOXOXOXOXOXOXOXOXOXOXOX|.|.|.|.|.|.|.|.|.|.|.|.|.|.|.|.|.|.|.|.OXOXOXOXOXOXOXOXOXOXOXOXOXOXOXOXOXOXOXOX|.|.|.|.|.|.|.|.|.|.|.|.|.|.|.|.|.|.|.|.OXOXoX!.K B V V A A D D ' F F F F F F F F F F D D D A A A V V V B M n s 3 5 ,.T.P.L.L.T.I.T.K.I.,._ s n m Z Z Z Z Z Z Z Z Z Z Z Z Z S Z Z Z Z Z Z Z Z Z m Z Z m Z m m m n v v v d s a a p 3 < , , , < a k k k v v v n n n n n b z :.U.^.E.E.^.^.E.J.e % = e r F.G.F.G.G.J.K.L.^.}./._.'.'.'.'.'.'.'._.).}.}.}.P.K.G.F.>.& @ + 4 F.H.K.).OXOXOXOXOXOXOXOXOXOXOXOXOXOXOXOX|.|.|.|.|.|.|.|.|.|.|.|.|.|.|.|.|.|.|.|.OXOXOXOXOXOXOXOXOXOXOXOXOXOXOXOXOXOXOXOX",
"|.|.|.|.|.|.|.|.|.|.|.|.|.|.|.|.|.|.|.|.OXOXOXOXOXOXOXOXOXOXOXOXOXOXOXOXOXOXOXOX|.|.|.|.|.|.|.|.|.|.|.|.|.|.|.|.|.|.|.|.OXOXOXOXOXOXOXOXOXOXOXOXOXOXOXOXOXOXOXOX|.|.|.|.|.|.|.|.|.|.|.|.|.|.|.|.|.|.|.|.OXoX{.,.' C V V A A A D S F F  . . . . .F F F F S D S D D A A V V Z m n k j _ I.T.K.I.H.,.,._ _ c j v m Z Z Z Z Z Z Z Z Z Z Z Z Z Z Z Z Z Z Z Z Z Z m Z Z m Z m m m m v n v v d s k a p 3 < < < , , < s s k k k v v n n n n n n v _ I.T.^.^.P.K.r & @ @ : ;.G.G.D.G.J.P./.).).'.'.'.'.'.'.'.'.'.'.'.'.'..X'.'.'.).(.E.T.;.6 : : w T.(.|.OXOXOXOXOXOXOXOXOXOXOXOXOXOXOXOX|.|.|.|.|.|.|.|._.|.|.|.|.|.|.|.|.|.|.|.OXOXOXOXOXOXOXOXOXOXOXOXOXOXOXOXOXOXOXOX",
"|.|.|.|.|.|.|.|.|.|.|.|.|.|.|.|.|.|.|.|.OXOXOXOXOXOXOXOXOXOXOXOXOXOXOXOXOXOXOXOX|.|.|.|.|.|.|.|.|.|.|.|.|.|.|.|.|.|.|.|.OXOXOXOXOXOXOXOXOXOXOXOXOXOXOXOXOXOXOXOX|.|.|.|.|.|.|.|.|.|.|.|.|.|.|.|.|.|.|.|.OXoX!.:.V A V A A A A D S S F F  . .F  . . .F D F F F D D S D S A A V B m b G :._ _ _ c 5 5 j l l b m Z Z Z Z Z Z Z Z Z Z Z Z Z Z Z Z Z Z Z Z Z Z Z Z Z m Z Z Z m m m n v v v d s a a p 3 < < , < , , p s k k k k v b n n n M n n N :.R.T.L.>.6 @ - 2 2 6 w >.J.J.E.).).).'.'.'.'.'.'.'.'.'.'.'._.{.'.'.).'..X'.'.'.).).T.I.>.6 6 F.{.OXOXOXOXOXOXOXOXOXOXOXOXOXOXOXOXOX|.|.|.|.|.|.|.|.|.|.|.|.|.|.|.|.|.|.|.|.OXOXOXOXOXOXOXOXOXOXOXOXOXOXOXOXOXOXOXOX",
"|.|.|.|.|.|.|.|.|.|.|.|.|.|.|.|.|.|.|.|.OXOXOXOXOXOXOXOXOXOXOXOXOXOXOXOXOXOXOXOX|.|.|.|.|.|.|.|.|.|.|.|.|.|.|.|.|.|.|.|.OXOXOXOXOXOXOXOXOXOXOXOXOXOXOXOXOXOXOXOX|.|.|.|.|.|.|.|.|.'.|.|.|.|.|.|.|.|.|.|.OXXXB.G C V V A A A D A F F F F  . . .F F  .F  .F F F D F D D D S A A V V B B n N l l z b B M B B B Z Z Z Z Z Z Z Z Z Z Z Z Z Z Z Z Z Z Z Z Z Z Z Z Z Z Z Z m Z m m n n v v d s s a p 3 < < < , < < , p s k k k v v n b n n n n n z _ H.N.w : ; > 2 p p 5 w H.P./.).).).).'.'.'.'.'.'.'.'.'.'.'.'.'.'.'.'.).).'.'.)._.).).).T.T.,.;.T.XXOXOXOXOXOXOXOXOXOXOXOXOXOXOXOXOX|.|.|.|.|.|.|.|.|.|.|.|.|.|.|.|.|.|.|.|.OXOXOXOXOXOXOXOXOXOXOXOXOXOXOXOXOXOXOXOX",
"|.|.|.|.|.|.|.|.|.|.|.|.|.|.|._.|.|.|.|.OXOXOXOXOXOXOXOXOXOXOXOXOXOXOXOXOXOXOXOX|.|.|.|.|.|.|.|.|.|.|.|.|.|.|.|.|.|.|.|.OXOXOXOXOXOXOXOXOXOXOXOXOXOXOXOXOXOXOXOX|.|.|.|.|.|.|.|.|.|.|.|.|.|.|.|.|.|.|..XOX X<.N C V A V A A A A F S F S  .F  . . . .F F F F D F F D D D S S A A A A V V V B V A V m V V Z Z Z Z Z Z Z Z Z S Z Z S Z S Z S Z Z Z Z Z Z Z Z Z Z Z m Z Z m m m n v v k s s a p 3 < 1 , < < 1 1 < p s k k k v b n n n n n M n M x _ 6 2 ; 2 p a k j _ N.T././.(./.).).).'.).'.'.).'.'.).)./.(.^.E.^.E.E.^./././.)._.).).(.(.!.R.I.{.oXOXOXOXOXOXOXOXOXOXOXOXOXOXOXOX|.|.|.|.|.|.|.|.|.|.|.|.|.|.|.|.|.|.|.|.OXOXOXOXOXOXOXOXOXOXOXOXOXOXOXOXOXOXOXOX",
"|.|.|.|.|.|.|.|.|.|.|.|.|.|.|.|.|.|.|.|.OXOXOXOXOXOXOXOXOXOXOXOXOXOXOXOXOXOXOXOX|.|.|.|.|.|.|.|.|.|.|.|.|.|.|.|.|.|.|.|.|.OXOXOXOXOXOXOXOXOXOXOXOXOXOXOXOXOXOXOX|.|.|.|.|.|.|.|.|.|.|.|.|.|.|.|.|.|.|..X XR.K n V V A V A A D A S F F F  .F  .F  .F F F F F F D D F D D D D D S S A A A A C S Z Z V V V V Z V Z V Z Z S Z Z S Z S Z S Z Z Z Z Z Z Z Z Z Z m Z Z m m m m n n v v v k s a a p 3 1 , < < < 1 < < p s k k k v v v b n n n n M n b l p p p a k k l :.R.T./.).(.(.}.).).).).).).).(.^.^.^.(.E.(.(.).).'.'. X_.).'._.'.'.).).)./.(.(.).'.oXOXOXOXOXOXOXOXOXOXOXOXOXOXOX|.|.|.|.|.|.|.|.|.|.|.|.|.|.|.|.|.|.|.|.OXOXOXOXOXOXOXOXOXOXOXOXOXOXOXOXOXOXOXOX",
"|.|.|.|.|.|.|.|.|.|.|.|.|.|.|.|.|.|.|.|.OXOXOXOXOXOXOXOXOXOXOXOXOXOXOXOXOXOXOXOX|.|.|.|.|.|.|.|.|.|.|.|.|.|.|.|.|.|.|.|.OXOXOXOXOXOXOXOXOXOXOXOXOXOXOXOXOXOXOXOX|.|.|.|.|.|.|.|.|.|.|.|.|.|.|.|.|.|.|.{.`.,.N B V V V A A A A D S  .F F  .F  . .F  .F F F F S F D D D D D S D D S S S S S A S S S S S Z S S S S S S S Z S S S S S S S S S Z Z Z Z Z Z m Z Z m Z m m m n n v v v k s a a p 3 1 < < < < < t 1 < 3 s k k k k b v n n z n n n M n b k k k k k x ,.R.R.(./.(.(./.(.(.(.(.)./.^.(.(.'. X[.'.'.!.`.R.!.R.!.R.R.R.R.R.R.R.R.R.R.!.T.T.T.^.(.{.oXOXOXOXOXOXOXOXOXOXOXOXOX|.|.|.|.|.|.|.|.|.|.|.|.|.|.|.|.|.|.|.|.OXOXOXOXOXOXOXOXOXOXOXOXOXOXOXOXOXOXOXOX",
"|.|.|.|.|.|.|.|.|.|.|.|.|.|.|.|.|.|.|.|.OXOXOXOXOXOXOXOXOXOXOXOXOXOXOXOXOXOXOXOX|.|.|.|.|.|.|.|.|.|.|.|.|.|.|.|.|.|.|.|.OXOXOXOXOXOXOXOXOXOXOXOXOXOXOXOXOXOXOXOX|.|.|.|.|.|.|.|.|.|.|.|.|.|.|.|.|.|. X`._ b m B B B V A A A A D S F F  . . . . .F F F F F S F F D D D F S D D D S S S A S S S S S S S S S S Z S S S S S S S S S S S Z S S Z Z Z Z Z Z Z m Z m m m n n v v v k k s a a p 1 < < < , , < 1 t 1 , 3 s s k k k v v n b n n n M n n M n M n b _ N.R.T.(.T./././.).).).(.E.P.P.^.!.`.`.!.R.(.R.I.I.I.N.<.:._ _ K G N K K _ _ _ :.:.:.:.,.I.R.`. XoXOXOXOXOXOXOXOXOXOXOX|.|.|.|.|.|.|.|.|.|.|.|.|.|.|.|.|.|.|.|.OXOXOXOXOXOXOXOXOXOXOXOXOXOXOXOXOXOXOXOX",
"|.|.|.|.|.|.|.|.|.|.|.|.|.|.|.|.|.|.|.|.OXOXOXOXOXOXOXOXOXOXOXOXOXOXOXOXOXOXOXOX|.|.|.|.|.|.|.|.|.|.|.|.|.|.|.|.|.|.|.|.OXOXOXOXOXOXOXOXOXOXOXOXOXOXOXOXOXOXOXOX|.|.|.|.|.|.|.|.|.|.|.|.|.|.|.|.|..X{.I.c d v M B B V A A A A A S F F F F S  .F  .F F D F F F S D D S D D S D S D S S S S S S S S S S S S S S S S S S S S S S S S S S S S Z S Z Z Z m Z m m m m n v v v k k k s a a p 1 < < 1 , < < < 1 t 1 < < a s k k k k b n n n n M n n M n m M k N I.R././.E.^.(.(.(./.T.T.H.H.R.I.I.,.,.:.:.:.:._ K K m N N B V B B B B M n n C N k k k z x x _ :.R.`.oXoXOXOXOXOXOXOXOXOX|.|.|.|.|.|.|.|.|.|.|.|.|.|.|.|.|.|.|.|.OXOXOXOXOXOXOXOXOXOXOXOXOXOXOXOXOXOXOXOX",
"|.|.|.|.|.|.|.|.|.|.|.|.|.|.|.|.|.|.|.|.OXOXOXOXOXOXOXOXOXOXOXOXOXOXOXOXOXOXOXOX|.|.|.|.|.|.|.|.|.|.|.|.|.|.|.|.|.|.|.|.OXOXOXOXOXOXOXOXOXOXOXOXOXOXOXOXOXOXOXOX|.|.|.|.|.|.|.|.|.|.|.|.|.|.|.|.|..X`.,.3 y d v n m V V A A A A F F F F F F F F F F F S D S S F S D D S D S S S S S S S S S S D S D S S S S S S S S S S S S S S S S S S m A Z Z m Z Z m m n n v v v k k k s s a s p t < 1 < < < < < < t t t < < a s k k k v v n b n n n n M n M n b _ I.R.T./.^.^.^./.(.^.U.,._ ;.:._ K N N N C N C B C C B C B V V V B B B B B M M M M M b b b b l l x l :.R. XOXOXOXOXOXOXOXOX|.|.|.|.|.|.|.|.|.|.|.|.|.|.|.|.|.|.|.|.OXOXOXOXOXOXOXOXOXOXOXOXOXOXOXOXOXOXOXOX",
"|.|._.|.|.|.|.|.|.|.|.|.|.|.|.|.|.|.|.|.OXOXOXOXOXOXOXOXOXOXOXOXOXOXOXOXOXOXOXOX|.|.|.|.|.|.|.|.|.|.|.|.|.|.|.|.|.|.|.|.OXOXOXOXOXOXOXOXOXOXOXOXOXOXOXOXOXOXOXOX|.|.|.|.|.|.|.|.|.|.|.|.|.|.|.|.|..X`.:.3 y u d v n m Z V A A D S F F F F F F F F D S D S D S S A A S D S S S S S S S S S S D S S S D S D S D S D S F S S S S S S S S A S Z Z Z V m m n n n v v k k k s s s s a p t 1 1 < 1 < < < < < t t < < , a s k k k k b v n n b n n n n m M M <.R.(.^.^.^.^.^.(.P.F.;.c l b N B m B V V V V V V V V A A A A V V V V V V V B B M B M M M M b b b b l n _ H.`.oXoXOXOXOXOXOX|.|..X|.|.|.|.|.|.|.|.|.|.|.|.|.|.|.|.|.OXOXOXOXOXOXOXOXOXOXOXOXOXOXOXOXOXOXOXOX",
"|.|.|.|.|.|.|.|.|.|.|.|.|.|.|.|.|.|.|.|.OXOXOXOXOXOXOXOXOXOXOXOXOXOXOXOXOXOXOXOX|.|.|.|.|.|.|.|.|.|.|.|.|.|.|.|.|.|.|.|.OXOXOXOXOXOXOXOXOXOXOXOXOXOXOXOXOXOXOXOX|.|.|.|.|.|.|.|.|.|.|.|.|.|.|.|.|..X`.;.t u u u d v n m m Z V S S S F F F F S D S S D S S A A A A S A A A A A A A A S S S S S S D S S S S S S S S S S S S S S S S Z S Z m V m m m n n n v v v k k k s s s s a a t < 1 t < < < < < , < t t t < < p s s k k k b b v n n b n n M n M z _ I.T./.^.^.E.P.J.;.5 5 l M B B B V V V A A A A A A A A A A A A A A V V V V B B B B M M M M b b b b l l l x :.!.oXOXOXOXOXOX|.|.|.|.|.|.|.|.|.|.|.|.|.|.|.|.|.|.|.|.OXOXOXOXOXOXOXOXOXOXOXOXOXOXOXOXOXOXOXOX",
"|.|.|.|.|.|.|.|.|.|.|.|.|.|.|.|.|.|.|.|.OXOXOXOXOXOXOXOXOXOXOXOXOXOXOXOXOXOXOXOX|.|.|.|.|.|.|.|.|.|.|.|.|.|.|.|.|.|.|.|.OXOXOXOXOXOXOXOXOXOXOXOXOXOXOXOXOXOXOXOX|.|.|.|.|.|.|.|.|.|.|.|.|.|.|.|.|.{.!._ y u u u y u d v n m V V S S S F S S D S D S D S V S V V m A m A Z A V S V S A A A S S S S S S S S S S S S S S S S S S S A m Z Z B m m n n n v v v v k k k s s s s a a p 1 < 1 < 1 < < , < < < y t t , < 3 s s k k k k k v b n n b n n n m M G _ R.T.^.E.T.H.6 2 a z m B V V V V A A A A A A A A A A S D D A A A A A A V V V B B B B M M n b b b b l l l c _ !.oXoXOXOXOX|.|.|.|.|.|.|.|.|.|.|.|.|.|.|.|.|.|.|.|.OXOXOXOXOXOXOXOXOXOXOXOXOXOXOXOXOXOXOXOX",
"|.|.|.|.|.|.|.|.|.|.|.|.|.|.|.|.|.|.|.|.OXOXOXOXOXOXOXOXOXOXOXOXOXOXOXOXOXOXOXOX|.|.|.|.|.|.|.|.|.|.|.|.|.|.|.|.|.|.|.|.OXOXOXOXOXOXOXOXOXOXOXOXOXOXOXOXOXOXOXOX|.|.|.|.|.|.|.|.|.|.|.|.|.|.|.|.|.{.R.c y i i i i u i i d v v m S S S S S F S S S S S Z V A m A Z Z Z Z A Z A m V m V V S A S S A S S S S S V V V Z A m Z Z Z Z Z m m m m n n n v v v v k k k k s s s k a a p < t < < < < < < , < < < y t t < < 3 a s s k k k b v v n b n b n M n M b x _ I.R.R.;.6 2 j b M B V V V V A A A A A A D D D S D D D D D D A A A A C V V B B B B B M M b b b b l l l a c _ !.oXoXOXOX|.|.|.|.|.|.|.|.|.|.|.|.|.|.|.|.|.|.|.|.OXOXOXOXOXOXOXOXOXOXOXOXOXOXOXOXOXOXOXOX",
"|.|.|.|.|.|.|.|.|.|.|.|.|.|.|.|.|.|.|.|.OXOXOXOXOXOXOXOXOXOXOXOXOXOXOXOXOXOXOXOX|.|.|.|.|.|.|.|.|.|.|.|.|.|.|.|.|.|.|.|.OXOXOXOXOXOXOXOXOXOXOXOXOXOXOXOXOXOXOXOX|.|.|.|.|.|.|.|.|.|.|.|.|.|.|.|.|.{.R.c y i i i i i i i u u u f g m m Z S S S S S S V Z m Z Z V Z m Z B m m m m C Z A Z A m A Z V V V V V A V Z m Z Z Z Z m m m m m n n v n v v v v k k k k k s s s s a a p < 1 t < 1 < 1 , < < > < 1 t t t < < < a s k s k k k b v b n b n M M n M M M x _ :.c 5 j l b B B V V V V A A A A D D D D D D S F F D F D D D D A A A V V A B B B B M M M b z b l k l l j c ,.`.oXOXOX|.|.|.|.|.|.|.|.|.|.|.|.|.|.|.|.|.|.|.|.OXOXOXOXOXOXOXOXOXOXOXOXOXOXOXOXOXOXOXOX",
"|.|.|.|.|.|.|.|.|.|.|.|.|.|.|.|.|.|.|.|.OXOXOXOXOXOXOXOXOXOXOXOXOXOXOXOXOXOXOXOX|.|.|.|.|.|.|.|.|.|.|.|.|.|.|.|.|.|.|.|.OXOXOXOXOXOXOXOXOXOXOXOXOXOXOXOXOXOXOXOX|.|.|.|.|.|.|.|.|.|.|.|.|.|.|.|.|.{.I.f y i i i i i i i u u i u u i f d v n m m Z m Z Z Z Z m Z m B m m m C m B m m m Z m B Z Z Z Z Z Z Z Z Z Z B m m m m n m n n n v v v v v v k k k k s s s s s s a a 3 < < 1 1 < < < < < < < , < < t t t t < < p s s s k l k k b v b b n M n M B m M b l x j l b M B B B V V V A A A A D D D D F F F F F F F F F F F D D D D A V C B B B M M M M b b b l l l l j j c I.OXOXOX|.|.|.|.|.|.|.|.|.|.|.|.|.|.|.|.|.|.|.|.OXOXOXOXOXOXOXOXOXOXOXOXOXOXOXOXOXOXOXOX",
"|.|.|.|.|.|.|.|.|.|.|.|.|.|.|.|.|.|.|.|.OXOXOXOXOXOXOXOXOXOXOXOXOXOXOXOXOXOXOXOX|.|.|.|.|.|.|.|.|.|.|.|.|.|.|.|.|.|.|.|.OXOXOXOXOXOXOXOXOXOXOXOXOXOXOXOXOXOXOXOX|.|.|.|.|.|.|.|.|.|.|.|.|.|.|.|.|.{.I.a u i i f i f i i i i i i i u i i i u f d d v v v n n m n m m m B m B m B m B m B m m m M B m m B m M m m m n n n n n n v v v v v k k k k k s s s s s s k a a p t < < < < < < < < < < , , , > < t t t 1 < , p s s s s s k k k v b b n n M M n M n B n b b M B B B B V V V V A A A D D D F F F F F  . . .F  . .F F F F D D A A V B B B B M M b b z b b l k l j j 5 ;. XOXOX|.|.|.|.|.|.|.|.|.|.|.|.|.|.|.|.|.|.|.|.OXOXOXOXOXOXOXOXOXOXOXOXOXOXOXOXOXOXOXoX",
"OXOXOXOXOXOXOXOXOXOXOXOXOXOXOXOXOXOXOXOX|.|.|.|.|.|.|.|.|.|.|.|.|.|.|.|.|.|.|.|.OXOXOXOXOXOXOXOXOXOXOXOXOXOXOXOXOXOXOXOX|.|.|.|.|.|.|.|.|.|.|.|.|.|.|.|.|.|.|.|.OXOXOXOXOXOXOXOXOXOXOXOXOXOXOXOXOX X,.y u i i i i i i i i i i i i i i i i i u u u u u u a d d v v n n n m m m m m m M m M m M m n n m n n m n n n n n v v v v v v v k k k k k s d s s s k s p a p 3 < < < < , , 1 < < < , < < , , , < t t t 1 1 < 3 a s s s k k l k b b n n M n M M m M m M B B B B B V V V V C S D D S F S S F F  . .F  . . . .F F  .F F F D D A A C V B B B M M z M b b b l l l l j 5 c T. X|.OXOXOXOXOXOXOXOXOXOXOXOXOXOXOXOXOXOXOXOX|.|.|.|.|.|.|.|.|.|.|.|.|.|.|.|.|.|.|.|.",
"OXOXOXOXOXOXOXOXOXOXOXOXOXOXOXOXOXOXOXOX|.|.|.|.|.|.|.|.|.|.|.|.|.|.|.|.|.|.|.|.OXOXOXOXOXOXOXOXOXOXOXOXOXOXOXOXOXOXOXOX|.|.|.|.|.|.|.|.|.|.|.|.|.|.|.|.|.|.|.|.OXOXOXOXOXOXOXOXOXOXOXOXOXOXOXOXOX X:.u u i i i i i i i i i i i i i i i i i u u u y y y y t t y y a d d v v n M n M n M n n n n n n n n n n v v v v v v v k k k v k k k k s d s s s a a a a p 1 < < < , , < < 1 < < , < < < , , > , , 1 t t 1 < < < p a s s s s k k k v b b n n n M M m M B B B B B V B B V V V V S S S F F F F F  . . . . . . . . . .F F F S ' D A A A B B B M M b b z b b l l l j j j c :.{..XOXOXOXOXOXOXOXOXOXOXOXOXOXOXOXOXOXOXOXOX|.|.|.|.|.|.|.|.|.|.|.|.|.|.|.|.|.|.|.|.",
"OXOXOXOXOXOXOXOXOXOXOXOXOXOXOXOXOXOXOXOX|.|.|.|.|.|.|.|.|.|.|.|.|.|.|.|.|.|.|.|.OXOXOXOXOXOXOXOXOXOXOXOXOXOXOXOXOXOXOXOX|.|.|.|.|.|.|.|.|.|.|.|.|.|.|.|.|.|.|.|.OXOXOXOXOXOXOXOXOXOXOXOXOXOXOXOXOX{.;.u u i i i i i i i i i i i i i i i i u u u u u u y y t t t 1 1 1 t t a a k k k v n n b n b n v v v v v v v v k v k k k k k s k s s s a k a a a a p 3 1 1 , < < , , , , , < , < < < < , , > > > , t 1 1 1 < , < p a s s s k k l k b k v n M M M M M M m B B B B B B V V V V V A S S S S F F F  . .F  . . . . . .S  .F F F D D A A C B B B M M z b b b l l l l j j j 5 _ `..XOXOXOXOXOXOXOXOXOXOXOXOXOXOXOXOXOXOXOXOX|.|.|.|.|.|.|.|.|.|.|.|.|.|.|.|.|.|.|.|.",
"OXOXOXOXOXOXOXOXOXOXOXOXOXOXOXOXOXOXOXOX|.|.|.|.|.|.|.|.|.|.|.|.|.|.|.|.|.|.|.|.OXOXOXOXOXOXOXOXOXOXOXOXOXOXOXOXOXOXOXOX|.|.|.|.|.|.|.|.|.|.|.|.|.|.|.|.|.|.|.|.OXOXOXOXOXOXOXOXOXOXOXOXOXOXOXOXoX`.s u i i i i i i i i i i i i i i i i i i u u u u y y y t t 1 1 1 < < < < < t t a a s k k v b v k v v k k k k k k k k d s s s s s a s a a p a p t t < 1 < < 1 < , , , , , < < < < < , , , , > > > , < 1 1 t < < < 3 p a s s s k k k k b b b M n M M m B B B B B B B B B V C V V A S S S F F F  . . . . . .F  . .F  .F F F F D D A A A B B B N M M b b z b l l l l j p a c I. XOXOXOXOXOXOXOXOXOXOXOXOXOXOXOXOXOXOXOXOX|.|.|.|.|.|.|.|.|.|.|.|.|.|.|.|.|.|.|.|.",
"OXOXOXOXOXOXOXOXOXOXOXOXOXOXOXOXOXOXOXOX|.|.|.|.|.|.|.|.|.|.|.|.|.|.|.|.|.|.|.|.OXOXOXOXOXOXOXOXOXOXOXOXOXOXOXOXOXOXOXOX|.|.|.|.|.|.|.|.|.|.|.|.|.|.|.|.|.|.|.|.OXOXOXOXOXOXOXOXOXOXOXOXOXOXOXOXOX!.s u i i i i i i i i i i i i i i i i i u u u u u u y y t t t 1 1 1 1 1 t < < < 1 < 3 p a s k k k k k k k k k k k k s s s s s s a a a p p 1 < < < 1 < < , , , , > , , , , , < < , < , , , > > > > ; < 1 1 1 , < , , p a s s s j k k k k v b M M M M M B M B B B B B B V B V V V A A A S  .F F F  . . . . . . . . .F F F F D F A A A C B B M M M z b b b l l l l j j j j c ,.`.oXOXOXOXOXOXOXOXOXOXOXOXOXOXOXOXOXOXOXOX|.|.|.|.|.|.|.|.|.|.|.|.|.|.|.|.|.|.|.|.",
"OXOXOXOXOXOXOXOXOXOXOXOXOXOXOXOXOXOXOXOX|.|.|.|.|.|.|.|.|.|.|.|.|.|.|.|.|.|.|.|.OXOXOXOXOXOXOXOXOXOXOXOXOXOXOXOXOXOXOXOX|.|.|.|.|.|.|.|.|.|.|.|.|.|.|.|.|.|.|.|.OXOXOXOXOXOXOXOXOXOXOXOXOXOXOXOXoXR.a u i i i i i i i i i i i i i i u i u u u u u y y y t t t t 1 1 1 1 1 < 1 < < , < < < < p p a s s s s k k k s k s s a a a a a p p 1 < < 1 < < < , < < < , , , > > , > , < < < < < , , , > > > ; , < 1 1 < < < , < 3 p a s s s k s k k k b b M M M M M M B B B B B B V B V B V A A A S F F F F  . . . . . . . .F  .F F F F D F A A V B B M M M b b b l b b l l l j j j 5 ;.!.OXOXOXOXOXOXOXOXOXOXOXOXOXOXOXOXOXOXOXOX|.|.|.|.|.|.|.|.|.|.|.|.|.|.|.|.|.|.|.|.",
"OXOXOXOXOXOXOXOXOXOXOXOXOXOXOXOXOXOXOXOX|.|.|.|.|.|.|.|.|.|.|.|.|.|.|.|.|.|.|.|.OXOXOXOXOXOXOXOXOXOXOXOXOXOXOXOXOXOXOXOX|.|.|.|.|.|.|.|.|.|.|.|.|.|.|.|.|.|.|.|.OXOXOXOXOXOXOXOXOXOXOXOXOXOXOXOXoXI.p u i i i i i i i i i i i i i i i u u u u u y y y y t t t t 1 1 1 1 1 1 < 1 1 , , < < < < < 3 p a s s s s s s s s a a p p t 1 1 < 1 < , < < , , , , , , , , > > , , , , , , < , , , , > > > ; ; ; , < 1 < < < , < , 3 p a s s s s k k k b n M b M M M M M M B B B B B B V V V A A A S F S  . . . .F  . . . . . .F F F F A D A A A C B B M M b z b z b l l l l j j j j 5 c R.oXOXOXOXOXOXOXOXOXOXOXOXOXOXOXOXOXOXOXOX|.|.|.|.|.|.|.|.|.|.|.|.|.|.|.|.|.|.|.|.",
"OXOXOXOXOXOXOXOXOXOXOXOXOXOXOXOXOXOXOXOX|.|.|.|.|.|.|.|.|.|.|.|.|.|.|.|.|.|.|.|.OXOXOXOXOXOXOXOXOXOXOXOXOXOXOXOXOXOXOXOX|.|.|.|.|.|.|.|.|.|.|.|.|.|.|.|.|.|.|.|.OXOXOXOXOXOXOXOXOXOXOXOXOXOXOX|.OXI.p u i i i i i i i i i i i i i i i i i u u u y y y y y t t t 1 1 1 1 1 1 < < < 1 , < , , , , , , 3 p p p p p p p p 3 t < < 1 < , < , < , , , , , , , , , , , > > , , , , , < , , , , > > > > ; > ; , 1 t < < , , < < < 3 a a s s l s k k b b b M n M M M B M n B B B V B V V V A A A F F F S  . . . . . . .F  . . .F F F F ' D A A V B B M M M b b b b b l l l l j j a 5 c ,.oXOXOXOXOXOXOXOXOXOXOXOXOXOXOXOXOXOXOXOX|.|.|.|.|.|.|.|.|.|.|.|.|.|.|.|.|.|.|.|.",
"OXOXOXOXOXOXOXOXOXOXOXOXOXOXOXOXOXOXOXOX|.|.|.|.|.|.|.|.|.|.|.|.|.|.|.|.|.|.|.|.OXOXOXOXOXOXOXOXOXOXOXOXOXOXOXOXOXOXOXOX|.|.|.|.|.|.|.|.|.|.|.|.|.|.|.|.|.|.|.|.OXOXOXOXOXOXOXOXOXOXOXOXOXOXOXOXoXR.p u i i i f i i i i i i i i i i i u u u u u y u y t t t t 1 1 1 1 1 1 1 < 1 < < < < < > , , , > > > , < < < < < 1 < < , < , < , < , , , , , , , , , , , , , , > , , , , , < , , , , > > , ; ; ; ; , 1 1 < < , , < < < < p a a s s s l k k b b b n M M M M B B B B B B V V V V A A A D F F F  . . . . . . . . .F F F F F D D D A A C B B M b b z b b l b l l l j j j j 5 5 ;. XOXOXOXOXOXOXOXOXOXOXOXOXOXOXOXOXOXOXOX|.|.|.|.|.|.|.|.|.|.|.|.|.|.|.|.|.|.|.|.",
"OXOXOXOXOXOXOXOXOXOXOXOXOXOXOXOXOXOXOXOX|.|.|.|.|.|.|.|.|.|.|.|.|.|.|.|.|.|.|.|.OXOXOXOXOXOXOXOXOXOXOXOXOXOXOXOXOXOXOXOX|.|.|.|.|.|.|.|.|.|.|.|.|.|.|.|.|.|.|.|.OXOXOXOXOXOXOXOXOXOXOXOXOXOXOXOXOX`._ u u i i f i i i i i i i i i i i i u u u u y y y y y t t t 1 1 1 1 1 1 1 < 1 < < , , , , , , > > ; > > , , , < , < < < < , < , , , , , , , , , , , , , , , > > , , , , , < , , , , , > > ; ; ; ; > 1 < < < , , < , < < < p a s s s s l k b b b b M M M M M B B B B V B V V V A A A D F F F  . .F  . .F F  . . .F F F D D D A A A A B M M b b b b b b l l l j j j j 5 p c 6 `.oXOXOXOXOXOXOXOXOXOXOXOXOXOXOXOXOXOXOX|.|.|.|.|.|.|.|.|.|.|.|.|.|.|.|.|.|.|.|.",
"OXOXOXOXOXOXOXOXOXOXOXOXOXOXOXOXOXOXOXOX|.|.|.|.|.|.|.|.|.|.|.|.|.|.|.|.|.|.|.|.OXOXOXOXOXOXOXOXOXOXOXOXOXOXOXOXOXOXOXOX|.|.|.|.|.|.|.|.|.|.|.|.|.|.|.|.|.|.|.|.OXOXOXOXOXOXOXOXOXOXOXOXOXOXOXOXOXoXI.c y u i i i i i i i i i i i i u u u u u u y u t y t t t t 1 1 1 1 1 1 < < < < < < , , , , > > > ; ; ; > , , , , , , , , , , , , , , , , , , , , , , , , , > , , , , , , < , , , , > > , ; ; ; - ; < 1 < < , , < < < < < < p a s j s k k b b b M b M M M M B B B B B B V V V A V A D D F F  . . . . . .F  . .F F F D D D A A A V B B M M b b b l l l l j s j a p p 3 5 2 6 I.oXOXOXOXOXOXOXOXOXOXOXOXOXOXOXOXOXOXOX|.|.|.|.|.|.|.|.|.|.|.|.|.|.|.|.|.|.|.|.",
"OXOXOXOXOXOXOXOXOXOXOXOXOXOXOXOXOXOXOXOX|.|.|.|.|.|.|.|.|.|.|.|.|.|.|.|.|.|.|.|.OXOXOXOXOXOXOXOXOXOXOXOXOXOXOXOXOXOXOXOX|.|.|.|.|.|.|.|.|.|.|.|.|.|.|.|.|.|.|.|.OXOXOXOXOXOXOXOXOXOXOXOXOXOXOXOXOXoX{.I.c p y u u i i i i i i i i i u i u u y u y y y t y t t t 1 1 1 1 1 1 < 1 1 < < , , , , , > > ; ; ; ; > , , , , , , , , , , , , , , , , , , , , , , , , , > , , , , , , , , > > > ; ; ; : : 6 6 _ c 2 < < , , , < < 1 , < 3 p a s s l k k b b b n M M M M M M B B V B B V V V V A A D D F F S  . . . . . .F F S S S S A A V V B B M b b k k k s s s a a a p p p 3 3 3 2 2 ;.{.oXOXOXOXOXOXOXOXOXOXOXOXOXOXOXOXOXOX|.|.|.|.|.|.|.|.|.|.|.|.|.|.|.|.|.|.|.|.",
"OXOXOXOXOXOXOXOXOXOXOXOXOXOXOXOXOXOXOXOX|.|.|.|.|.|.|.|.|.|.|.|.|.|.|.|.|.|.|.|.OXOXOXOXOXOXOXOXOXOXOXOXOXOXOXOXOXOXOXOX|.|.|.|.|.|.|.|.|.|.|.|.|.|.|.|.|.|.|.|.OXOXOXOXOXOXOXOXOXOXOXOXOXOXOXOXOXOXOX XR.:.c p t u u u i i i i i i u u u u u y y y y t y t t t 1 1 1 1 1 < < < , < < < , , , , > > ; ; ; ; > , , , , , , , , , , , , , , , , , , , , , , , , , > , , , > > > ; 2 ; ; : 6 6 ;.H.T.^.).`.I.c < < < , , < < < < < < 3 a a s k l k b k b b n b n M M M m M m M m B B B V V V S S S S F F F F F F S S S S S Z Z Z m m n n n v k d s s a s p a p p p p 3 3 3 3 2 < 2 3 I. XOXOXOXOXOXOXOXOXOXOXOXOXOXOXOXOXOX|.|.|.|.|.|.|.|.|.|.|.|.|.|.|.|.|.|.|.|.",
"OXOXOXOXOXOXOXOXOXOXOXOXOXOXOXOXOXOXOXOX|.|.|.|.|.|.|.|.|.|.|.|.|.|.|.|.|.|.|.|.OXOXOXOXOXOXOXOXOXOXOXOXOXOXOXOXOXOXOXOX|.|.|.|.|.|.|.|.|.|.|.|.|.|.|.|.|.|.|.|.OXOXOXOXOXOXOXOXOXOXOXOXOXOXOXOXOXOXOXoX.X`.R.,._ 1 3 t y u u u u u u u u u y u y y y y t t t t t 1 1 1 1 t < 1 , < , , , , , , > ; ; ; ; ; ; , , , , , , , , , , , , , , , > > 2 > > > > 2 2 ; 2 ; 2 6 2 6 6 w ;.,.I.T.R.`. X.X X.X|. X{.I.2 < , < , < , < < < , 1 p a s s k l k k b v b b b b n b n n n n M n n n m m Z Z Z Z S S S S S S S S F h Z m m m n n v v v d d s a a a p p t t 3 t 1 1 < < 1 < < < < > 6 R.oXOXOXOXOXOXOXOXOXOXOXOXOXOXOXOXOX|.|.|.|.|.|.|.|.|.|.|.|.|.|.|.|.|.|.|.|.",
"OXOXOXOXOXOXOXOXOXOXOXOXOXOXOXOXOXOXOXOX|.|.|.|.|.|.|.|.|.|.|.|.|.|.|.'.|.|.|.|.OXOXOXOXOXOXOXOXOXOXOXOXOXOXOXOXOXOXOXOX|.|.|.|.|.|.|.|.|.|.|.|.|.|.|.|.|.|.|.|.OXOXOXOXOXOXOXOXOXOXOXOXOXOXOXOXOXOXOXOX|.{.{.{.`.I.,._ 5 3 1 t y y y y u y y y y y t t t t t t 1 1 1 t 1 < < < < , < , , , , , > ; ; ; - ; > > , , , , , , , , , , , ; , > 2 2 ; 6 6 6 w ;.,.,.I.T.T.!.T.^.`.`.{.{.{. X.X.X|.|.|.|.|..X.X`.;.< , , , < < < < < 1 , < p a s j k k l v k k k v d k k k k k k k k k k d v v v v m n m m m m m h m h g h d g f i i u u u u u y u y y y y y y t y t t t 1 1 t < < < > ; T.oXOXOXOXOXOXOXOXOXOXOXOXOXOXOXOXOX|.|.|.|.|.|.|.|.|.|.|.|.|.|.|.|.|.|.|.|.",
"OXOXOXOXOXOXOXOXOXOXOXOXOXOXOXOXOXOXOXOX|.|.|.|.|.|.|.|.|.|.|.|.|.|.|.|.|.|.|.|.OXOXOXOXOXOXOXOXOXOXOXOXOXOXOXOXOXOXOXOX|.|.|.|.|.|.|.|.|.|.|.|.|.|.|.|.|.|.|.|.OXOXOXOXOXOXOXOXOXOXOXOXOXOXOXOXOXOXOXOX|.|.|..X.X{.{.!.R.I.:.;.c p 3 3 3 1 1 1 1 t 1 t 1 t 1 1 1 1 1 t < < 1 < < < < , , , , > > ; ; - - - ; > > > > > > > > 2 2 ; 6 6 6 ;.:.N.I.R.`.`.{. XoXoXoXoXoXOX.X.X.X|.|.|.|.|.|.|.|.|.|.|.|.|..X{.R.;.2 , < < , < , < < < < 1 p a a s k j a s k a j s a a y a y y y y y u u u u u i i i i f f f f f f g g g f f i i i u f f i u u u u u u y y y y y t t t 1 1 t < < , , 2 T.XXOXOXOXOXOXOXOXOXOXOXOXOXOXOXOXOX|.|.|.|.|.|.|.|.|.|.|.|.|.|.|.|.|.|.|.|.",
"OXOXOXOXOXOXOXOXOXOXOXOXOXOXOXOXOXOXOXOX|.|.|.|.|.|.|.|.|.|.|.|.|.|.|.|.|.|.|.|.OXOXOXOXOXOXOXOXOXOXOXOXOXOXOXOXOXOXOXOX|.|.|.|.|.|.|.|.|.|.|.|.|.|.|.|.|.|.|.|.OXOXOXOXOXOXOXOXOXOXOXOXOXOXOXOXOXOXOXOX|.|.|.|..X.X.X X X{.{.`.`.R.I.,.;.;.6 5 2 2 3 < < < < t 1 1 < 1 1 < , < < < , , , , ; 2 > ; - - - - ; ; 2 2 : 6 6 6 ;.>.I.T.!.`.{.{.oXoXoXoXoXOXoXoXOXoXOXOXOXOX|.|.|.|.|.|.|.|.|.|.|.|.|.|.|.|.|..X X!.;.3 , , < < < < < , < < 3 p p p p p p p 3 3 1 t 1 1 1 t t t y y y u u u i i f f g g g g g h g g h g g g g g g g g f f f i i i u u y y y y y y t t t 1 1 1 < < < , ; T.oXOXOXOXOXOXOXOXOXOXOXOXOXOXOXOXOX|.|.|.|.|.|.|.|.|.|.|.|.|.|.|.|.|.|.|.|.",
"OXOXOXOXOXOXOXOXOXOXOXOXOXOXOXOXOXOXOXOX|.|.|.|.|.|.|.|.|.|.|.|.|.|.|.|.|.|.|.|.OXOXOXOXOXOXOXOXOXOXOXOXOXOXOXOXOXOXOXOX|.|.|.|.|.|.|.|.|.|.|.|.|.|.|.|.|.|.|.|.OXOXOXOXOXOXOXOXOXOXOXOXOXOXOXOXOXOXOXOX|.|.|.|.|.|.|.|.|.|..X|..X X X{.`.`.`.R.R.I.,.;._ c 5 2 < 2 , 2 < : , , > > > > > , ; 2 ; - - - : 6 6 ;.,.I.I.R.`.`.{.{.oX XoXoXOXOXOXOXOXOXOXOXOXOXOXOXOXOXOXOX|.|.|.|.|.|.|.|.|.|.|.|.|.|.|.|.|.|..X X`.I.6 2 , < < , < < < < , 3 3 p 3 3 < < 1 1 < < < 1 1 t y y y u u u u i i f f f g g g g g g h g g h g g g g g g g f f f i i i u u y y y y y t t t 1 1 1 1 < < < , , R.oXOXOXOXOXOXOXOXOXOXOXOXOXOXOXOXOX|.|.|.|.|.|.|.|.|.|.|.|.|.|.|.|.|.|.|.|.",
"OXOXOXOXOXOXOXOXOXOXOXOXOXOXOXOXOXOXOXOX|.|.|.|.|.|.|.|.|.|.|.|.|.|.|.|.|.|.|.|.OXOXOXOXOXOXOXOXOXOXOXOXOXOXOXOXOXOXOXOX|.|.|.|.|.|.|.|.|.|.|.|.|.|.|.|.|.|.|.|.OXOXOXOXOXOXOXOXOXOXOXOXOXOXOXOXOXOXOXOX|.|.|.|.|.|.|.|.|.|.|.|.|.|.|..X{.{. X XXXoXoX X{.{.`.R.R.I.I.,.,.;.;.w w w w 6 6 w 6 6 6 w ;.N.T.(.'.{.{. X.X.X.X.X.X.XOXOXOXOXOXOXOXOXOXOXOXOXOXOXOXOXOXOXOXOX|.|.|.|.|.|.|.|.|.|.|.|.|.|.|.|.|.|.|..XoXoX`.,.5 , < , < , < < < , < 3 1 < < < < < < < < t 1 t y y y y y u u i i f f f g g g g g g g g g g g g g g g g f g f f i i i u y y y y y t t t t 1 1 1 < < < < , 6 R.OXOXOXOXOXOXOXOXOXOXOXOXOXOXOXOXOX|.|.|.|.|.|.|.|.|.|.|.|.|.|.|.|.|.|.|.|.",
"OXOXOXOXOXOXOXOXOXOXOXOXOXOXOXOXOXOXOXOX|.|.|.|.|.|.|.|.|.|.|.|.|.|.|.|.|.|.|.|.OXOXOXOXOXOXOXOXOXOXOXOXOXOXOXOXOXOXOXOX|.|.|.|.|.|.|.|.|.|.|.|.|.|.|.|.|.|.|.|.OXOXOXOXOXOXOXOXOXOXOX|.OXOXOXOXOXOXOXOX|.|.|.|.|.|.|.|.|.|.|.|.|.|.|.|.|.|.|..XOXOXoXOXOXoXOXoXoX.XoXoX X X{.{. X X{.{.`.`.).`.'.'.'.|..X|.|.|.|.|.|.|.|.|.|.|.OXOXOXOXOXOXOXOXOXOXOXOXOXOXOXOXOXOXOXOX|..X|.|.|.|.|.|.|.|.|.|.|.|.|.|.|.|.|.|.OXOXOX{.N.2 , < < , < , < , , , < < < < 1 < 1 1 < 1 1 t t y y u y u u i i i f f f f g g g g g g g g g g g g g g g f f f i i u u y y y y y y t t t 1 1 1 < 1 < < , 6 `.oXOXOXOXOXOXOXOXOXOXOXOXOXOXOXOXOX|.|.|.|.|.|.|.|.|.|.|.|.|.|.|.|.|.|.|.|.",
"|.|.|.|.|.|.|.|.|.|.|.|.|.|.|.|.|.|.|.|.OXOXOXOXOXOXOXOXOXOXOXOXOXOXOXOXOXOXOXOX|.|.|.|.|.|.|.|.|.|.|.|.|.|.|.|.|.|.|.|.OXOXOXOXOXOXOXOXoXOXOXOXOXOXOXOXOXOXOXOX|.|.|.|.|.|.|.|.|.|.|.|.|.|.|.|.|.|.|.|.OXOXOXOXOXOXOXOXOXOXOXOXoXOXOXOXOXOXOXOX|.|.|.|.|.|.|.|.|..X.X.X.X.X.X.X X X.X.XoXOXoXOXOXOXOXOXOXOXOXOXoXOXOXOXOXOXOXOX|.|.|.|.|.|.|.|.|.|.|.|.|.|.|.|.|.|.|.|.OXOXOXOXOXOXOXOXOXOXOXOXOXOXOXOXOXOXOXOX|.|..X X`.,.5 < < < < < , < , , 2 , < < < 1 < 1 1 1 1 t t y y y y y u u i i f f f g g g g g g g g g g g g g g f f f f i i i u u y y y y y y t t t 1 1 1 1 < < < , 6 R. X|.|.|.|.|.|.|.|.|.|.|.|.|.|.|.|.OXOXOXOXOXOXOXOXOXOXOXOXOXOXOXOXOXOXOXOX",
"|.|.|.|.|.|.|.|.|.|.|.|.|.|.|.|.|.|.|.|.OXOXOXOXOXOXOXOXOXOXOXOXOXOXOXOXOXOXOXOX|.|.|.|.|.|.|.|.|.|.|.|.|.|.|.|.|.|.|.|.OXOXOXOXOXOXOXOXOXOXOXOXOXOXOXOXOXOXOXOX|.|.|.|.|.|.|.|.|.|.|.|.|.|.|.|.|.|.|.|.OXOXOXOXOXOXOXOXOXOXOXOXoXOXOXOXOXOXOXOX|.|.|.|.|.|.|.|.|.|.|.|..X|..X|.|.|.|.|.OXOXOXOXOXOXOXOXOXOXOXOXOXOXOXOXOXOXOXOX|.|.|.|.|.|.|.|.|.|.|.|.|.|.|.|.|.|.|.|.OXOXOXOXOXOXOXOXOXOXOXOXOXOXOXOXOXOXOXOX|.|.|..X.X`.H.5 > < , < < < , , , , , < < 1 t < 1 1 1 t t t y y y y y u i i i f f f g g g g g g g g g g g g g g g f f i i i u u y y y y t y t t t 1 1 1 < < < < , 6 `..X|.|..X|.|.|.|.|.|.|.|.|.|.|.|.|.OXOXOXOXOXOXOXOXOXOXOXOXOXOXOXOXOXOXOXOX",
"|.|.|.|.|.|.|.|.|.|.|.|.|.|.|.|.|.|.|.|.OXOXOXOXOXOXOXOXOXOXOXOXOXOXOXOXOXOXOXOX|.|.|.|.|.|.|.|.|.|.|.|.|.|.|.|.|.|.|.|.OXOXOXOXOXOXOXOXOXOXOXOXOXOXOXOXOXOXOXOX|.|.|.|.|.|.|.|.|.|.|.|.|.|.|.|.|.|.|.|.OXOXOXOXOXOXOXOXOXOXOXOXOXOXOXOXOXOXOXOX|.|.|.|.|.|.|.|.|.|.|.|.|.|.|.|.|.|.|.|.OXOXOXOXOXOXOXOXOXOXOXOXOXOXOXOXOXOXOXOX|.|.|.|.|.|.|.|.|.|.|.|.|.|.|.|.|.|.|.|.OXOXOXOXOXOXOXOXOXOXOXOXOXOXOXOXOXOXOXOX|.|..X|..X X`.,.6 , , < < < , > , , < < < < < t 1 1 1 t t t t y y y y u u i i f f f g g g g g g g g g g g g g f f f f f i i u u u y y y y t t t t 1 1 1 t < < , , w !.|.|.|.|.|.|.|.|.|.|.|.|.|.|.|.|.|.OXOXOXOXOXOXOXOXOXOXOXOXOXOXOXOXOXOXOXOX",
"|.|.|.|.|.|.|.|.|.|.|.|.|.|.|.|.|.|.|.|.OXOXOXOXOXOXOXOXOXOXOXOXOXOXOXOXOXOXOXOX|.|.|.|.|.|.|.|.|.|.|.|.|.|.|.|.|.|.|.|.OXOXOXOXOXOXOXOXOXOXOXOXOXOXOXOXOXOXOXOX|.|.|.|.|.|.|.|.|.|.|.|.|.|.|.|.|.|.|.|.OXOXOXOXOXOXOXOXOXOXOXOXOXOXOXOXOXOXOXOX|.|.|.|.|.|.|.|.|.|.|.|.|.|.|.|.|.|.|.|.OXOXOXOXOXOXOXOXOXOXOXOXOXOXOXOXOXOXOXOX|.|.|.|.|.|.|.|.|.|.|.|.|.|.|.|.|.|.|..XOXOXOXOXOXOXOXOXOXOXOXOXOXOXOXOXOXOXOXOX|.|.|.|.|..X X{.N.5 , , < , > > , , , < < < t < 1 1 1 1 t t t y y y y u u i i f f f g g g g g g g g g g g f g g g f f f i i i u u y y y y y t t t 1 1 1 t < , , , 6 `..X|.|.|.|.|.|.|.|.|.|.|.|.|.|.|.|.OXOXOXOXOXOXOXOXOXOXOXOXOXOXOXOXOXOXOXOX",
"|.|.|.|.|.|.|.|.|.|.|.|.|.|.|.|.|.|.|.|.OXOXOXOXOXOXOXOXOXOXOXOXOXOXOXOXOXOXOXOX|.|.|.|.|.|.|.|.|.|.|.|.|.|.|.|.|.|.|.|.OXOXOXOXOXOXOXOXOXOXOXOXOXOXOXOXOXOXOXOX|.|.|.|.|.|.|.|.|.|.|.|.|.|.|.|.|.|.|.|.OXOXOXOXOXOXOXOXOXOXOXOXOXOXOXOXOXOXOXOX|.|.|.|.|.|.|.|.|.|.|.|.|.|.|.|._.|.|.|.OXOXOXOXOXOXOXOXOXOXOXOXOXOXOXOXOXOXOXOX|.|.|.|.|.|.|.|.|.|.|.|.|.|.|.|.|.|.|.|.OXOXOXOXOXOXOXOXOXOXOXOXOXOXOXOXOXOXOXOX|.|.|.|.|.|.|.{.`.,.6 , < < > > , , < < < < < < 1 1 1 t t t y y y y u u u i i i f f g g g g g g g g g g g g g g f f f i i i i u u y y y t y t t t 1 1 1 < < < , > c {..X|.|.|.|.|.|.|.|.|.|.|.|.|.|.|.|.OXOXOXOXOXOXOXOXOXOXOXOXOXOXOXOXOXOXOXOX",
"|.|.|.|.|.|.|.|.|.|.|.|.|.|.|.|.|.|.|.|.OXOXOXOXOXOXOXOXOXOXOXOXOXOXOXOXOXOXOXOX|.|.|.|.|.|.|.|.|.|.|.|.|.|.|.|.|.|.|.|.OXOXOXOXOXOXOXOXOXOXOXOXOXOXOXOXOXOXOXOX|.|.|.|.|.|.|.|.|.|.|.|.|.|.|.|.|.|.|.|.OXOXOXOXOXOXOXOXOXOXOXOXOXOXOXOXOXOXOXOX|.|.|.|.|.|.|.|.|.|.|.|.|.|.|.|.|.|.|.|.OXOXOXOXOXOXOXOXOXOXOXOXOXOXOXOXOXOXOXOX|.|.|.|.|.|.|.|.|.|.|.|.|.|.|.|.|.|.|.|.OXOXOXOXOXOXOXOXOXOXOXOXOXOXOXOXOXOXOXOX|.|.|.|.|.|.|.|.|.{.N.6 , , > > , , < , 1 < 1 < 1 1 1 t t t t y y y u u u i i i f f f g g g g g g g g g g g g g g f f i f i i u u y y y y y t t t 1 t < < < < , > _ `.|.|.|.|.|.|.|.|.|.|.|.|.|.|.|.|.|.OXOXOXOXOXOXOXOXOXOXOXOXOXOXOXOXOXOXOXOX",
"|.|.|.|.|.|.|.|.|.|.|.|.|.|.|.'.|.|.|.|.OXOXOXOXOXOXOXOXOXOXOXOXOXOXOXOXOXOXOXOX|.|.|.|.|.|.|.|.|.|.|.|.|.|.|.|.|.|.|.|.OXOXOXOXOXOXOXOXOXOXOXOXOXOXOXOXOXOXOXOX|.|.|.|.|.|.|.|.|.|.|.|.|.|.|.|.|.|.|.|.OXOXOXOXOXOXOXOXOXOXOXOXOXOXOXOXOXOXOXOX|.|.|.|.|.|.|.|.|.|.|.|.|.|.|.|.|.|.|.|.OXOXOXOXOXOXOXOXOXOXOXOXOXOXOXOXOXOXOXOX|.|.|.|.|.|.|.|.|.|.|.|.|.|.|.|.|.|.|.|.OXOXOXOXOXOXOXOXOXOXOXOXOXOXOXOXOXOXOXOX|.|.|.|.|.|.|.|.|..X{.I.6 ; > > , , , < < < 1 1 1 1 1 1 t t t y y y y u u i i i f f f g g g g g g g g g g g g f f f f f i i i u y y y y y t t t t 1 1 1 < < < , > ;.{.|.|.|.|.|.|.|.|.|.|.|.|.|.|.|.|.|.OXOXOXOXOXOXOXOXOXOXOXOXOXOXOXOXOXOXOXOX",
"|.|.|.|.|.|.|.|.|.|.|.|.|.|.|.|.|.|.|.|.OXOXOXOXOXOXOXOXOXOXOXOXOXOXOXOXOXOXOXOX|.|.|.|.|.|.|.|.|.|.|.|.|.|.|.|.|.|.|.|.OXOXOXOXOXOXOXOXOXOXOXOXOXOXOXOXOXOXOXOX|.|.|.|.|.|.|.|.|.|.|.|.|.|.|.|.|.|.|.|.OXOXOXOXOXOXOXOXOXOXOXOXOXOXOXOXOXOXOXOX|.|.|.|.|.|.|.|.|.|.|.|.|.|.|.|.|.|.|.|.OXOXOXOXOXOXOXOXOXOXOXOXOXOXOXOXOXOXOXOX|.|.|.|.|.|.|.|.|.|.|.|.|.|.|.|.|.|.|.|.OXOXOXOXOXOXOXOXOXOXOXOXOXOXOXOXOXOXOXOX|.|.|.|.|.|.|.|.|.|..X{.I.6 ; > , , , , < < < < 1 1 1 1 1 t y t y y y y u i i f f f g g g g g g g g g g g g g f g f f f i i i u y y y y y y t t t 1 1 1 1 < < , ; _ {.|.|.|.|.|.|.|.|.|.|.|.|.|.|.|.|.|.OXOXOXOXOXOXOXOXOXOXOXOXOXOXOXOXOXOXOXOX",
"|.|.|.|.|.|.|.|.|.|.|.|.|.|.|.|.|.|.|.|.OXOXOXOXOXOXOXOXOXOXOXOXOXOXOXOXOXOXOXOX|.|.|.|.|.|.|.|.|.|.|.|.|.|.|.|.|.|.|.|.OXOXOXOXOXOXOXOXOXOXOXOXOXOXOXOXOXOXOXOX|.|.|.|.|.|.|.|.|.|.|.|.|.|.|.|.|.|.|.|.OXOXOXOXOXOXOXOXOXOXOXOXOXOXOXOXOXOXOXOX|.|.|.|.|.|.|.|.|.|.|.|.|.|.|.|.|.|.|.|.OXOXOXOXOXOXOXOXOXOXOXOXOXOXOXOXOXOXOXOX|.|.|.|.|.|.|.|.|.|.|.|.|.|.|.|.|.|.|.|.OXOXOXOXOXOXOXOXOXOXOXOXOXOXOXOXOXOXOXOX|.|.|.|.|.|.|.|.|.|.|..X`.I.: ; > , , < < < 1 < < 1 1 1 t t t y y y y u u u i f f f f g g g g g g g g g g g g g f f f i i i i u y y y y y t t t t 1 1 1 < < < , , ;.{.|.|.|.|.|.|.|.|.|.|.|.|.|.|.|.|.|.OXOXOXOXOXOXOXOXOXOXOXOXOXOXOXOXOXOXOXOX",
"|.|.|.|.|.|.|.|.|.|.|.|.|.|.|.|.|.|.|.|.OXOXOXOXOXOXOXOXOXOXOXOXOXOXOXOXOXOXOXOX|.|.|.|.|.|.|.|.|.|.|.|.|.|.|.|.|.|.|.|.OXOXOXOXOXOXOXOXOXOXOXOXOXOXOXOXOXOXOXOX|.|.|.|.|.|.|.|.|.|.|.|.|.|.|.|.|.|.|.|.OXOXOXOXOXOXOXOXOXOXOXOXOXOXOXOXOXOXOXOX|.|.|.|.|.|.|.|.|.|.|.|.|.|.|.|.|.|.|.|.OXOXOXOXOXOXOXOXOXOXOXOXOXOXOXOXOXOXOXOX|.|.|.|.|.|.|.|.|.|.|.|.|.|.|.|.|.|.|.|.OXOXOXOXOXOXOXOXOXOXOXOXOXOXOXOXOXOXOXOX|.|.|.|.|.|.|.|.|.|.|.|..X{.N.: ; > , , < < < < 1 1 1 1 t t t y t y y y u u i i f f g g g g g g g g g g g g g f g f f f i i i u y u y t y y t t t 1 1 1 < 1 < , : ;.{.|.|.|.|.|.|.|.|.|.|.|.|.|.|.|.|.|.OXOXOXOXOXOXOXOXOXOXOXOXOXOXOXOXOXOXOXOX",
"|.|.|.|.|.|.|.|.|.|.|.|.|.|.|.|.|.|.|.|.OXOXOXOXOXOXOXOXOXOXOXOXOXOXOXOXOXOXOXOX|.|.|.|.|.|.|.|.|.|.|.|.|.|.|.|.|.|.|.|.OXOXOXOXOXOXOXOXOXOXOXOXOXOXOXOXOXOXOXOX|.|.|.|.|.|.|.|.|.|.|.|.|.|.|.|.|.|.|.|.OXOXOXOXOXOXOXOXOXOXOXOXOXOXOXOXOXOXOXOX|.|.|.|.|.|.|.|.|.|.|.|.|.|.|.|.|.|.|.|.OXOXOXOXOXOXOXOXOXOXOXOXOXOXOXOXOXOXOXOX|.|.|.|.|.|.|.|.|.|.|.|.|.|.|.|.|.|.|.|.OXOXOXOXOXOXOXOXOXOXOXOXOXOXOXOXOXOXOXOX|.|.|.|.|.|.|.|.|.|.|.|.|. X).;.- ; > , < < < < < 1 1 t 1 t t y y y y u u u i i f f g g g g g g g g g g g g g f f f f i i i i u y y y y y t t t t 1 1 1 < < < , 2 ,.{.|.|.|.|.|.|.|.|.|.|.|.|.|.|.|.|.|.OXOXOXOXOXOXOXOXOXOXOXOXOXOXOXOXOXOXOXOX",
"|.|.|.|.|.|.|.|.|.|.|.|.|.|.|.|.|.|.|.|.OXOXOXOXOXOXOXOXOXOXOXOXOXOXOXOXOXOXOXOX|.|.|.|.|.|.|.|.|.|.|.|.|.|.|.|.|.|.|.|.OXOXOXOXOXOXOXOXOXOXOXOXOXOXOXOXOXOXOXOX|.|.|.|.|.|.|.|.|.|.|.|.|.|.|.|.|.|.|.|.OXOXOXOXOXOXOXOXOXOXOXOXOXOXOXOXOXOXOXOX|.|.|.|.|.|.|.|.|.|.|.|.|.|.|.|.|.|.|.|.OXOXOXOXOXOXOXOXOXOXOXOXOXOXOXOXOXOXOXOX|.|.|.|.|.|.|.|.|.|.|.'.|.|.|.|.|.|.|.|.OXOXOXOXOXOXOXOXOXOXOXOXOXOXOXOXOXOXOXOX|.|.|.|.|.|.|.|.|.|.|.|.|..X{.L.w : ; , ; , < < 1 1 1 1 t t t t t y y u u u i i f f f g g g g g g g g g g g g f g f f f f i i u y y y y y y t t t 1 1 < 1 < < ; 2 T. X|.|.|.|.|.|.|.|.|.|.|.|.|.|.|.|.|.OXOXOXOXOXOXOXOXOXOXOXOXOXOXOXOXOXOXOXOX",
"|.|.|.|.|.|.|.|.|.|.|.|.|.|.|.|.|.|.|.|.OXOXOXOXOXOXOXOXOXOXOXOXOXOXOXOXOXOXOXOX|.|.|.|.|.|.|.|.|.|._.|.|.|.|.|.|.|.|.|.OXOXOXOXOXOXOXOXOXOXOXOXOXOXOXOXOXOXOXOX|.|.|.|.|.|.|.|.|.|.|.|.|.|.|.|.|.|.|.|.OXOXOXOXOXOXOXOXOXOXOXOXOXOXOXOXOXOXOXOX|.|.|.|.|.|.|.|.|.|.|.|.|.|.|.|.|.|.|.|.OXOXOXOXOXOXOXOXOXOXOXOXOXOXOXOXOXOXOXOX|.|.|.|.|.|.|.|.|.|.|.|.|.|.|.|.|.|.|.|.OXOXOXOXOXOXOXOXOXOXOXOXOXOXOXOXOXOXOXOX|.|.|.|.|.|.|.|.|.|.|.|.|.|..X{.}.>.6 - ; > , < < < 1 1 t t t t y y y u u u i i f f f g g g g g g g g g g g g g f g f i i i i u u u y y y t y t 1 1 < < 2 2 6 ;.T.{..X|.|.|.|.|.|.|.|.|.|.|.|.|.|.|.|.|.OXOXOXOXOXOXOXOXOXOXOXOXOXOXOXOXOXOXOXOX",
"|.|.|.|.|.|.|.|.|.|.|.|.|.|.|.|.|.|.|.|.OXOXOXOXOXOXOXOXOXOXOXOXOXOXOXOXOXOXOXOX|.|.|.|.|.|.|.|.|.|.|.|.|.|.|.|.|.|.|.|.OXOXOXOXOXOXOXOXOXOXOXOXOXOXOXOXOXOXOXOX|.|.|.|.|.|.|.|.|.|.|.|.|.|.|.|.|.|.|.|.OXOXOXOXOXOXOXOXOXOXOXOXOXOXOXOXOXOXOXOX|.|.|.|.|.|.|.|.|.|.|.|.|.|.|.|.|.|.|.|.OXOXOXOXOXOXOXOXOXOXOXOXOXOXOXOXOXOXOXOX|.|.|.|.|.|.|.|.|.|.|.|.|.|.|.|.|.|.|.|.OXOXOXOXOXOXOXOXOXOXOXOXOXOXOXOXOXOXOXOX|.|.|.|.|.|.|.|.|.|.|.|.|.|.|..X X{.E.,.w 6 ; > > , < < 1 t 1 t t y y y y u i i f f f g f g g g g g g g g f g f g i f f i i i y y t t t 1 t 1 3 3 3 5 _ :.I.R.{.{..X|.|.|.|.|.|.|.|.|.|.|.|.|.|.|.|.|.|.OXOXOXOXOXOXOXOXOXOXOXOXOXOXOXOXOXOXOXOX",
"|.|.|.|.|.|.|.|.|.|.|.|.|.|.|.|.|.|.|.|.OXOXOXOXOXOXOXOXOXOXOXOXOXOXOXOXOXOXOXOX|.|.|.|.|.|.|.|.|.|.|.|.|.|.|.|.|.|.|.|.OXOXOXOXOXOXOXOXOXOXOXOXOXOXOXOXOXOXOXOX|.|.|.|.|.|.|.|.|.|.|.|.|.|.|.|.|.|.|.|.OXOXOXOXOXOXOXOXOXOXOXOXOXOXOXOXOXOXOXOX|.|.|.|.|.|.|.|.|.|.|.|.|.|.|.|.|.|.|.|.OXOXOXOXOXOXOXOXOXOXOXOXOXOXOXOXOXOXOXOX|.|.|.|.|.|.|.|.|.|.|.|.|.|.|.|.|.|.|.|.OXOXOXOXOXOXOXOXOXOXOXOXOXOXOXOXOXOXOXOX|.|.|.|.|.|.|.|.|.|.|.|.|.|.|.|..X.X X{.{.T.I.;.w 6 6 2 2 p 1 t < t t y y y u f i f f f f g g g g g g f g f g f f f i u f i y y 3 p 3 5 5 c ;.:.,.I.!.{. XoXoXOX.X|.|.|.|.|.|.|.|.|.|.|.|.|.|.|.|.|.|.|.OXOXOXOXOXOXOXOXOXOXOXOXOXOXOXOXOXOXOXOX",
"|.|.|.|.|.|.|.|.|.|.|.|.|.|.|.|.|.|.|.|.OXOXOXOXOXOXOXOXOXOXOXOXOXOXOXOXOXOXOXOX|.|.|.|.|.|.|.|.|.|.|.|.|.|.|.|.|.|.|.|.OXOXOXOXOXOXOXOXOXOXOXOXOXOXOXOXOXOXOXOX|.|.|.|.|.|.|.|.|.|.|.|.|.|.|.|.|.|.|.|.OXOXOXOXOXOXOXOXOXOXOXOXOXOXOXOXOXOXOXOX|.|.|.|.|.|.|.|.|.|.|.|.|.|.|.|.|.|.|.|.OXOXOXOXOXOXOXOXOXOXOXOXOXOXOXOXOXOXOXOX|.|.|.|.|.|.|.|.|.|.|.|.|.|.|.|.|.|.|.|.OXOXOXOXOXOXOXOXOXOXOXOXOXOXOXOXOXOXOXOX|.|.|.|.|.|.|.|.|.|.|.|.|.|.|.|.|.|.|.|.OXoX XXX{.`.!.I.,.,.:._ ;._ _ c c j a a a a a a a a u u u a u a a a a y a s l l c ;._ :.,.I.I.R.`.`.`. XOXoXoXOXOXOXOXOX|.|.|.|.|.|.|.|.|.|.|.|.|.|.|.|.|.|.|.|.OXOXOXOXOXOXOXOXOXOXOXOXOXOXOXOXOXOXOXOX",
"|.|.|.|.|.|.|.|.|.|.|.|.|.|.|.|.|.|.|.|.OXOXOXOXOXOXOXOXOXOXOXOXOXOXOXOXOXOXOXOX|.|.|.|.|.|.|.|.|.|.|.|.|.|.|.|.|.|.|.|.OXOXOXOXOXOXOXOXOXOXOXOXOXOXOXOXOXOXOXOX|.|.|.|.|.|.|.|.|.|.|.|.|.|.|.|.|.|.|.|.OXOXOXOXOXOXOXOXOXOXOXOXOXOXOXOXOXOXOXOX|.|.|.|.|.|.|._.|.|.|.|.|.|.|.|.|.|.|.|.OXOXOXOXOXOXOXOXOXOXOXOXOXOXOXOXOXOXOXOX|.|.|.|.|.|.|.|.|.|.|.|.|.|.|.|.|.|.|.|.OXOXOXOXOXOXOXOXOXOXOXOXOXOXOXOXOXOXOXOX|.|.|.|.|.|.|.|.|.|.|.|.|.|.|.|.|.|.|.|.OXOXOXOXOXoXoXoXoX X X X`.{.`.`.`.R.R.R.I.I.I.I.,.,.,.,.I.,.I.I.N.I.I.R.R.R.!.R.{.{.{. XXX XoXoXoXoXoXOXOXoXoXOXOXOXOXOX|.|.|.|.|.|.|.|.|.|.|.|.|.|.|.|.|.|.|.|.oXOXOXOXOXOXOXOXOXOXOXOXOXOXOXOXOXOXOXOX",
"|.|.|.|.|.|.|.|.|.|.|.|.|.|.|.|.|.|.|.|.OXOXOXOXOXOXOXOXOXOXOXOXOXOXOXOXOXOXOXOX|.|.|.|.|.|.|.|.|.|.|.|.|.|.|.|.|.|.|.|.OXOXOXOXOXOXOXOXOXOXOXOXOXOXOXOXOXOXOXOX|.|.|.|.|.|.|.|.|.|.|.|.|.|.|.|.|.|.|.|.OXOXOXOXOXOXOXOXOXOXOXOXOXOXOXOXOXOXOXOX|.|.|.|.|.|.|.|.|.|.|.|.|.|.|.|.|.|.|.|.OXOXOXOXOXOXOXOXOXOXOXOXOXOXOXOXOXOXOXOX|.|.|.|.|.|.|.|.|.|.|.|.|.|.|.|.|.|.|.|.OXOXOXOXOXOXOXOXOXOXOXOXOXOXOXOXOXOXOXOX|.|.|.|.|.|.|.|.|.|.|.|.|.|.|.|.|.|.|.|.OXOXOXOXOXOXOXOXOXOXOXOXOXoXoXoXOXOXoXoX X X{.{.{.{.{.{.{.{.{.{.{.`.{.{. X X X.XoXOXOXOXOXOXOXOXOXOXOXOXOXOXOXOXOXOXOXOX|.|.|.|.|.|.|.|.|.|.|.|.|.|.|.|.|.|.|.|.OXOXOXOXOXOXOXOXOXOXOXOXOXOXOXOXOXOXOXOX",
"|.|.|.|.|.|.|.|.|.|.|.|.|.|.|.|.|.|.|.|.OXOXOXOXOXOXOXOXOXOXOXOXOXOXOXOXOXOXOXOX|.|.|.|.|.|.|.|.|.|.|.|.|.|.|.|.|.|.|.|.OXOXOXOXOXOXOXOXOXOXOXOXOXOXOXOXOXOXOXOX|.|.|.|.|.|.|.|.|.|.|.|.|.|.|.|.|.|.|.|.OXOXOXOXOXOXOXOXOXOXOXOXOXOXOXOXOXOXOXOX|.|.|.|.|.|.|.|.|.|.|.|.|.|.|.|.|.|.|.|.OXOXOXOXOXOXOXOXOXOXOXOXOXOXOXOXOXOXOXOX|.|.|.|.|.|.|.|.|.|.|.|.|.|.|.|.|.|.|.|.OXOXOXOXOXOXOXOXOXOXOXOXOXOXOXOXOXOXOXOX|.|.|.|.|.|.|.|.|.|.|.|.|.|.|.|.|.|.|.|.OXOXOXOXOXOXOXOXOXOXOXOXOXOXOXOXOXOXOXOX X.X.X X{. X X X X X.X.X|..X.X.X X|..X|.OXOXOXOXOXOXOXOXOXOXOXOXOXOXOXOXOXOXOXOX|.|.|.|.|.|.|.|.|.|.|.|.|.|.|.|.|.|.|.|.OXOXOXOXOXOXOXOXOXOXOXOXOXOXOXOXOXOXOXOX",
"|.|.|.|.|.|.|.|.|.|.|.|.|.|.|.|.|.|.|.|.OXOXOXOXOXOXOXOXOXOXOXOXOXOXOXOXOXOXOXOX|.|.|.|.|.|.|.|.|.|.|.|.|.|.|.|.|.|.|.|.OXOXOXOXOXOXOXOXOXOXOXOXOXOXOXOXOXOXOXOX|.|.|.|.|.|.|.|.|.|.|.|.|.|.|.|.|.|.|.|.OXOXOXOXOXOXOXOXOXOXOXOXOXOXOXOXOXOXOXOX|.|.|.|.|.|.|.|.|.|.|.|.|.|.|.|.|.|.|.|.OXOXOXOXOXOXOXOXOXOXOXOXOXOXOXOXOXOXOXOX|.|.|.|.|.|.|.|.|.|.|.|.|.|.|.|.|.|.|.|.OXOXOXOXOXOXOXOXOXOXOXOXOXOXOXOXOXOXOXOX|.|.|.|.|.|.|.|.|.|.|.|.|.|.|.|.|.|.|.|.OXOXOXOXOXOXOXOXOXOXOXOXOXOXOXOXOXOXOXOX.X|.|.|.|.|.|.|.|.|.|.|.|.|.|.|.|.|.|.|.OXOXOXOXOXOXOXOXOXOXOXOXOXOXOXOXOXOXOXOX|.|.|.|.|.|.|.|.|.|.|.|.|.|.|.|.|.|.|.|.OXOXOXOXOXOXOXOXOXOXOXOXOXOXOXOXOXOXOXOX"
};
