/* XPM */
static char *out[] = {
/* columns rows colors chars-per-pixel */
"40 40 8 1 ",
"  c None",
". c #FAF236",
"X c #FBF236",
"o c #FAF336",
"O c #FBF336",
"+ c #FAF237",
"@ c #FBF237",
"# c #FBF337",
/* pixels */
"                                        ",
"                                        ",
"                                        ",
"                                        ",
"                XOXXXXXX.X              ",
"             XXXXX@XXXXXXXXXX           ",
"           XXX..XXOXXXXX.XOXXXX         ",
"          X@XX.XXXXXXX.XXXXXXXXX        ",
"         XXXXXXXXOXX@XXXXXXXXXXXXX      ",
"        XXXX@XXXOXXXX@XXXOXXXXXX@X      ",
"       XXXXXX@XX@XXXXXXXXXXXXXXXXX      ",
"      XXXXXXXXXXXXOXX@OXXOXXXXXXXX      ",
"     XXXXXXXXXXXXXXXXXXXXXXX            ",
"     XOXXXXXXXXXXOXXXXXXXXX             ",
"    XXXXXXXXXXXXXXXXXXX                 ",
"    @XXX.XXXXXXXXOXXXX                  ",
"    X@XXXXXXXXXXXXXX@                   ",
"   XXXXXXXXXXXXOXX                      ",
"   XXXXXXXX.XXXOX                       ",
"   XXXXXXX.OX.XX                        ",
"   X.XX@@XXXXXXX                        ",
"   XXXXXXXXXXXXX                        ",
"   XXXXXXXXX@XXX                        ",
"   XXXXoXXXXOXXXX                       ",
"   @XXXXXXXXXOXXXX                      ",
"    XXXXXXXXXXXXXXXXX                   ",
"    .XXXXX.XXXXXXXO@X@                  ",
"    XX@XXXXXOXXXXXX@XXXXXOXX            ",
"     XXXXXXXX@XXXX@.XXXXX.X@X           ",
"     XX@XXXXXXXOXXXXXXXXXX+XXXXXXXX     ",
"      XX@XX@.XXXXXXOOXXXXXXXXXXXXXX     ",
"       XX@XXX@XXXXXXOXX..XXXXXXXXXX     ",
"        XXXXXXXXXXXXO@XXXXX@XXXXXX      ",
"         XXXXXXXX@X.O.XXX.XXXX.@X       ",
"          XXXXXXXXXXXXXXXXXXXXXX        ",
"           XOXXXOXXXXXXXXXOXXXX         ",
"             @XXXXXXXXXXXXX#X           ",
"                XXXXXXXOXX              ",
"                                        ",
"                                        "
};
