/* XPM */
static char *out[] = {
/* columns rows colors chars-per-pixel */
"90 90 13 1 ",
"  c None",
". c black",
"X c #010000",
"o c #000100",
"O c #000001",
"+ c #AC3232",
"@ c #AD3232",
"# c #AC3332",
"$ c #AC3233",
"% c #FAF236",
"& c #FBF236",
"* c #FBF336",
"= c #FBF237",
/* pixels */
"                                                                                          ",
"                                                                                          ",
"                                                                                          ",
"                                 ..........o........o..                                   ",
"                                 .........................                                ",
"                            ........&&&&&&&&&&&&&&&&&&&....                               ",
"                          .....&&&&&&&&&&&&&%&&&&&&&&&=*&=....                            ",
"                         ....X&&&&&&&&&&&&&&&&&&&&&&&&&&&&&&......                        ",
"                        ..&&&&&*&&&&&&&&&&&&&&&%&&&&&&&&&&&&&&&&....                      ",
"                       X.&&&&&&&&&&&&&&&&&&&&&&&&&&&&&&&&&&&&&&&&&....                    ",
"                      ..&&&&&&&&&&&&&&&&&&&&&&&&&&&&&&&&&&&&&&&&&&&&....                  ",
"                   ....&&&&&&&&&&&&&&*&&&&&&&&&&&*&&&&&&&&&&&&&&&&&&&&...                 ",
"                  ....&&&&&&&&&&&&&&&&&&&&&&&&&&&&&&&&&&&&&&&&&&&&&&&&&...                ",
"                 ...%&&&&&&&&&&&&&&&&&&&&&&&&&&&&&&&*&&&&&&&&&&&*&&&&&&&&..               ",
"                ..&&&&&&&&&&&&&&&&&&&&&&&&&.......&&&%&&&&&&&&&&&&&&&&&&&&..              ",
"              ...&&&&&&&&&&=&&&&&&&&&&&&&...........&&&&&&&&&&&&&&&&&&&&&&&..             ",
"             o..&&&&&&&&&*&&*&&&&&&&&*&&.............&&&&&&&&&&&&&&&&&&&=&&&..            ",
"            ...&&&&&&&&&&&&&&&=&&&&&&&&O..............&&&&&&&&&&&&&&&&&&&&&&&..           ",
"           ...&&&&&&&&&&&&&&&&&&&&&&&&&...............&&&&&&&&&&&&&&&&&&&&&&&&..          ",
"          ...&&&&&&&&&&&&&&&&&&&&&&&&&&...............&&&&&&&&&&&&&&&&&&&&&&&&&..         ",
"         ...&&&&&&&&&&&&&&&&&&&&&&&&&&&&.............&&&&&&&&&&&&&&&&&&&&&&&&&&&.         ",
"        ...&&&&&&&&&&&*&&&&&&&&&&&&&&&&&&....O.X....&&&&&&&&&&&&*&&&&&&&&&&&&&&*.         ",
"        ..&&&&&&&&&&&&&&=&&&&&&&&&&&&&&&&&&.......&&&&&&&&&&&&&&&&&&&&&&&*%&*&&&.         ",
"       .X&&&&&&&&&&&&&&&&&&&&&&&&&&&&&&&&&&&&&&&&&&&&%&&&&&&&&&&&&&&&&&&&&&&&&...         ",
"       ..&&&&&&&&&&&&&&&&&%&&&=*&&&&&&&&&&&&&&&&&&&&&&=&&&&&&&&&&&&&&&&&&&&.....          ",
"      ...&&&&&&&&&&&&&&&&&&&&&&&&&&&&&&&&&&&&&&&&&&&&&&&&&&&&&&&&&&&&&&&....              ",
"      ..&&&&&&&&&&&&&&&&&&&&&&&*&&&&&&&&&&&&&&&&&&&&&&&&&&&&&&&&&&&&&&.....               ",
"     ...&&&&&&&&&&&&&&&&&&&&&&&&&&&&&&&&&&&&&&&&&&&&&&&&&&&&&&&&&&&&&O..                  ",
"    .XO&&&*&&&&&&&&&&&&&&&&&&&&&&&&&&&&&&&&&&&&&&&&&&&&&&=&&&&&&&&&....                   ",
"    ..&&&&&&&&&&&&&&&&&&&&&&&&&&&&&&&&&&&&&&&&&&&&&&&&&&&&&&&&&&&....                     ",
"   .o.&&&&&&&&&&&&&&&&&&&&&&&&&&&&&&&&&&&&&&&&&&&&&&&&&&&&&&&&&....                       ",
"   ..&=&&&&&&&&&&&&&&&&&&&&&&&&&&&&&&&&&*&&&&&&&&&&&&%=&&&&&&....                         ",
"   ..&&&&&&&&&&&&&&&&=&&&&&&&&&&&&&&&&&&&&&&&&&&&&&&&&&&%&&&...                           ",
"   ..&&&&&&&&&&&&&&&&&&&&&&&&&&&&&&&&&&&&&&&&&&&&&&&&&&&&&...                             ",
"  ..&&&&&&&&&&&&&&&*&&&&&&&&&&&&&&&&&&&&&&&&&&&&&&&&&&&&%...                              ",
"  ..&&&&&&*&&&&&&&&&&&&&&&&&&&&&&&&&&&&&&&&&&&&&&&&&&&&...                                ",
"  ..*&&&&&&&&&&&&&=&&&&&&&&&&&&&&&&&&&&&&&&&&&&&&&&&....                                  ",
"  ..&&&&&&&&&&&&&&&&&&&&&&&&&&&&&&&&&&&&&&&&&&&&&&....                                    ",
"  ..&&&&&&&&&&&&&&&&&&&&&&&&&&&&&&&&&&&&&&&&&&&&&...                                      ",
"  ..&&&&&&&&&&&&*&&&&&&&&*&&&&&&&&&&&&&&&&&&&&&.O..                                       ",
"  ..&&&&&&&&&&&&&&&&&&&&&&&&&&&&&&&&&&&&&&.......                                         ",
"  ..&&&&&&&%&&+++++++&&&&&&&*&&&&&&&&&&&&......                                           ",
"  ..&&&&&&&&&+++++$+++&&&&&&*&&&&&&&&&&&.....                                             ",
"  .O&&&&&&&&+++++++++++&&&&&&&&&&&&&&&&&...                                               ",
"  ..&&&&&&&&+++++++++$+%&&&&&&&&&&&&&&&&.                                                 ",
"  ..&&&&&&&&+++++++++++&&&&&&&&&&&&&&&&=.                                                 ",
"  ..&&&&&&&&+++++++++++&&&&&&&&&&&&&&&&=...                                               ",
"  ..&&&&&&&&&+++#+++++&&&&&&&&&&&&&&&&&&.....                                             ",
"  ..&&&&&&&%&&@+++$++&&&&&&=*&&&&&&&&&&&&......                                           ",
"  ..&&&*&&&&&&&&&&&&&&&&&&&&&&&&&&&&&&&&&&O....X.                                         ",
"  ..&&&&&&&&&&&&&&&&&&&&&&&&&%&&&&&&&&&&&%&&&&&....                                       ",
"  ..&&&&&&&&&&&&&&&&&&&&&&&&&&&&&&&%&&&&&&&&&&&&&..O                                      ",
"  ..&&&&&&&&&&&&&&&&&&&&&&&&&&&&&&&&&&&&&&&&&&&&&&....                                    ",
"  ..&&&&&&&&&&%&&&&&&&&&&&&&&&&&&&&&&&&&&&&&&&&&=&&=....                                  ",
"  ..&&&&&=&&&&&&&%&&&&&&&&&&&&&&&&&&&&&&&&&&&&&&&&&&&&&...                                ",
"  ..&&&&&&&&&&&&&&&&%&&&&&&&&&&&&&&&&&&&&&&&&&&&&&&&&&&&&...                              ",
"   ..&&&&&&&&&&&&&&&&=&&&&&&&&&&&&&&&&&&&&&&&&&&&&&&&&&&&&...                             ",
"   ..&&&%&&&&&&&&&=&&&&&&&&&&&&&&&&&&&&&&&&&&&&&&&&&&&&&&&&&...                           ",
"   ..&&&&&&&&&&&&&&&&&&&=&&&&&&&&&&&&&&&&&&&&&&&&&&&&&&&&&*&&....                         ",
"   ..X&&&&&&&&&&&&&&&&&&&&&&&&&&&&&&&&&&&&&&&&&&&&&&&&&&&&&&&&&....                       ",
"    ..&&%&*&&&&&&&&&&&&&&&&&&&&&&&*&&&&&&&=&&&&&&&&&&&&&&&&&&&&&&.O..                     ",
"    ...&&&&&&&&&&&&&&&&&&&&&&&&*&&&&&&&&&&&&&&&&&&&&&&&&&&&&&&&&&&&....                   ",
"     ...&&&&&&&&&&&&&&&&&&&&&&&&&&&&&&&&&&&&&&*&&&&&&&&&&&&&&&&&&&&&&...                  ",
"      ..%&&&&&%&&&&*&&&&&&&&&&&&&&&&&&&&&&&&&&&&&&&&&&&&&&&&&&&&&&&&&&....X               ",
"      ...&&&&&&&&&&&&&&&&&&&&&&&&&&&&&&&&&&&&&&&&&&&&&&&&&&&&&&&&&&&&&&&....              ",
"       ..&&&&&&&&&&&&&&&&*&&&&&&&&&&&&&&&&&&&&&%&&&&&&&&&&&&&&&&&&&&&&&&&&&.....          ",
"       ..&&&&&&&&&&&&&&%&&&&&&&&&&&&&&&&&&&&&&&%&&&&&&&&&&&&&&&&&&&&&&&&&&%&&&...         ",
"        ..&&&&&&&&=&&&&&&&&&&&&&&&&&=&&&&&&&&&&&&&&&&&&&&&&&&&&&&&&&&&&&&&&&&&&&.         ",
"        ...&&&&&&&&&&&&&&&&&&&&&&&&&&&&=&&&&&&&&&&&&&&&&&&&&&&&&&&&&&&&&&&&&&&&&.         ",
"         O..&&&&&&&&&&&%&&&&&&&*&&&&&&&&&&&&&&&&&&&&&&&&&&&&&&&&*&&&&&&&&&&&&&&&.         ",
"          ...&&&&&&&&&&&&&&&&&&&&&&&&&&&&&&&&&&&&&&&&&&&&&&&&&&&&&&&&&&&&&&&&&=..         ",
"           ...&=&&&&&&&&&&&&&&&&&&&&&&&&&&&&&&&&&&&&&&&&&&&&&&&&&&&&&&&&&*&&&&..          ",
"            ...&&&&&&&&&&&&&&&&&&&*&&&&&&&&&&&&&&&&&&&&&&&&&&&&&&&&&&&&&&&&&&..           ",
"             ...&&&&&&&&&&&&&&&&&&&%&&&&&&&&&&&&&*&&&&&&&&&&&&&&&&&&&&&&&&&&..            ",
"              ...&&&&&&&&&&&&&&&&&&&&&&&&&&&&&&&&&&&&&&&&&*&&&&&&&&&&&&&&&&..             ",
"                ..&&&&&&&&&&&&&&&=&&&&&&&&&&&&&&&&&&&&&&&&&&&&&&&&&&&=&&&*..              ",
"                 ...&&&&&&&&&&&&&&&&&&&&&&&&&&*&&&&&&&&&&&&&&&&&&&&&&&&&&..               ",
"                  ...O&%&&&&&&&&&&&&&&&&&&&&&&&&&&&&&&&&&&&&&&&&&&&&&&*...                ",
"                   ....%&&&&&&&&&&&&&&&&&&&&&&&&&&%&&&&&&&*&&&&&&&&&&&...                 ",
"                      ..&&&&&&&&&&&&=&&&&&&&&&&&&*&&&&&&&&&&&&&&&&&&....                  ",
"                       ..&&&&&&&&&&&&&&&&&&&&&&&&&%&*%&&&&&&&&&&&&....                    ",
"                        ..&=&&&&&&&&&&&&&&&&&&&&&&&&&&&&&&&&&&%&....                      ",
"                         .....&&&&&&&&&&&&&&&&&%&&&&&&&&&&*&......                        ",
"                          .....&&&&&&&&&&&&&&&&%&&&&&&&&&&....                            ",
"                            ........&&&&&&&&&&&&&&&&&&&..O.                               ",
"                                 ...............O.........                                ",
"                                 ......................                                   ",
"                                                                                          ",
"                                                                                          ",
"                                                                                          "
};
