2e9191/* XPM */
static char *out[] = {
/* columns rows colors chars-per-pixel */
"90 90 5 1 ",
"  c None",
". c #2e9191",
"X c #2e9191",
"o c #2e9191",
"O c #2e9191",
/* pixels */
"                                                                           OOOOOOOOOOOoOOO",
"                                                                           OOOOOOOOOOOOOOO",
"                                                                           OOOOOOOOOOOOOOO",
"                                                                           OOOOOOOOOOOOOOO",
"                                                                           OOOOOOOOOOOOOOO",
"                                                                           OOOOOOOOOOOOOOO",
"                                                                           OOOOOOOOOOOOOOO",
"                                                                           OOOOOOOOOOOOOOO",
"                                                                           OOOOOOOOOOOOOOO",
"                                                                           OOOOOO.OOOOOOOO",
"                                                                           OOOOOOOOOOOOOOo",
"                                                                           OOOOXOOOO.OOOOO",
"                                                                           OOOOOOOOOOOOOOO",
"                                                                           OOOOOOOOOOOOOOO",
"                                                                           OOOOOOOOOOOOOOO",
"                                                                           OOOOOOOOOOOOOOO",
"                                                                           OOOOOOOOOOOOOOO",
"                                                                           OOOOOOOOO.OOOOO",
"                                                                           OOOOOOOOOOOOOOO",
"                                                                           OOOOOOOOOOOOOOO",
"                                                                           OOOOOOOOOOOOOOO",
"                                                                           OOO.OOOOO.OOOOO",
"                                                                           OOoOOOOOOOOOOOO",
"                                                                           OOOOOOOOOOOOOOO",
"                                                                           OXOOOOOOOOOOOOO",
"                                                                           OOOOOOOOOOOOOOO",
"                                                                           OOOOOOOOOOOOOOO",
"                                                                           OOOOOOOOOOOOOOO",
"                                                                           OOOOOOOOOOOOOOO",
"                                                                           OOOOOOOOOOOOOOO",
"                                                                           OOOOOOOOOOOOOOO",
"                                                                           OOOOOOOOOOOOOOO",
"                                                                           OOOOOOOOOOOOOOO",
"                                                                           OOOOOOOOOOOoOOo",
"                                                                           OOOOOOOOOOOOOOO",
"                                                                           OOOOOOOOOOOOOOO",
"                                                                           .OOOOOOOOOOOOOO",
"                                                                           OOOOXOOOOOOOOOO",
"                                                                           OOOOOOOOOOOOOOO",
"                                                                           OOOOOOOXOOOOOOO",
"                                                                           OOoOOOOOOOOOOOO",
"                                                                           OOOOOOOOOOOOOOO",
"                                                                           OOOOOO.OOOOOOOO",
"                                                                           OOOOOOOOOOOOOOO",
"                                                                           .OOOOOOOOOOOOOO",
"                                                                           OOOOOOOOOOOOOXO",
"                                                                           OOOOOOOOOOOoOXO",
"                                                                           OOOOOOOOOOOOOOO",
"                                                                           OOOOOOOOOOOOOOO",
"                                                                           OOOOOOOOOOOOOOO",
"                                                                           .OOOOOOOO.OOOOO",
"                                                                           OOOOOOOOOOOOOOO",
"                                                                           OOOOOOOOOOOOOOO",
"                                                                           OOoOOOOOOOOOOOO",
"                                                                           OOOOOOOOOOOOOOO",
"                                                                           OOOOOOOXOOOOOOO",
"                                                                           OOOOOOOOOOOOOOO",
"                                                                           OOOOOOOOOOOOOOO",
"                                                                           OOOOOOOOOOOOOOO",
"                                                                           OOOOOOOOOOOOOOO",
"                                                                           OOOOOoOOOOOOOOO",
"                                                                           OOOOOOOOOOOOOXO",
"                                                                           OOOOOOOOOOOOOOO",
"                                                                           OOOOOOOOOOOOOOO",
"                                                                           OOOOOOOOOOOOOOO",
"                                                                           OOOOOOOOOOOOOOO",
"                                                                           OOOOOOOOOOOOOOO",
"                                                                           OOOOOOOXOOOOOOo",
"                                                                           OOOOOOOOO.OOOOO",
"                                                                           OOOOOOOOOOOOOOO",
"                                                                           OOOOOOOOOOOOOOO",
"                                                                           OOOOOOOOo.OOOOO",
"                                                                           OOO.OOOOOOOOOOO",
"                                                                           OOOOOOOOOOOOOOo",
"                                                                           .OOOOOOOOOOOOOO",
"                                                                           OOOOOOOOOOOOOOO",
"                                                                           OOOOOOOOOOOOOOO",
"                                                                           OOOOOOOOOOOOOOO",
"                                                                           OXOOOoOOOOOOOOO",
"                                                                           .OOOOOOOOOOOOOO",
"                                                                           OOOOOOOOOOOOOOO",
"                                                                           .OOOOOOOOOOOOOO",
"                                                                           OOOOOOOOOOOOOOO",
"                                                                           OOOOOOOOOOXOOOO",
"                                                                           OOOOOO.OOOXOOOO",
"                                                                           OXOOOOOOOOOOOOO",
"                                                                           OOOOOOOOOOOOOOO",
"                                                                           OOOOOoOOOOOOOOO",
"                                                                           .OOOOOOOOOOOOOO",
"                                                                           OOoOOOOOOOOOOOO"
};
