/* XPM */
static char *out[] = {
/* columns rows colors chars-per-pixel */
"90 90 6 1 ",
"  c None",
". c black",
"X c #AC3232",
"o c #AD3232",
"O c #AC3332",
"+ c #AC3233",
/* pixels */
"                                                                                          ",
"                                                                                          ",
"                                                                                          ",
"                                                                                          ",
"                                                                                          ",
"                                                                                          ",
"                                                                                          ",
"                                                                                          ",
"                                                                                          ",
"                                                                                          ",
"                                                                                          ",
"                                                                                          ",
"                                                                                          ",
"                                                                                          ",
"                                       ...                                                ",
"                                        ...  .                                            ",
"                                          .....   .....                                   ",
"                                            .........                                     ",
"                                             ..  ...                                      ",
"                                             ..                                           ",
"                                              .                                           ",
"                                              .                                           ",
"                                        XXXXXX.XXXXX                                      ",
"                                     XXXXXXXXX.XXXXXXXX                                   ",
"                                  XXXXXXXoXXXX.XXXXXXXXXXX                                ",
"                                XXXXXXXXXXXXXXXX+XoXXXXXXXXX                              ",
"                               XXXXXXXXXXXXXoXXXXXXXXXXXX+XXX                             ",
"                             XXXXXOXXXXXXXXXXXXXXXoXXXXXXXXXXOX                           ",
"                            XXXXXXXXXXXXXXXXXXXXXXXXXXXXXXXXXXXX                          ",
"                           XXXXXXXXXXOXXXXXXXXXXXXXXXXXXXXXX+XXXX                         ",
"                          XXXXXXXXXXXXXXXXXXXXXXXXXXXXXXXXXXXXXXXX                        ",
"                         XXXXXXXXXXXXXXXXXXXXXXXXXXXXXXXXXXXXXXXXXX                       ",
"                        XXXXXXXXXXXX+XXXXXXXXXXXXXXXXXXXXXXXXXXXXXXX                      ",
"                        XXXXXXXXXXXX+XXXXXXXXXXXXXXXXX+XXXXXXXXXXXXX                      ",
"                       XXXXXXXXXXXXXXXXXXXXXXXXXXXXXXXXXXXXXXXXXXXXXX                     ",
"                      XXXXXXXXXXXXXXXXXXXXXXXXXXXXXXXXXXXXXXXXXXXXXXXX                    ",
"                      XXXXXXXXXXXXXXXXXXXXXXXXXXXXXXXXXXXXXXXXXXXXXXXX                    ",
"                      XXXXXXXXXXXXXXXXXXOXXXXXXXXXXXXXXXXXXXXXXXXXXXXX                    ",
"                     XXoXXXXXoXXXXXXXXX+XXXXXXXXXXXXXXXXXXXXXXXXXXXXXXX                   ",
"                     XXXXXXXXX+XXXXXXXXXXXXXXXXXXXXXXXXXXXXXXXXXXXXXXXX                   ",
"                     XXXXXXXXXXXXXXXXXXXXXXXXXXXXXXXXXXXXXXXXXXXXXXXXXX                   ",
"                    XXXXXXXXXXXXXXXXXXXXXXXOXXXXXXXXXXXXXXXXXXXXXXXXXXXX                  ",
"                    XXXXXXXXXXXXXXXXXXXXXXXXXXXXXXXXXXXXXXXXXXXXXXXXXXXX                  ",
"                    XXXXXXXXXXXXXXXXXXXXXXXXXXXX+XoXXXXXXXXXXXoXXXXXXXXX                  ",
"                    XXXX+XXXXXXXXXXXXXXXXXXXXXXoXXXXXXXOXXXXXOXXXXXXXXXX                  ",
"                    XXXXXXXXXXXXXXXXXXXXXXXXXXXXXOXXXXXXXXXXXXXXXXXXXXXX                  ",
"                    XXXXXXXXXXXXXXXXXXXXXXXXXXXXXXXXXoXXXXXXXXXXXXXXXXXX                  ",
"                    XXXX+XXXXXXXXXXXXXoXXXXXXXXXXXXXXXXXXXXXXXXXXXXXXXXX                  ",
"                    XXXXXXXXXXXXXXXXXXXXXXXXXXXXXXXXXXXXXXXXXXXXXXXXXXXX                  ",
"                    XXXXXXXXXXXXoXXXXXXXXXXXXXXXXXXXXXXXXXXXXXXXXXXXXXXX                  ",
"                     XXXXXXXXXXXXXXXXXXXXXXXXXXXXXXXXXXXXXXXXXXXXXXXXXX                   ",
"                     +XXXXXXXXXXXXXXXXXXXXXXXXXXXXXXXoXXXXXXXXXXXXXXXXX                   ",
"                     XXXXXXXXXXOXXXXXXXXXXXXXXXXXXXXXXXXXXXXXXXXXXXXXXX                   ",
"                      XXXXXXXXXXX+XXXXXXXXXXXXXXXXXXXXXXoXXXXXXXXXXXXX                    ",
"                      XXXXXXXXXXX+XXXXXXXXXXXXXXXXXXXXXXXXXXXXXXXXXXXX                    ",
"                      XXXXXXXXXXoXXXXXXXXXXXXXXXXXX+XXXXXXXX+XXXXXXXXX                    ",
"                       XXXXXXXXXXXXXXXXXXXXXXXXXXXXXXXXXXXXXXXXXXXXXX                     ",
"                        XXXXXXXXXXXXXXXXXXXXXXXXXOXXXXXOXXXXXXXXXXXX                      ",
"                        +XXXXXXXXXXXXXXXXXXXXXXX+XXXXXXXXXXXXXXXXXXX                      ",
"                         XXXXXXXX+XXXXXXXXXXXXXXXXXXXXXXXXXXXXXXXXX                       ",
"                          XXXXXXXXXXXXXXXXXXXXXXXXXXXXXXXXXXXXXXXX                        ",
"                           XXXXXXXXXXXXXXXXXXXXXXXXXXXXXXXXXXXXXX                         ",
"                            XXXXX+XXXXXXXXXXXXXXXXXXXXXXXXOXXXXX                          ",
"                             XXXXXXXXXX+XXXXXXXXXXXXXXXXXXXXXXX                           ",
"                               XXXXXXXXXXXXXXXXXXXXXXXXXXXXXX                             ",
"                                XXXXXXXXXXXXXXXXXXXXXXXXXXXX                              ",
"                                  XXXXXXXXXXXXXXXXXXXXXXXX                                ",
"                                     XXXXXXXXXXXXXXXXXX                                   ",
"                                        XXXXXXOXXXX+                                      ",
"                                                                                          ",
"                                                                                          ",
"                                                                                          ",
"                                                                                          ",
"                                                                                          ",
"                                                                                          ",
"                                                                                          ",
"                                                                                          ",
"                                                                                          ",
"                                                                                          ",
"                                                                                          ",
"                                                                                          ",
"                                                                                          ",
"                                                                                          ",
"                                                                                          ",
"                                                                                          ",
"                                                                                          ",
"                                                                                          ",
"                                                                                          ",
"                                                                                          ",
"                                                                                          "
};
